<?xml version="1.0" encoding="UTF-8"?>
<map version="1.10" tiledversion="1.12.1" orientation="orthogonal" renderorder="right-down" width="150" height="100" tilewidth="32" tileheight="32" infinite="0" nextlayerid="3" nextobjectid="1">
 <tileset firstgid="1" name="Bridges" tilewidth="32" tileheight="32" tilecount="234" columns="13">
  <image source="Bridges.png" width="416" height="592"/>
 </tileset>
 <tileset firstgid="235" name="Ground" tilewidth="32" tileheight="32" tilecount="560" columns="20">
  <image source="Ground.png" width="640" height="896"/>
 </tileset>
 <tileset firstgid="795" name="spots" tilewidth="32" tileheight="32" tilecount="50" columns="10">
  <image source="spots.png" width="336" height="160"/>
 </tileset>
 <tileset firstgid="845" name="Objects" tilewidth="16" tileheight="16" tilecount="2112" columns="48">
  <image source="Objects.png" width="768" height="704"/>
 </tileset>
 <tileset firstgid="2957" name="Ground_rocks" tilewidth="32" tileheight="32" tilecount="270" columns="15">
  <image source="Ground_rocks.png" width="496" height="592"/>
 </tileset>
 <tileset firstgid="3227" name="terrain" tilewidth="32" tileheight="32" tilecount="9472" columns="64">
  <image source="terrain.png" width="2060" height="4760"/>
 </tileset>
 <tileset firstgid="12699" name="Details" tilewidth="32" tileheight="32" tilecount="90" columns="18">
  <image source="Details.png" width="576" height="176"/>
 </tileset>
 <layer id="1" name="Tile Layer 1" width="150" height="100">
  <data encoding="csv">
10344,10344,10344,10344,10344,10344,10344,10344,10344,10344,10344,10344,10344,10344,10344,10344,10344,10344,10344,10344,10344,10344,10344,10344,10344,10344,10344,10344,10344,10344,10344,10344,10344,10344,10344,10344,10344,10344,10344,10344,10344,10344,10344,10344,10344,10344,10344,10344,10344,10344,10344,10344,10344,10344,10344,10344,10344,10344,10344,10344,10344,10344,10344,10344,10344,10344,10344,10344,10344,10344,10344,10344,10344,10344,10344,10344,10344,10344,10344,10344,10344,10344,10344,10344,10344,10344,10344,10344,10344,10344,10344,10344,10344,10344,10344,10344,10344,10344,10344,10344,10344,10344,10344,10344,10344,10344,10344,10344,10344,10344,10344,10344,10344,10344,10344,10344,10344,10344,10344,10344,10344,10344,10344,10344,10344,10344,10344,10344,10344,10344,10344,10344,10344,10344,10344,10344,10344,10344,10344,10344,10344,10344,10344,10344,10344,10344,10344,10344,10344,10344,
10344,10344,10344,10344,10344,10344,10344,10344,10344,10344,10344,10344,10344,10344,10344,10344,10344,10344,10344,10344,10344,10344,10344,10344,10344,10344,10344,10344,10344,10344,10344,10344,10344,10344,10344,10344,10344,10344,10344,10344,10344,10344,10344,10344,10344,10344,10344,10344,10344,10344,10344,10344,10344,10344,10344,10344,10344,10344,10344,10344,10344,10344,10344,10344,10344,10344,10344,10344,10344,10344,10344,10344,10344,10344,10344,10344,10344,10344,10344,10344,10344,10344,10344,10344,10344,10344,10344,10344,10344,10344,10344,10344,10344,10344,10344,10344,10344,10344,10344,10344,10344,10344,10344,10344,10344,10344,10344,10344,10344,10344,10344,10344,10344,10344,10344,10344,10344,10344,10344,10344,10344,10344,10344,10344,10344,10344,10344,10344,10344,10344,10344,10344,10344,10344,10344,10344,10344,10344,10344,10344,10344,10344,10344,10344,10344,10344,10344,10344,10344,10344,
10344,10344,10344,10344,10344,10344,10344,10344,10344,10344,10344,10344,10344,10344,10344,10344,10344,10344,10344,10344,10344,10344,10344,10344,10344,10344,10344,10344,10344,10344,10344,10344,10344,10344,10344,10344,10344,10344,10344,10344,10344,10344,10344,10344,10344,10344,10344,10344,10344,10344,10344,10344,10344,10344,10344,10344,10344,10344,10344,10344,10344,10344,10344,10344,10344,10344,10344,10344,10344,10344,10344,10344,10344,10344,10344,10344,10344,10344,10344,10344,10344,10344,10344,10344,10344,10344,10344,10344,10344,10344,10344,10344,10344,10344,10344,10344,10344,10344,10344,10344,10344,10344,10344,10344,10344,10344,10344,10344,10344,10344,10344,10344,10344,10344,10344,10344,10344,10344,10344,10344,10344,10344,10344,10344,10344,10344,10344,10344,10344,10344,10344,10344,10344,10344,10344,10344,10344,10344,10344,10344,10344,10344,10344,10344,10344,10344,10344,10344,10344,10344,
10344,10344,10344,10344,10344,10344,10344,10344,10344,10344,10344,10344,10344,10344,10344,10344,10344,10344,10344,10344,10344,10344,10344,10344,10344,10344,10344,10344,10344,10344,10344,10344,10344,10344,10344,10344,10344,10344,10344,10344,10344,10344,10344,10344,10344,10344,10344,10344,10344,10344,10344,10344,10344,10344,10344,10344,10344,10344,10344,10344,10344,10344,10344,10344,10344,10344,10344,10344,10344,10344,10344,10344,10344,10344,10344,10344,10344,10344,10344,10344,10344,10344,10344,10344,10344,10344,10344,10344,10344,10344,10344,10344,10344,10344,10344,10344,10344,10344,10344,10344,10344,10344,10344,10344,10344,10344,10344,10344,10344,10344,10344,10344,10344,10344,10344,10344,10344,10344,10344,10344,10344,10344,10344,10344,10344,10344,10344,10344,10344,10344,10344,10344,10344,10344,10344,10344,10344,10344,10344,10344,10344,10344,10344,10344,10344,10344,10344,10344,10344,10344,
10344,10344,10344,10344,10344,10344,10344,10344,10344,10344,10344,10344,10344,10344,10344,10344,10344,10344,10344,10344,10344,10344,10344,10344,10344,10344,10344,10344,10344,10344,10344,10344,10344,10344,10344,10344,10344,10344,10344,10344,10344,10344,10344,10344,10344,10344,10344,10344,10344,10344,10344,10344,10344,10344,10344,10344,10344,10344,10344,10344,10344,10344,10344,10344,10344,10344,10344,10344,10344,10344,10344,10344,10344,10344,10344,10344,10344,10344,10344,10344,10344,10344,10344,10344,10344,10344,10344,10344,10344,10344,10344,10344,10344,10344,10344,10344,10344,10344,10344,10344,10344,10344,10344,10344,10344,10344,10344,10344,10344,10344,10344,10344,10344,10344,10344,10344,10344,10344,10344,10344,10344,10344,10344,10344,10344,10344,10344,10344,10344,10344,10344,10344,10344,10344,10344,10344,10344,10344,10344,10344,10344,10344,10344,10344,10344,10344,10344,10344,10344,10344,
10344,10344,10344,10344,10344,10344,10344,10344,10344,10344,10344,10344,10344,10344,10344,10344,10344,10344,10344,10344,10344,10344,10344,10344,10344,10344,10344,10344,10344,10344,10344,10344,10344,10344,10344,10344,10344,10344,10344,10344,10344,10344,10344,10344,10344,10344,10344,10344,10344,10344,10344,10344,10344,10344,10344,10344,10344,10344,10344,10344,10344,10344,10344,10344,10344,10344,10344,10344,10344,10344,10344,10344,10344,10344,10344,10344,10344,10344,10344,10344,10344,10344,10344,10344,10344,10344,10344,10344,10344,10344,10344,10344,10344,10344,10344,10344,10344,10344,10344,10344,10344,10344,10344,10344,10344,10344,10344,10344,10344,10344,10344,10344,10344,10344,10344,10344,10344,10344,10344,10344,10344,10344,10344,10344,10344,10344,10344,10344,10344,10344,10344,10344,10344,10344,10344,10344,10344,10344,10344,10344,10344,10344,10344,10344,10344,10344,10344,10344,10344,10344,
10344,10344,10344,10344,10344,10344,10344,10344,10344,10344,10344,10344,10344,10344,10344,10344,10344,10344,10344,10344,10344,10344,10344,10344,10344,10344,10344,10344,10344,10344,10344,10344,10344,10344,10344,10344,10344,10344,10344,10344,10344,10344,10344,10344,10344,10344,10344,10344,10344,10344,10344,10344,10344,10344,10344,10344,10344,10344,10344,10344,10344,10344,10344,10344,10344,10344,10344,10344,10344,10344,10344,10344,10344,10344,10344,10344,10344,10344,10344,10344,10344,10344,10344,10344,10344,10344,10344,10344,10344,10344,10344,10344,10344,10344,10344,10344,10344,10344,10344,10344,10344,10344,10344,10344,10344,10344,10344,10344,10344,10344,10344,10344,10344,10344,10344,10344,10344,10344,10344,10344,10344,10344,10344,10344,10344,10344,10344,10344,10344,10344,10344,10344,10344,10344,10344,10344,10344,10344,10344,10344,10344,10344,10344,10344,10344,10344,10344,10344,10344,10344,
10344,10344,10344,10344,10344,10344,10344,10344,10344,10344,10344,10344,10344,10344,10344,10344,10344,10344,10344,10344,10344,10344,10344,10344,10344,10344,10344,10344,10344,10344,10344,10344,10344,10344,10344,10344,10344,10344,10344,10344,10344,10344,10344,10344,10344,10344,10344,10344,10344,10344,10344,10344,10344,10344,10344,10344,10344,10344,10344,10344,10344,10344,10344,10344,10344,10344,10344,10344,10344,10344,10344,10344,10344,10344,10344,10344,10344,10344,10344,10344,10344,10344,10344,10344,10344,10344,10344,10344,10344,10344,10344,10344,10344,10344,10344,10344,10344,10344,10344,10344,10344,10344,10344,10344,10344,10344,10344,10344,10344,10344,10344,10344,10344,10344,10344,10344,10344,10344,10344,10344,10344,10344,10344,10344,10344,10344,10344,10344,10344,10344,10344,10344,10344,10344,10344,10344,10344,10344,10344,10344,10344,10344,10344,10344,10344,10344,10344,10344,10344,10344,
10344,10344,10344,10344,10344,10344,10344,10344,10344,10344,10344,10344,10344,10344,10344,10344,10344,10344,10344,10344,10344,10344,10344,10344,10344,10344,10344,10344,10344,10344,10344,10344,10344,10344,10344,10344,10344,10344,10344,10344,10344,10344,10344,10344,10344,10344,10344,10344,10344,10344,10344,10344,10344,10344,10344,10344,10344,10344,10344,10344,10344,10344,10344,10344,10344,10344,10344,10344,10344,10344,10344,10344,10344,10344,10344,10344,10344,10344,10344,10344,10344,10344,10344,10344,10344,10344,10344,10344,10344,10344,10344,10344,10344,10344,10344,10344,10344,10344,10344,10344,10344,10344,10344,10344,10344,10344,10344,10344,10344,10344,10344,10344,10344,10344,10344,10344,10344,10344,10344,10344,10344,10344,10344,10344,10344,10344,10344,10344,10344,10344,10344,10344,10344,10344,10344,10344,10344,10344,10344,10344,10344,10344,10344,10344,10344,10344,10344,10344,10344,10344,
10344,10344,10344,10344,10344,10344,10344,10344,10344,10344,10344,10344,10344,10344,10344,10344,10344,10344,10344,10344,10344,10344,10344,10344,10344,10344,10344,10344,10344,10344,10344,10344,10344,10344,10344,10344,10344,10344,10344,10344,10344,10344,10344,10344,10344,10344,10344,10344,10344,10344,10344,10344,10344,10344,10344,10344,10344,10344,10344,10344,10344,10344,10344,10344,10344,10344,10344,10344,10344,10344,10344,10344,10344,10344,10344,10344,10344,10344,10344,10344,10344,10344,10344,10344,10344,10344,10344,10344,10344,10344,10344,10344,10344,10344,10344,10344,10344,10344,10344,10344,10344,10344,10344,10344,10344,10344,10344,10344,10344,10344,10344,10344,10344,10344,10344,10344,10344,10344,10344,10344,10344,10344,10344,10344,10344,10344,10344,10344,10344,10344,10344,10344,10344,10344,10344,10344,10344,10344,10344,10344,10344,10344,10344,10344,10344,10344,10344,10344,10344,10344,
10344,10344,10344,10344,10344,10344,10344,10344,10344,10344,10344,10344,10344,10344,10344,10344,10344,10344,10344,10344,10344,10344,10344,10344,10344,10344,10344,10344,10344,10344,10344,10344,10344,10344,10344,10344,10344,10344,10344,10344,10344,10344,10344,10344,10344,10344,10344,10344,10344,10344,10344,10344,10344,10344,10344,10344,10344,10344,10344,10344,10344,10344,10344,10344,10344,10344,10344,10344,10344,10344,10344,10344,10344,10344,10344,10344,10344,10344,10344,10344,10344,10344,10344,10344,10344,10344,10344,10344,10344,10344,10344,10344,10344,10344,10344,10344,10344,10344,10344,10344,10344,10344,10344,10344,10344,10344,10344,10344,10344,10344,10344,10344,10344,10344,10344,10344,10344,10344,10344,10344,10344,10344,10344,10344,10344,10344,10344,10344,10344,10344,10344,10344,10344,10344,10344,10344,10344,10344,10344,10344,10344,10344,10344,10344,10344,10344,10344,10344,10344,10344,
10344,10344,10344,10344,10344,10344,10344,10344,10344,10344,10344,10344,10344,10344,10344,10344,10344,10344,10344,10344,10344,10344,10344,10344,10344,10344,10344,10344,10344,10344,10344,10344,10344,10344,10344,10344,10344,10344,10344,10344,10344,10344,10344,10344,10344,10344,10344,10344,10344,10344,10344,10344,10344,10344,10344,10344,10344,10344,10344,10344,10344,10344,10344,10344,10344,10344,10344,10344,10344,10344,10344,10344,10344,10344,10344,10344,10344,10344,10344,10344,10344,10344,10344,10344,10344,10344,10344,10344,10344,10344,10344,10344,10344,10344,10344,10344,10344,10344,10344,10344,10344,10344,10344,10344,10344,10344,10344,10344,10344,10344,10344,10344,10344,10344,10344,10344,10344,10344,10344,10344,10344,10344,10344,10344,10344,10344,10344,10344,10344,10344,10344,10344,10344,10344,10344,10344,10344,10344,10344,10344,10344,10344,10344,10344,10344,10344,10344,10344,10344,10344,
10344,10344,10344,10344,10344,10344,10344,10344,10344,10344,10344,10344,10344,10344,10344,10344,10344,10344,10344,10344,10344,10344,10344,10344,10344,10344,10344,10344,10344,10344,10344,10344,10344,10344,10344,10344,10344,10344,10344,10344,10344,10344,10344,10344,10344,10344,10344,10344,10344,10344,10344,10344,10344,10344,10344,10344,10344,10344,10344,10344,10344,10344,10344,10344,10344,10344,10344,10344,10344,10344,10344,10344,10344,10344,10344,10344,10344,10344,10344,10344,10344,10344,10344,10344,10344,10344,10344,10344,10344,10344,10344,10344,10344,10344,10344,10344,10344,10344,10344,10344,10344,10344,10344,10344,10344,10344,10344,10344,10344,10344,10344,10344,10344,10344,10344,10344,10344,10344,10344,10344,10344,10344,10344,10344,10344,10344,10344,10344,10344,10344,10344,10344,10344,10344,10344,10344,10344,10344,10344,10344,10344,10344,10344,10344,10344,10344,10344,10344,10344,10344,
10344,10344,10344,10344,10344,10344,10344,10344,10344,10344,10344,10344,10344,10344,10344,10344,10344,10344,10344,10344,10344,10344,10344,10344,10344,10344,10344,10344,10344,10344,10344,10344,10344,10344,10344,10344,10344,10344,10344,10344,10344,10344,10344,10344,10344,10344,10344,10344,10344,10344,10344,10344,10344,10344,10344,10344,10344,10344,10344,10344,10344,10344,10344,10344,10344,10344,10344,10344,10344,10344,10344,10344,10344,10344,10344,10344,10344,10344,10344,10344,10344,10344,10344,10344,10344,10344,10344,10344,10344,10344,10344,10344,10344,10344,10344,10344,10344,10344,10344,10344,10344,10344,10344,10344,10344,10344,10344,10344,10344,10344,10344,10344,10344,10344,10344,10344,10344,10344,10344,10344,10344,10344,10344,10344,10344,10344,10344,10344,10344,10344,10344,10344,10344,10344,10344,10344,10344,10344,10344,10344,10344,10344,10344,10344,10344,10344,10344,10344,10344,10344,
10344,10344,10344,10344,10344,10344,10344,10344,10344,10344,10344,10344,10344,10344,10344,10344,10344,10344,10344,10344,10344,10344,10344,10344,10344,10344,10344,10344,10344,10344,10344,10344,10344,10344,10344,10344,10344,10344,10344,10344,10344,10344,10344,10344,10344,10344,10344,10344,10344,10344,10344,10344,10344,10344,10344,10344,10344,10344,10344,10344,10344,10344,10344,10344,10344,10344,10344,10344,10344,10344,10344,10344,10344,10344,10344,10344,10344,10344,10344,10344,10344,10344,10344,10344,10344,10344,10344,10344,10344,10344,10344,10344,10344,10344,10344,10344,10344,10344,10344,10344,10344,10344,10344,10344,10344,10344,10344,10344,10344,10344,10344,10344,10344,10344,10344,10344,10344,10344,10344,10344,10344,10344,10344,10344,10344,10344,10344,10344,10344,10344,10344,10344,10344,10344,10344,10344,10344,10344,10344,10344,10344,10344,10344,10344,10344,10344,10344,10344,10344,10344,
10344,10344,10344,10344,10344,10344,10344,10344,10344,10344,10344,10344,10344,10344,10344,10344,10344,10344,10344,10344,10344,10344,10344,10344,10344,10344,10344,10344,10344,10344,10344,10344,10344,10344,10344,10344,10344,10344,10344,10344,10344,10344,10344,10344,10344,10344,10344,10344,10344,10344,10344,10344,10344,10344,10344,10344,10344,10344,10344,10344,10344,10344,10344,10344,10344,10344,10344,10344,10344,10344,10344,10344,10344,10344,10344,10344,10344,10344,10344,10344,10344,10344,10344,10344,10344,10344,10344,10344,10344,10344,10344,10344,10344,10344,10344,10344,10344,10344,10344,10344,10344,10344,10344,10344,10344,10344,10344,10344,10344,10344,10344,10344,10344,10344,10344,10344,10344,10344,10344,10344,10344,10344,10344,10344,10344,10344,10344,10344,10344,10344,10344,10344,10344,10344,10344,10344,10344,10344,10344,10344,10344,10344,10344,10344,10344,10344,10344,10344,10344,10344,
10344,10344,10344,10344,10344,10344,10344,10344,10344,10344,10344,10344,10344,10344,10344,10344,10344,10344,10344,10344,10344,10344,10344,10344,10344,10344,10344,10344,10344,10344,10344,10344,10344,10344,10344,10344,10344,10344,10344,10344,10344,10344,10344,10344,10344,10344,10344,10344,10344,10344,10344,10344,10344,10344,10344,10344,10344,10344,10344,10344,10344,10344,10344,10344,10344,10344,10344,10344,10344,10344,10344,10344,10344,10344,10344,10344,10344,10344,10344,10344,10344,10344,10344,10344,10344,10344,10344,10344,10344,10344,10344,10344,10344,10344,10344,10344,10344,10344,10344,10344,10344,10344,10344,10344,10344,10344,10344,10344,10344,10344,10344,10344,10344,10344,10344,10344,10344,10344,10344,10344,10344,10344,10344,10344,10344,10344,10344,10344,10344,10344,10344,10344,10344,10344,10344,10344,10344,10344,10344,10344,10344,10344,10344,10344,10344,10344,10344,10344,10344,10344,
10344,10344,10344,10344,10344,10344,10344,10344,10344,10344,10344,10344,10344,10344,10344,10344,10344,10344,10344,10344,10344,10344,10344,10344,10344,10344,10344,10344,10344,10344,10344,10344,10344,10344,10344,10344,10344,10344,10344,10344,10344,10344,10344,10344,10344,10344,10344,10344,10344,10344,10344,10344,10344,10344,10344,10344,10344,10344,10344,10344,10344,10344,10344,10344,10344,10344,10344,10344,10344,10344,10344,10344,10344,10344,10344,10344,10344,10344,10344,10344,10344,10344,10344,10344,10344,10344,10344,10344,10344,10344,10344,10344,10344,10344,10344,10344,10344,10344,10344,10344,10344,10344,10344,10344,10344,10344,10344,10344,10344,10344,10344,10344,10344,10344,10344,10344,10344,10344,10344,10344,10344,10344,10344,10344,10344,10344,10344,10344,10344,10344,10344,10344,10344,10344,10344,10344,10344,10344,10344,10344,10344,10344,10344,10344,10344,10344,10344,10344,10344,10344,
10344,10344,10344,10344,10344,10344,10344,10344,10344,10344,10344,10344,10344,10344,10344,10344,10344,10344,10344,10344,10344,10344,10344,10344,10344,10344,10344,10344,10344,10344,10344,10344,10344,10344,10344,10344,10344,10344,10344,10344,10344,10344,10344,10344,10344,10344,10344,10344,10344,10344,10344,10344,10344,10344,10344,10344,10344,10344,10344,10344,10344,10344,10344,10344,10344,10344,10344,10344,10344,10344,10344,10344,10344,10344,10344,10344,10344,10344,10344,10344,10344,10344,10344,10344,10344,10344,10344,10344,10344,10344,10344,10344,10344,10344,10344,10344,10344,10344,10344,10344,10344,10344,10344,10344,10344,10344,10344,10344,10344,10344,10344,10344,10344,10344,10344,10344,10344,10344,10344,10344,10344,10344,10344,10344,10344,10344,10344,10344,10344,10344,10344,10344,10344,10344,10344,10344,10344,10344,10344,10344,10344,10344,10344,10344,10344,10344,10344,10344,10344,10344,
10344,10344,10344,10344,10344,10344,10344,10344,10344,10344,10344,10344,10344,10344,10344,10344,10344,10344,10344,10344,10344,10344,10344,10344,10344,10344,10344,10344,10344,10344,10344,10344,10344,10344,10344,10344,10344,10344,10344,10344,10344,10344,10344,10344,10344,10344,10344,10344,10344,10344,10344,10344,10344,10344,10344,10344,10344,10344,10344,10344,10344,10344,10344,10344,10344,10344,10344,10344,10344,10344,10344,10344,10344,10344,10344,10344,10344,10344,10344,10344,10344,10344,10344,10344,10344,10344,10344,10344,10344,10344,10344,10344,10344,10344,10344,10344,10344,10344,10344,10344,10344,10344,10344,10344,10344,10344,10344,10344,10344,10344,10344,10344,10344,10344,10344,10344,10344,10344,10344,10344,10344,10344,10344,10344,10344,10344,10344,10344,10344,10344,10344,10344,10344,10344,10344,10344,10344,10344,10344,10344,10344,10344,10344,10344,10344,10344,10344,10344,10344,10344,
10344,10344,10344,10344,10344,10344,10344,10344,10344,10344,10344,10344,10344,10344,10344,10344,10344,10344,10344,10344,10344,10344,10344,10344,10344,10344,10344,10344,10344,10344,10344,10344,10344,10344,10344,10344,10344,10344,10344,10344,10344,10344,10344,10344,10344,10344,10344,10344,10344,10344,10344,10344,10344,10344,10344,10344,10344,10344,10344,10344,10344,10344,10344,10344,10344,10344,10344,10344,10344,10344,10344,10344,10344,10344,10344,10344,10344,10344,10344,10344,10344,10344,10344,10344,10344,10344,10344,10344,10344,10344,10344,10344,10344,10344,10344,10344,10344,10344,10344,10344,10344,10344,10344,10344,10344,10344,10344,10344,10344,10344,10344,10344,10344,10344,10344,10344,10344,10344,10344,10344,10344,10344,10344,10344,10344,10344,10344,10344,10344,10344,10344,10344,10344,10344,10344,10344,10344,10344,10344,10344,10344,10344,10344,10344,10344,10344,10344,10344,10344,10344,
10344,10344,10344,10344,10344,10344,10344,10344,10344,10344,10344,10344,10344,10344,10344,10344,10344,10344,10344,10344,10344,10344,10344,10344,10344,10344,10344,10344,10344,10344,10344,10344,10344,10344,10344,10344,10344,10344,10344,10344,10344,10344,10344,10344,10344,10344,10344,10344,10344,10344,10344,10344,10344,10344,10344,10344,10344,10344,10344,10344,10344,10344,10344,10344,10344,10344,10344,10344,10344,10344,10344,10344,10344,10344,10344,10344,10344,10344,10344,10344,10344,10344,10344,10344,10344,10344,10344,10344,10344,10344,10344,10344,10344,10344,10344,10344,10344,10344,10344,10344,10344,10344,10344,10344,10344,10344,10344,10344,10344,10344,10344,10344,10344,10344,10344,10344,10344,10344,10344,10344,10344,10344,10344,10344,10344,10344,10344,10344,10344,10344,10344,10344,10344,10344,10344,10344,10344,10344,10344,10344,10344,10344,10344,10344,10344,10344,10344,10344,10344,10344,
10344,10344,10344,10344,10344,10344,10344,10344,10344,10344,10344,10344,10344,10344,10344,10344,10344,10344,10344,10344,10344,10344,10344,10344,10344,10344,10344,10344,10344,10344,10344,10344,10344,10344,10344,10344,10344,10344,10344,10344,10344,10344,10344,10344,10344,10344,10344,10344,10344,10344,10344,10344,10344,10344,10344,10344,10344,10344,10344,10344,10344,10344,10344,10344,10344,10344,10344,10344,10344,10344,10344,10344,10344,10344,10344,10344,10344,10344,10344,10344,10344,10344,10344,10344,10344,10344,10344,10344,10344,10344,10344,10344,10344,10344,10344,10344,10344,10344,10344,10344,10344,10344,10344,10344,10344,10344,10344,10344,10344,10344,10344,10344,10344,10344,10344,10344,10344,10344,10344,10344,10344,10344,10344,10344,10344,10344,10344,10344,10344,10344,10344,10344,10344,10344,10344,10344,10344,10344,10344,10344,10344,10344,10344,10344,10344,10344,10344,10344,10344,10344,
10344,10344,10344,10344,10344,10344,10344,10344,10344,10344,10344,10344,10344,10344,10344,10344,10344,10344,10344,10344,10344,10344,10344,10344,10344,10344,10344,10344,10344,10344,10344,10344,10344,10344,10344,10344,10344,10344,10344,10344,10344,10344,10344,10344,10344,10344,10344,10344,10344,10344,10344,10344,10344,10344,10344,10344,10344,10344,10344,10344,10344,10344,10344,10344,10344,10344,10344,10344,10344,10344,10344,10344,10344,10344,10344,10344,10344,10344,10344,10344,10344,10344,10344,10344,10344,10344,10344,10344,10344,10344,10344,10344,10344,10344,10344,10344,10344,10344,10344,10344,10344,10344,10344,10344,10344,10344,10344,10344,10344,10344,10344,10344,10344,10344,10344,10344,10344,10344,10344,10344,10344,10344,10344,10344,10344,10344,10344,10344,10344,10344,10344,10344,10344,10344,10344,10344,10344,10344,10344,10344,10344,10344,10344,10344,10344,10344,10344,10344,10344,10344,
10344,10344,10344,10344,10344,10344,10344,10344,10344,10344,10344,10344,10344,10344,10344,10344,10344,10344,10344,10344,10344,10344,10344,10344,10344,10344,10344,10344,10344,10344,10344,10344,10344,10344,10344,10344,10344,10344,10344,10344,10344,10344,10344,10344,10344,10344,10344,10344,10344,10344,10344,10344,10344,10344,10344,10344,10344,10344,10344,10344,10344,10344,10344,10344,10344,10344,10344,10344,10344,10344,10344,10344,10344,10344,10344,10344,10344,10344,10344,10344,10344,10344,10344,10344,10344,10344,10344,10344,10344,10344,10344,10344,10344,10344,10344,10344,10344,10344,10344,10344,10344,10344,10344,10344,10344,10344,10344,10344,10344,10344,10344,10344,10344,10344,10344,10344,10344,10344,10344,10344,10344,10344,10344,10344,10344,10344,10344,10344,10344,10344,10344,10344,10344,10344,10344,10344,10344,10344,10344,10344,10344,10344,10344,10344,10344,10344,10344,10344,10344,10344,
10344,10344,10344,10344,10344,10344,10344,10344,10344,10344,10344,10344,10344,10344,10344,10344,10344,10344,10344,10344,10344,10344,10344,10344,10344,10344,10344,10344,10344,10344,10344,10344,10344,10344,10344,10344,10344,10344,10344,10344,10344,10344,10344,10344,10344,10344,10344,10344,10344,10344,10344,10344,10344,10344,10344,10344,10344,10344,10344,10344,10344,10344,10344,10344,10344,10344,10344,10344,10344,10344,10344,10344,10344,10344,10344,10344,10344,10344,10344,10344,10344,10344,10344,10344,10344,10344,10344,10344,10344,10344,10344,10344,10344,10344,10344,10344,10344,10344,10344,10344,10344,10344,10344,10344,10344,10344,10344,10344,10344,10344,10344,10344,10344,10344,10344,10344,10344,10344,10344,10344,10344,10344,10344,10344,10344,10344,10344,10344,10344,10344,10344,10344,10344,10344,10344,10344,10344,10344,10344,10344,10344,10344,10344,10344,10344,10344,10344,10344,10344,10344,
10344,10344,10344,10344,10344,10344,10344,10344,10344,10344,10344,10344,10344,10344,10344,10344,10344,10344,10344,10344,10344,10344,10344,10344,10344,10344,10344,10344,10344,10344,10344,10344,10344,10344,10344,10344,10344,10344,10344,10344,10344,10344,10344,10344,10344,10344,10344,10344,10344,10344,10344,10344,10344,10344,10344,10344,10344,10344,10344,10344,10344,10344,10344,10344,10344,10344,10344,10344,10344,10344,10344,10344,10344,10344,10344,10344,10344,10344,10344,10344,10344,10344,10344,10344,10344,10344,10344,10344,10344,10344,10344,10344,10344,10344,10344,10344,10344,10344,10344,10344,10344,10344,10344,10344,10344,10344,10344,10344,10344,10344,10344,10344,10344,10344,10344,10344,10344,10344,10344,10344,10344,10344,10344,10344,10344,10344,10344,10344,10344,10344,10344,10344,10344,10344,10344,10344,10344,10344,10344,10344,10344,10344,10344,10344,10344,10344,10344,10344,10344,10344,
10344,10344,10344,10344,10344,10344,10344,10344,10344,10344,10344,10344,10344,10344,10344,10344,10344,10344,10344,10344,10344,10344,10344,10344,10344,10344,10344,10344,10344,10344,10344,10344,10344,10344,10344,10344,10344,10344,10344,10344,10344,10344,10344,10344,10344,10344,10344,10344,10344,10344,10344,10344,10344,10344,10344,10344,10344,10344,10344,10344,10344,10344,10344,10344,10344,10344,10344,10344,10344,10344,10344,10344,10344,10344,10344,10344,10344,10344,10344,10344,10344,10344,10344,10344,10344,10344,10344,10344,10344,10344,10344,10344,10344,10344,10344,10344,10344,10344,10344,10344,10344,10344,10344,10344,10344,10344,10344,10344,10344,10344,10344,10344,10344,10344,10344,10344,10344,10344,10344,10344,10344,10344,10344,10344,10344,10344,10344,10344,10344,10344,10344,10344,10344,10344,10344,10344,10344,10344,10344,10344,10344,10344,10344,10344,10344,10344,10344,10344,10344,10344,
10344,10344,10344,10344,10344,10344,10344,10344,10344,10344,10344,10344,10344,10344,10344,10344,10344,10344,10344,10344,10344,10344,10344,10344,10344,10344,10344,10344,10344,10344,10344,10344,10344,10344,10344,10344,10344,10344,10344,10344,10344,10344,10344,10344,10344,10344,10344,10344,10344,10344,10344,10344,10344,10344,10344,10344,10344,10344,10344,10344,10344,10344,10344,10344,10344,10344,10344,10344,10344,10344,10344,10344,10344,10344,10344,10344,10344,10344,10344,10344,10344,10344,10344,10344,10344,10344,10344,10344,10344,10344,10344,10344,10344,10344,10344,10344,10344,10344,10344,10344,10344,10344,10344,10344,10344,10344,10344,10344,10344,10344,10344,10344,10344,10344,10344,10344,10344,10344,10344,10344,10344,10344,10344,10344,10344,10344,10344,10344,10344,10344,10344,10344,10344,10344,10344,10344,10344,10344,10344,10344,10344,10344,10344,10344,10344,10344,10344,10344,10344,10344,
10344,10344,10344,10344,10344,10344,10344,10344,10344,10344,10344,10344,10344,10344,10344,10344,10344,10344,10344,10344,10344,10344,10344,10344,10344,10344,10344,10344,10344,10344,10344,10344,10344,10344,10344,10344,10344,10344,10344,10344,10344,10344,10344,10344,10344,10344,10344,10344,10344,10344,10344,10344,10344,10344,10344,10344,10344,10344,10344,10344,10344,10344,10344,10344,10344,10344,10344,10344,10344,10344,10344,10344,10344,10344,10344,10344,10344,10344,10344,10344,10344,10344,10344,10344,10344,10344,10344,10344,10344,10344,10344,10344,10344,10344,10344,10344,10344,10344,10344,10344,10344,10344,10344,10344,10344,10344,10344,10344,10344,10344,10344,10344,10344,10344,10344,10344,10344,10344,10344,10344,10344,10344,10344,10344,10344,10344,10344,10344,10344,10344,10344,10344,10344,10344,10344,10344,10344,10344,10344,10344,10344,10344,10344,10344,10344,10344,10344,10344,10344,10344,
10344,10344,10344,10344,10344,10344,10344,10344,10344,10344,10344,10344,10344,10344,10344,10344,10344,10344,10344,10344,10344,10344,10344,10344,10344,10344,10344,10344,10344,10344,10344,10344,10344,10344,10344,10344,10344,10344,10344,10344,10344,10344,10344,10344,10344,10344,10344,10344,10344,10344,10344,10344,10344,10344,10344,10344,10344,10344,10344,10344,10344,10344,10344,10344,10344,10344,10344,10344,10344,10344,10344,10344,10344,10344,10344,10344,10344,10344,10344,10344,10344,10344,10344,10344,10344,10344,10344,10344,10344,10344,10344,10344,10344,10344,10344,10344,10344,10344,10344,10344,10344,10344,10344,10344,10344,10344,10344,10344,10344,10344,10344,10344,10344,10344,10344,10344,10344,10344,10344,10344,10344,10344,10344,10344,10344,10344,10344,10344,10344,10344,10344,10344,10344,10344,10344,10344,10344,10344,10344,10344,10344,10344,10344,10344,10344,10344,10344,10344,10344,10344,
10344,10344,10344,10344,10344,10344,10344,10344,10344,10344,10344,10344,10344,10344,10344,10344,10344,10344,10344,10344,10344,10344,10344,10344,10344,10344,10344,10344,10344,10344,10344,10344,10344,10344,10344,10344,10344,10344,10344,10344,10344,10344,10344,10344,10344,10344,10344,10344,10344,10344,10344,10344,10344,10344,10344,10344,10344,10344,10344,10344,10344,10344,10344,10344,10344,10344,10344,10344,10344,10344,10344,10344,10344,10344,10344,10344,10344,10344,10344,10344,10344,10344,10344,10344,10344,10344,10344,10344,10344,10344,10344,10344,10344,10344,10344,10344,10344,10344,10344,10344,10344,10344,10344,10344,10344,10344,10344,10344,10344,10344,10344,10344,10344,10344,10344,10344,10344,10344,10344,10344,10344,10344,10344,10344,10344,10344,10344,10344,10344,10344,10344,10344,10344,10344,10344,10344,10344,10344,10344,10344,10344,10344,10344,10344,10344,10344,10344,10344,10344,10344,
10344,10344,10344,10344,10344,10344,10344,10344,10344,10344,10344,10344,10344,10344,10344,10344,10344,10344,10344,10344,10344,10344,10344,10344,10344,10344,10344,10344,10344,10344,10344,10344,10344,10344,10344,10344,10344,10344,10344,10344,10344,10344,10344,10344,10344,10344,10344,10344,10344,10344,10344,10344,10344,10344,10344,10344,10344,10344,10344,10344,10344,10344,10344,10344,10344,10344,10344,10344,10344,10344,10344,10344,10344,10344,10344,10344,10344,10344,10344,10344,10344,10344,10344,10344,10344,10344,10344,10344,10344,10344,10344,10344,10344,10344,10344,10344,10344,10344,10344,10344,10344,10344,10344,10344,10344,10344,10344,10344,10344,10344,10344,10344,10344,10344,10344,10344,10344,10344,10344,10344,10344,10344,10344,10344,10344,10344,10344,10344,10344,10344,10344,10344,10344,10344,10344,10344,10344,10344,10344,10344,10344,10344,10344,10344,10344,10344,10344,10344,10344,10344,
10344,10344,10344,10344,10344,10344,10344,10344,10344,10344,10344,10344,10344,10344,10344,10344,10344,10344,10344,10344,10344,10344,10344,10344,10344,10344,10344,10344,10344,10344,10344,10344,10344,10344,10344,10344,10344,10344,10344,10344,10344,10344,10344,10344,10344,10344,10344,10344,10344,10344,10344,10344,10344,10344,10344,10344,10344,10344,10344,10344,10344,10344,10344,10344,10344,10344,10344,10344,10344,10344,10344,10344,10344,10344,10344,10344,10344,10344,10344,10344,10344,10344,10344,10344,10344,10344,10344,10344,10344,10344,10344,10344,10344,10344,10344,10344,10344,10344,10344,10344,10344,10344,10344,10344,10344,10344,10344,10344,10344,10344,10344,10344,10344,10344,10344,10344,10344,10344,10344,10344,10344,10344,10344,10344,10344,10344,10344,10344,10344,10344,10344,10344,10344,10344,10344,10344,10344,10344,10344,10344,10344,10344,10344,10344,10344,10344,10344,10344,10344,10344,
10344,10344,10344,10344,10344,10344,10344,10344,10344,10344,10344,10344,10344,10344,10344,10344,10344,10344,10344,10344,10344,10344,10344,10344,10344,10344,10344,10344,10344,10344,10344,10344,10344,10344,10344,10344,10344,10344,10344,10344,10344,10344,10344,10344,10344,10344,10344,10344,10344,10344,10344,10344,10344,10344,10344,10344,10344,10344,10344,10344,10344,10344,10344,10344,10344,10344,10344,10344,10344,10344,10344,10344,10344,10344,10344,10344,10344,10344,10344,10344,10344,10344,10344,10344,10344,10344,10344,10344,10344,10344,10344,10344,10344,10344,10344,10344,10344,10344,10344,10344,10344,10344,10344,10344,10344,10344,10344,10344,10344,10344,10344,10344,10344,10344,10344,10344,10344,10344,10344,10344,10344,10344,10344,10344,10344,10344,10344,10344,10344,10344,10344,10344,10344,10344,10344,10344,10344,10344,10344,10344,10344,10344,10344,10344,10344,10344,10344,10344,10344,10344,
10344,10344,10344,10344,10344,10344,10344,10344,10344,10344,10344,10344,10344,10344,10344,10344,10344,10344,10344,10344,10344,10344,10344,10344,10344,10344,10344,10344,10344,10344,10344,10344,10344,10344,10344,10344,10344,10344,10344,10344,10344,10344,10344,10344,10344,10344,10344,10344,10344,10344,10344,10344,10344,10344,10344,10344,10344,10344,10344,10344,10344,10344,10344,10344,10344,10344,10344,10344,10344,10344,10344,10344,10344,10344,10344,10344,10344,10344,10344,10344,10344,10344,10344,10344,10344,10344,10344,10344,10344,10344,10344,10344,10344,10344,10344,10344,10344,10344,10344,10344,10344,10344,10344,10344,10344,10344,10344,10344,10344,10344,10344,10344,10344,10344,10344,10344,10344,10344,10344,10344,10344,10344,10344,10344,10344,10344,10344,10344,10344,10344,10344,10344,10344,10344,10344,10344,10344,10344,10344,10344,10344,10344,10344,10344,10344,10344,10344,10344,10344,10344,
10344,10344,10344,10344,10344,10344,10344,10344,10344,10344,10344,10344,10344,10344,10344,10344,10344,10344,10344,10344,10344,10344,10344,10344,10344,10344,10344,10344,10344,10344,10344,10344,10344,10344,10344,10344,10344,10344,10344,10344,10344,10344,10344,10344,10344,10344,10344,10344,10344,10344,10344,10344,10344,10344,10344,10344,10344,10344,10344,10344,10344,10344,10344,10344,10344,10344,10344,10344,10344,10344,10344,10344,10344,10344,10344,10344,10344,10344,10344,10344,10344,10344,10344,10344,10344,10344,10344,10344,10344,10344,10344,10344,10344,10344,10344,10344,10344,10344,10344,10344,10344,10344,10344,10344,10344,10344,10344,10344,10344,10344,10344,10344,10344,10344,10344,10344,10344,10344,10344,10344,10344,10344,10344,10344,10344,10344,10344,10344,10344,10344,10344,10344,10344,10344,10344,10344,10344,10344,10344,10344,10344,10344,10344,10344,10344,10344,10344,10344,10344,10344,
10344,10344,10344,10344,10344,10344,10344,10344,10344,10344,10344,10344,10344,10344,10344,10344,10344,10344,10344,10344,10344,10344,10344,10344,10344,10344,10344,10344,10344,10344,10344,10344,10344,10344,10344,10344,10344,10344,10344,10344,10344,10344,10344,10344,10344,10344,10344,10344,10344,10344,10344,10344,10344,10344,10344,10344,10344,10344,10344,10344,10344,10344,10344,10344,10344,10344,10344,10344,10344,10344,10344,10344,10344,10344,10344,10344,10344,10344,10344,10344,10344,10344,10344,10344,10344,10344,10344,10344,10344,10344,10344,10344,10344,10344,10344,10344,10344,10344,10344,10344,10344,10344,10344,10344,10344,10344,10344,10344,10344,10344,10344,10344,10344,10344,10344,10344,10344,10344,10344,10344,10344,10344,10344,10344,10344,10344,10344,10344,10344,10344,10344,10344,10344,10344,10344,10344,10344,10344,10344,10344,10344,10344,10344,10344,10344,10344,10344,10344,10344,10344,
10344,10344,10344,10344,10344,10344,10344,10344,10344,10344,10344,10344,10344,10344,10344,10344,10344,10344,10344,10344,10344,10344,10344,10344,10344,10344,10344,10344,10344,10344,10344,10344,10344,10344,10344,10344,10344,10344,10344,10344,10344,10344,10344,10344,10344,10344,10344,10344,10344,10344,10344,10344,10344,10344,10344,10344,10344,10344,10344,10344,10344,10344,10344,10344,10344,10344,10344,10344,10344,10344,10344,10344,10344,10344,10344,10344,10344,10344,10344,10344,10344,10344,10344,10344,10344,10344,10344,10344,10344,10344,10344,10344,10344,10344,10344,10344,10344,10344,10344,10344,10344,10344,10344,10344,10344,10344,10344,10344,10344,10344,10344,10344,10344,10344,10344,10344,10344,10344,10344,10344,10344,10344,10344,10344,10344,10344,10344,10344,10344,10344,10344,10344,10344,10344,10344,10344,10344,10344,10344,10344,10344,10344,10344,10344,10344,10344,10344,10344,10344,10344,
10344,10344,10344,10344,10344,10344,10344,10344,10344,10344,10344,10344,10344,10344,10344,10344,10344,10344,10344,10344,10344,10344,10344,10344,10344,10344,10344,10344,10344,10344,10344,10344,10344,10344,10344,10344,10344,10344,10344,10344,10344,10344,10344,10344,10344,10344,10344,10344,10344,10344,10344,10344,10344,10344,10344,10344,10344,10344,10344,10344,10344,10344,10344,10344,10344,10344,10344,10344,10344,10344,10344,10344,10344,10344,10344,10344,10344,10344,10344,10344,10344,10344,10344,10344,10344,10344,10344,10344,10344,10344,10344,10344,10344,10344,10344,10344,10344,10344,10344,10344,10344,10344,10344,10344,10344,10344,10344,10344,10344,10344,10344,10344,10344,10344,10344,10344,10344,10344,10344,10344,10344,10344,10344,10344,10344,10344,10344,10344,10344,10344,10344,10344,10344,10344,10344,10344,10344,10344,10344,10344,10344,10344,10344,10344,10344,10344,10344,10344,10344,10344,
10344,10344,10344,10344,10344,10344,10344,10344,10344,10344,10344,10344,10344,10344,10344,10344,10344,10344,10344,10344,10344,10344,10344,10344,10344,10344,10344,10344,10344,10344,10344,10344,10344,10344,10344,10344,10344,10344,10344,10344,10344,10344,10344,10344,10344,10344,10344,10344,10344,10344,10344,10344,10344,10344,10344,10344,10344,10344,10344,10344,10344,10344,10344,10344,10344,10344,10344,10344,10344,10344,10344,10344,10344,10344,10344,10344,10344,10344,10344,10344,10344,10344,10344,10344,10344,10344,10344,10344,10344,10344,10344,10344,10344,10344,10344,10344,10344,10344,10344,10344,10344,10344,10344,10344,10344,10344,10344,10344,10344,10344,10344,10344,10344,10344,10344,10344,10344,10344,10344,10344,10344,10344,10344,10344,10344,10344,10344,10344,10344,10344,10344,10344,10344,10344,10344,10344,10344,10344,10344,10344,10344,10344,10344,10344,10344,10344,10344,10344,10344,10344,
10344,10344,10344,10344,10344,10344,10344,10344,10344,10344,10344,10344,10344,10344,10344,10344,10344,10344,10344,10344,10344,10344,10344,10344,10344,10344,10344,10344,10344,10344,10344,10344,10344,10344,10344,10344,10344,10344,10344,10344,10344,10344,10344,10344,10344,10344,10344,10344,10344,10344,10344,10344,10344,10344,10344,10344,10344,10344,10344,10344,10344,10344,10344,10344,10344,10344,10344,10344,10344,10344,10344,10344,10344,10344,10344,10344,10344,10344,10344,10344,10344,10344,10344,10344,10344,10344,10344,10344,10344,10344,10344,10344,10344,10344,10344,10344,10344,10344,10344,10344,10344,10344,10344,10344,10344,10344,10344,10344,10344,10344,10344,10344,10344,10344,10344,10344,10344,10344,10344,10344,10344,10344,10344,10344,10344,10344,10344,10344,10344,10344,10344,10344,10344,10344,10344,10344,10344,10344,10344,10344,10344,10344,10344,10344,10344,10344,10344,10344,10344,10344,
10344,10344,10344,10344,10344,10344,10344,10344,10344,10344,10344,10344,10344,10344,10344,10344,10344,10344,10344,10344,10344,10344,10344,10344,10344,10344,10344,10344,10344,10344,10344,10344,10344,10344,10344,10344,10344,10344,10344,10344,10344,10344,10344,10344,10344,10344,10344,10344,10344,10344,10344,10344,10344,10344,10344,10344,10344,10344,10344,10344,10344,10344,10344,10344,10344,10344,10344,10344,10344,10344,10344,10344,10344,10344,10344,10344,10344,10344,10344,10344,10344,10344,10344,10344,10344,10344,10344,10344,10344,10344,10344,10344,10344,10344,10344,10344,10344,10344,10344,10344,10344,10344,10344,10344,10344,10344,10344,10344,10344,10344,10344,10344,10344,10344,10344,10344,10344,10344,10344,10344,10344,10344,10344,10344,10344,10344,10344,10344,10344,10344,10344,10344,10344,10344,10344,10344,10344,10344,10344,10344,10344,10344,10344,10344,10344,10344,10344,10344,10344,10344,
10344,10344,10344,10344,10344,10344,10344,10344,10344,10344,10344,10344,10344,10344,10344,10344,10344,10344,10344,10344,10344,10344,10344,10344,10344,10344,10344,10344,10344,10344,10344,10344,10344,10344,10344,10344,10344,10344,10344,10344,10344,10344,10344,10344,10344,10344,10344,10344,10344,10344,10344,10344,10344,10344,10344,10344,10344,10344,10344,10344,10344,10344,10344,10344,10344,10344,10344,10344,10344,10344,10344,10344,10344,10344,10344,10344,10344,10344,10344,10344,10344,10344,10344,10344,10344,10344,10344,10344,10344,10344,10344,10344,10344,10344,10344,10344,10344,10344,10344,10344,10344,10344,10344,10344,10344,10344,10344,10344,10344,10344,10344,10344,10344,10344,10344,10344,10344,10344,10344,10344,10344,10344,10344,10344,10344,10344,10344,10344,10344,10344,10344,10344,10344,10344,10344,10344,10344,10344,10344,10344,10344,10344,10344,10344,10344,10344,10344,10344,10344,10344,
10344,10344,10344,10344,10344,10344,10344,10344,10344,10344,10344,10344,10344,10344,10344,10344,10344,10344,10344,10344,10344,10344,10344,10344,10344,10344,10344,10344,10344,10344,10344,10344,10344,10344,10344,10344,10344,10344,10344,10344,10344,10344,10344,10344,10344,10344,10344,10344,10344,10344,10344,10344,10344,10344,10344,10344,10344,10344,10344,10344,10344,10344,10344,10344,10344,10344,10344,10344,10344,10344,10344,10344,10344,10344,10344,10344,10344,10344,10344,10344,10344,10344,10344,10344,10344,10344,10344,10344,10344,10344,10344,10344,10344,10344,10344,10344,10344,10344,10344,10344,10344,10344,10344,10344,10344,10344,10344,10344,10344,10344,10344,10344,10344,10344,10344,10344,10344,10344,10344,10344,10344,10344,10344,10344,10344,10344,10344,10344,10344,10344,10344,10344,10344,10344,10344,10344,10344,10344,10344,10344,10344,10344,10344,10344,10344,10344,10344,10344,10344,10344,
10344,10344,10344,10344,10344,10344,10344,10344,10344,10344,10344,10344,10344,10344,10344,10344,10344,10344,10344,10344,10344,10344,10344,10344,10344,10344,10344,10344,10344,10344,10344,10344,10344,10344,10344,10344,10344,10344,10344,10344,10344,10344,10344,10344,10344,10344,10344,10344,10344,10344,10344,10344,10344,10344,10344,10344,10344,10344,10344,10344,10344,10344,10344,10344,10344,10344,10344,10344,10344,10344,10344,10344,10344,10344,10344,10344,10344,10344,10344,10344,10344,10344,10344,10344,10344,10344,10344,10344,10344,10344,10344,10344,10344,10344,10344,10344,10344,10344,10344,10344,10344,10344,10344,10344,10344,10344,10344,10344,10344,10344,10344,10344,10344,10344,10344,10344,10344,10344,10344,10344,10344,10344,10344,10344,10344,10344,10344,10344,10344,10344,10344,10344,10344,10344,10344,10344,10344,10344,10344,10344,10344,10344,10344,10344,10344,10344,10344,10344,10344,10344,
10344,10344,10344,10344,10344,10344,10344,10344,10344,10344,10344,10344,10344,10344,10344,10344,10344,10344,10344,10344,10344,10344,10344,10344,10344,10344,10344,10344,10344,10344,10344,10344,10344,10344,10344,10344,10344,10344,10344,10344,10344,10344,10344,10344,10344,10344,10344,10344,10344,10344,10344,10344,10344,10344,10344,10344,10344,10344,10344,10344,10344,10344,10344,10344,10344,10344,10344,10344,10344,10344,10344,10344,10344,10344,10344,10344,10344,10344,10344,10344,10344,10344,10344,10344,10344,10344,10344,10344,10344,10344,10344,10344,10344,10344,10344,10344,10344,10344,10344,10344,10344,10344,10344,10344,10344,10344,10344,10344,10344,10344,10344,10344,10344,10344,10344,10344,10344,10344,10344,10344,10344,10344,10344,10344,10344,10344,10344,10344,10344,10344,10344,10344,10344,10344,10344,10344,10344,10344,10344,10344,10344,10344,10344,10344,10344,10344,10344,10344,10344,10344,
10344,10344,10344,10344,10344,10344,10344,10344,10344,10344,10344,10344,10344,10344,10344,10344,10344,10344,10344,10344,10344,10344,10344,10344,10344,10344,10344,10344,10344,10344,10344,10344,10344,10344,10344,10344,10344,10344,10344,10344,10344,10344,10344,10344,10344,10344,10344,10344,10344,10344,10344,10344,10344,10344,10344,10344,10344,10344,10344,10344,10344,10344,10344,10344,10344,10344,10344,10344,10344,10344,10344,10344,10344,10344,10344,10344,10344,10344,10344,10344,10344,10344,10344,10344,10344,10344,10344,10344,10344,10344,10344,10344,10344,10344,10344,10344,10344,10344,10344,10344,10344,10344,10344,10344,10344,10344,10344,10344,10344,10344,10344,10344,10344,10344,10344,10344,10344,10344,10344,10344,10344,10344,10344,10344,10344,10344,10344,10344,10344,10344,10344,10344,10344,10344,10344,10344,10344,10344,10344,10344,10344,10344,10344,10344,10344,10344,10344,10344,10344,10344,
10344,10344,10344,10344,10344,10344,10344,10344,10344,10344,10344,10344,10344,10344,10344,10344,10344,10344,10344,10344,10344,10344,10344,10344,10344,10344,10344,10344,10344,10344,10344,10344,10344,10344,10344,10344,10344,10344,10344,10344,10344,10344,10344,10344,10344,10344,10344,10344,10344,10344,10344,10344,10344,10344,10344,10344,10344,10344,10344,10344,10344,10344,10344,10344,10344,10344,10344,10344,10344,10344,10344,10344,10344,10344,10344,10344,10344,10344,10344,10344,10344,10344,10344,10344,10344,10344,10344,10344,10344,10344,10344,10344,10344,10344,10344,10344,10344,10344,10344,10344,10344,10344,10344,10344,10344,10344,10344,10344,10344,10344,10344,10344,10344,10344,10344,10344,10344,10344,10344,10344,10344,10344,10344,10344,10344,10344,10344,10344,10344,10344,10344,10344,10344,10344,10344,10344,10344,10344,10344,10344,10344,10344,10344,10344,10344,10344,10344,10344,10344,10344,
10344,10344,10344,10344,10344,10344,10344,10344,10344,10344,10344,10344,10344,10344,10344,10344,10344,10344,10344,10344,10344,10344,10344,10344,10344,10344,10344,10344,10344,10344,10344,10344,10344,10344,10344,10344,10344,10344,10344,10344,10344,10344,10344,10344,10344,10344,10344,10344,10344,10344,10344,10344,10344,10344,10344,10344,10344,10344,10344,10344,10344,10344,10344,10344,10344,10344,10344,10344,10344,10344,10344,10344,10344,10344,10344,10344,10344,10344,10344,10344,10344,10344,10344,10344,10344,10344,10344,10344,10344,10344,10344,10344,10344,10344,10344,10344,10344,10344,10344,10344,10344,10344,10344,10344,10344,10344,10344,10344,10344,10344,10344,10344,10344,10344,10344,10344,10344,10344,10344,10344,10344,10344,10344,10344,10344,10344,10344,10344,10344,10344,10344,10344,10344,10344,10344,10344,10344,10344,10344,10344,10344,10344,10344,10344,10344,10344,10344,10344,10344,10344,
10344,10344,10344,10344,10344,10344,10344,10344,10344,10344,10344,10344,10344,10344,10344,10344,10344,10344,10344,10344,10344,10344,10344,10344,10344,10344,10344,10344,10344,10344,10344,10344,10344,10344,10344,10344,10344,10344,10344,10344,10344,10344,10344,10344,10344,10344,10344,10344,10344,10344,10344,10344,10344,10344,10344,10344,10344,10344,10344,10344,10344,10344,10344,10344,10344,10344,10344,10344,10344,10344,10344,10344,10344,10344,10344,10344,10344,10344,10344,10344,10344,10344,10344,10344,10344,10344,10344,10344,10344,10344,10344,10344,10344,10344,10344,10344,10344,10344,10344,10344,10344,10344,10344,10344,10344,10344,10344,10344,10344,10344,10344,10344,10344,10344,10344,10344,10344,10344,10344,10344,10344,10344,10344,10344,10344,10344,10344,10344,10344,10344,10344,10344,10344,10344,10344,10344,10344,10344,10344,10344,10344,10344,10344,10344,10344,10344,10344,10344,10344,10344,
10344,10344,10344,10344,10344,10344,10344,10344,10344,10344,10344,10344,10344,10344,10344,10344,10344,10344,10344,10344,10344,10344,10344,10344,10344,10344,10344,10344,10344,10344,10344,10344,10344,10344,10344,10344,10344,10344,10344,10344,10344,10344,10344,10344,10344,10344,10344,10344,10344,10344,10344,10344,10344,10344,10344,10344,10344,10344,10344,10344,10344,10344,10344,10344,10344,10344,10344,10344,10344,10344,10344,10344,10344,10344,10344,10344,10344,10344,10344,10344,10344,10344,10344,10344,10344,10344,10344,10344,10344,10344,10344,10344,10344,10344,10344,10344,10344,10344,10344,10344,10344,10344,10344,10344,10344,10344,10344,10344,10344,10344,10344,10344,10344,10344,10344,10344,10344,10344,10344,10344,10344,10344,10344,10344,10344,10344,10344,10344,10344,10344,10344,10344,10344,10344,10344,10344,10344,10344,10344,10344,10344,10344,10344,10344,10344,10344,10344,10344,10344,10344,
10344,10344,10344,10344,10344,10344,10344,10344,10344,10344,10344,10344,10344,10344,10344,10344,10344,10344,10344,10344,10344,10344,10344,10344,10344,10344,10344,10344,10344,10344,10344,10344,10344,10344,10344,10344,10344,10344,10344,10344,10344,10344,10344,10344,10344,10344,10344,10344,10344,10344,10344,10344,10344,10344,10344,10344,10344,10344,10344,10344,10344,10344,10344,10344,10344,10344,10344,10344,10344,10344,10344,10344,10344,10344,10344,10344,10344,10344,10344,10344,10344,10344,10344,10344,10344,10344,10344,10344,10344,10344,10344,10344,10344,10344,10344,10344,10344,10344,10344,10344,10344,10344,10344,10344,10344,10344,10344,10344,10344,10344,10344,10344,10344,10344,10344,10344,10344,10344,10344,10344,10344,10344,10344,10344,10344,10344,10344,10344,10344,10344,10344,10344,10344,10344,10344,10344,10344,10344,10344,10344,10344,10344,10344,10344,10344,10344,10344,10344,10344,10344,
10344,10344,10344,10344,10344,10344,10344,10344,10344,10344,10344,10344,10344,10344,10344,10344,10344,10344,10344,10344,10344,10344,10344,10344,10344,10344,10344,10344,10344,10344,10344,10344,10344,10344,10344,10344,10344,10344,10344,10344,10344,10344,10344,10344,10344,10344,10344,10344,10344,10344,10344,10344,10344,10344,10344,10344,10344,10344,10344,10344,10344,10344,10344,10344,10344,10344,10344,10344,10344,10344,10344,10344,10344,10344,10344,10344,10344,10344,10344,10344,10344,10344,10344,10344,10344,10344,10344,10344,10344,10344,10344,10344,10344,10344,10344,10344,10344,10344,10344,10344,10344,10344,10344,10344,10344,10344,10344,10344,10344,10344,10344,10344,10344,10344,10344,10344,10344,10344,10344,10344,10344,10344,10344,10344,10344,10344,10344,10344,10344,10344,10344,10344,10344,10344,10344,10344,10344,10344,10344,10344,10344,10344,10344,10344,10344,10344,10344,10344,10344,10344,
10344,10344,10344,10344,10344,10344,10344,10344,10344,10344,10344,10344,10344,10344,10344,10344,10344,10344,10344,10344,10344,10344,10344,10344,10344,10344,10344,10344,10344,10344,10344,10344,10344,10344,10344,10344,10344,10344,10344,10344,10344,10344,10344,10344,10344,10344,10344,10344,10344,10344,10344,10344,10344,10344,10344,10344,10344,10344,10344,10344,10344,10344,10344,10344,10344,10344,10344,10344,10344,10344,10344,10344,10344,10344,10344,10344,10344,10344,10344,10344,10344,10344,10344,10344,10344,10344,10344,10344,10344,10344,10344,10344,10344,10344,10344,10344,10344,10344,10344,10344,10344,10344,10344,10344,10344,10344,10344,10344,10344,10344,10344,10344,10344,10344,10344,10344,10344,10344,10344,10344,10344,10344,10344,10344,10344,10344,10344,10344,10344,10344,10344,10344,10344,10344,10344,10344,10344,10344,10344,10344,10344,10344,10344,10344,10344,10344,10344,10344,10344,10344,
10344,10344,10344,10344,10344,10344,10344,10344,10344,10344,10344,10344,10344,10344,10344,10344,10344,10344,10344,10344,10344,10344,10344,10344,10344,10344,10344,10344,10344,10344,10344,10344,10344,10344,10344,10344,10344,10344,10344,10344,10344,10344,10344,10344,10344,10344,10344,10344,10344,10344,10344,10344,10344,10344,10344,10344,10344,10344,10344,10344,10344,10344,10344,10344,10344,10344,10344,10344,10344,10344,10344,10344,10344,10344,10344,10344,10344,10344,10344,10344,10344,10344,10344,10344,10344,10344,10344,10344,10344,10344,10344,10344,10344,10344,10344,10344,10344,10344,10344,10344,10344,10344,10344,10344,10344,10344,10344,10344,10344,10344,10344,10344,10344,10344,10344,10344,10344,10344,10344,10344,10344,10344,10344,10344,10344,10344,10344,10344,10344,10344,10344,10344,10344,10344,10344,10344,10344,10344,10344,10344,10344,10344,10344,10344,10344,10344,10344,10344,10344,10344,
10344,10344,10344,10344,10344,10344,10344,10344,10344,10344,10344,10344,10344,10344,10344,10344,10344,10344,10344,10344,10344,10344,10344,10344,10344,10344,10344,10344,10344,10344,10344,10344,10344,10344,10344,10344,10344,10344,10344,10344,10344,10344,10344,10344,10344,10344,10344,10344,10344,10344,10344,10344,10344,10344,10344,10344,10344,10344,10344,10344,10344,10344,10344,10344,10344,10344,10344,10344,10344,10344,10344,10344,10344,10344,10344,10344,10344,10344,10344,10344,10344,10344,10344,10344,10344,10344,10344,10344,10344,10344,10344,10344,10344,10344,10344,10344,10344,10344,10344,10344,10344,10344,10344,10344,10344,10344,10344,10344,10344,10344,10344,10344,10344,10344,10344,10344,10344,10344,10344,10344,10344,10344,10344,10344,10344,10344,10344,10344,10344,10344,10344,10344,10344,10344,10344,10344,10344,10344,10344,10344,10344,10344,10344,10344,10344,10344,10344,10344,10344,10344,
10344,10344,10344,10344,10344,10344,10344,10344,10344,10344,10344,10344,10344,10344,10344,10344,10344,10344,10344,10344,10344,10344,10344,10344,10344,10344,10344,10344,10344,10344,10344,10344,10344,10344,10344,10344,10344,10344,10344,10344,10344,10344,10344,10344,10344,10344,10344,10344,10344,10344,10344,10344,10344,10344,10344,10344,10344,10344,10344,10344,10344,10344,10344,10344,10344,10344,10344,10344,10344,10344,10344,10344,10344,10344,10344,10344,10344,10344,10344,10344,10344,10344,10344,10344,10344,10344,10344,10344,10344,10344,10344,10344,10344,10344,10344,10344,10344,10344,10344,10344,10344,10344,10344,10344,10344,10344,10344,10344,10344,10344,10344,10344,10344,10344,10344,10344,10344,10344,10344,10344,10344,10344,10344,10344,10344,10344,10344,10344,10344,10344,10344,10344,10344,10344,10344,10344,10344,10344,10344,10344,10344,10344,10344,10344,10344,10344,10344,10344,10344,10344,
10344,10344,10344,10344,10344,10344,10344,10344,10344,10344,10344,10344,10344,10344,10344,10344,10344,10344,10344,10344,10344,10344,10344,10344,10344,10344,10344,10344,10344,10344,10344,10344,10344,10344,10344,10344,10344,10344,10344,10344,10344,10344,10344,10344,10344,10344,10344,10344,10344,10344,10344,10344,10344,10344,10344,10344,10344,10344,10344,10344,10344,10344,10344,10344,10344,10344,10344,10344,10344,10344,10344,10344,10344,10344,10344,10344,10344,10344,10344,10344,10344,10344,10344,10344,10344,10344,10344,10344,10344,10344,10344,10344,10344,10344,10344,10344,10344,10344,10344,10344,10344,10344,10344,10344,10344,10344,10344,10344,10344,10344,10344,10344,10344,10344,10344,10344,10344,10344,10344,10344,10344,10344,10344,10344,10344,10344,10344,10344,10344,10344,10344,10344,10344,10344,10344,10344,10344,10344,10344,10344,10344,10344,10344,10344,10344,10344,10344,10344,10344,10344,
10344,10344,10344,10344,10344,10344,10344,10344,10344,10344,10344,10344,10344,10344,10344,10344,10344,10344,10344,10344,10344,10344,10344,10344,10344,10344,10344,10344,10344,10344,10344,10344,10344,10344,10344,10344,10344,10344,10344,10344,10344,10344,10344,10344,10344,10344,10344,10344,10344,10344,10344,10344,10344,10344,10344,10344,10344,10344,10344,10344,10344,10344,10344,10344,10344,10344,10344,10344,10344,10344,10344,10344,10344,10344,10344,10344,10344,10344,10344,10344,10344,10344,10344,10344,10344,10344,10344,10344,10344,10344,10344,10344,10344,10344,10344,10344,10344,10344,10344,10344,10344,10344,10344,10344,10344,10344,10344,10344,10344,10344,10344,10344,10344,10344,10344,10344,10344,10344,10344,10344,10344,10344,10344,10344,10344,10344,10344,10344,10344,10344,10344,10344,10344,10344,10344,10344,10344,10344,10344,10344,10344,10344,10344,10344,10344,10344,10344,10344,10344,10344,
10344,10344,10344,10344,10344,10344,10344,10344,10344,10344,10344,10344,10344,10344,10344,10344,10344,10344,10344,10344,10344,10344,10344,10344,10344,10344,10344,10344,10344,10344,10344,10344,10344,10344,10344,10344,10344,10344,10344,10344,10344,10344,10344,10344,10344,10344,10344,10344,10344,10344,10344,10344,10344,10344,10344,10344,10344,10344,10344,10344,10344,10344,10344,10344,10344,10344,10344,10344,10344,10344,10344,10344,10344,10344,10344,10344,10344,10344,10344,10344,10344,10344,10344,10344,10344,10344,10344,10344,10344,10344,10344,10344,10344,10344,10344,10344,10344,10344,10344,10344,10344,10344,10344,10344,10344,10344,10344,10344,10344,10344,10344,10344,10344,10344,10344,10344,10344,10344,10344,10344,10344,10344,10344,10344,10344,10344,10344,10344,10344,10344,10344,10344,10344,10344,10344,10344,10344,10344,10344,10344,10344,10344,10344,10344,10344,10344,10344,10344,10344,10344,
10344,10344,10344,10344,10344,10344,10344,10344,10344,10344,10344,10344,10344,10344,10344,10344,10344,10344,10344,10344,10344,10344,10344,10344,10344,10344,10344,10344,10344,10344,10344,10344,10344,10344,10344,10344,10344,10344,10344,10344,10344,10344,10344,10344,10344,10344,10344,10344,10344,10344,10344,10344,10344,10344,10344,10344,10344,10344,10344,10344,10344,10344,10344,10344,10344,10344,10344,10344,10344,10344,10344,10344,10344,10344,10344,10344,10344,10344,10344,10344,10344,10344,10344,10344,10344,10344,10344,10344,10344,10344,10344,10344,10344,10344,10344,10344,10344,10344,10344,10344,10344,10344,10344,10344,10344,10344,10344,10344,10344,10344,10344,10344,10344,10344,10344,10344,10344,10344,10344,10344,10344,10344,10344,10344,10344,10344,10344,10344,10344,10344,10344,10344,10344,10344,10344,10344,10344,10344,10344,10344,10344,10344,10344,10344,10344,10344,10344,10344,10344,10344,
10344,10344,10344,10344,10344,10344,10344,10344,10344,10344,10344,10344,10344,10344,10344,10344,10344,10344,10344,10344,10344,10344,10344,10344,10344,10344,10344,10344,10344,10344,10344,10344,10344,10344,10344,10344,10344,10344,10344,10344,10344,10344,10344,10344,10344,10344,10344,10344,10344,10344,10344,10344,10344,10344,10344,10344,10344,10344,10344,10344,10344,10344,10344,10344,10344,10344,10344,10344,10344,10344,10344,10344,10344,10344,10344,10344,10344,10344,10344,10344,10344,10344,10344,10344,10344,10344,10344,10344,10344,10344,10344,10344,10344,10344,10344,10344,10344,10344,10344,10344,10344,10344,10344,10344,10344,10344,10344,10344,10344,10344,10344,10344,10344,10344,10344,10344,10344,10344,10344,10344,10344,10344,10344,10344,10344,10344,10344,10344,10344,10344,10344,10344,10344,10344,10344,10344,10344,10344,10344,10344,10344,10344,10344,10344,10344,10344,10344,10344,10344,10344,
10344,10344,10344,10344,10344,10344,10344,10344,10344,10344,10344,10344,10344,10344,10344,10344,10344,10344,10344,10344,10344,10344,10344,10344,10344,10344,10344,10344,10344,10344,10344,10344,10344,10344,10344,10344,10344,10344,10344,10344,10344,10344,10344,10344,10344,10344,10344,10344,10344,10344,10344,10344,10344,10344,10344,10344,10344,10344,10344,10344,10344,10344,10344,10344,10344,10344,10344,10344,10344,10344,10344,10344,10344,10344,10344,10344,10344,10344,10344,10344,10344,10344,10344,10344,10344,10344,10344,10344,10344,10344,10344,10344,10344,10344,10344,10344,10344,10344,10344,10344,10344,10344,10344,10344,10344,10344,10344,10344,10344,10344,10344,10344,10344,10344,10344,10344,10344,10344,10344,10344,10344,10344,10344,10344,10344,10344,10344,10344,10344,10344,10344,10344,10344,10344,10344,10344,10344,10344,10344,10344,10344,10344,10344,10344,10344,10344,10344,10344,10344,10344,
10344,10344,10344,10344,10344,10344,10344,10344,10344,10344,10344,10344,10344,10344,10344,10344,10344,10344,10344,10344,10344,10344,10344,10344,10344,10344,10344,10344,10344,10344,10344,10344,10344,10344,10344,10344,10344,10344,10344,10344,10344,10344,10344,10344,10344,10344,10344,10344,10344,10344,10344,10344,10344,10344,10344,10344,10344,10344,10344,10344,10344,10344,10344,10344,10344,10344,10344,10344,10344,10344,10344,10344,10344,10344,10344,10344,10344,10344,10344,10344,10344,10344,10344,10344,10344,10344,10344,10344,10344,10344,10344,10344,10344,10344,10344,10344,10344,10344,10344,10344,10344,10344,10344,10344,10344,10344,10344,10344,10344,10344,10344,10344,10344,10344,10344,10344,10344,10344,10344,10344,10344,10344,10344,10344,10344,10344,10344,10344,10344,10344,10344,10344,10344,10344,10344,10344,10344,10344,10344,10344,10344,10344,10344,10344,10344,10344,10344,10344,10344,10344,
10344,10344,10344,10344,10344,10344,10344,10344,10344,10344,10344,10344,10344,10344,10344,10344,10344,10344,10344,10344,10344,10344,10344,10344,10344,10344,10344,10344,10344,10344,10344,10344,10344,10344,10344,10344,10344,10344,10344,10344,10344,10344,10344,10344,10344,10344,10344,10344,10344,10344,10344,10344,10344,10344,10344,10344,10344,10344,10344,10344,10344,10344,10344,10344,10344,10344,10344,10344,10344,10344,10344,10344,10344,10344,10344,10344,10344,10344,10344,10344,10344,10344,10344,10344,10344,10344,10344,10344,10344,10344,10344,10344,10344,10344,10344,10344,10344,10344,10344,10344,10344,10344,10344,10344,10344,10344,10344,10344,10344,10344,10344,10344,10344,10344,10344,10344,10344,10344,10344,10344,10344,10344,10344,10344,10344,10344,10344,10344,10344,10344,10344,10344,10344,10344,10344,10344,10344,10344,10344,10344,10344,10344,10344,10344,10344,10344,10344,10344,10344,10344,
10344,10344,10344,10344,10344,10344,10344,10344,10344,10344,10344,10344,10344,10344,10344,10344,10344,10344,10344,10344,10344,10344,10344,10344,10344,10344,10344,10344,10344,10344,10344,10344,10344,10344,10344,10344,10344,10344,10344,10344,10344,10344,10344,10344,10344,10344,10344,10344,10344,10344,10344,10344,10344,10344,10344,10344,10344,10344,10344,10344,10344,10344,10344,10344,10344,10344,10344,10344,10344,10344,10344,10344,10344,10344,10344,10344,10344,10344,10344,10344,10344,10344,10344,10344,10344,10344,10344,10344,10344,10344,10344,10344,10344,10344,10344,10344,10344,10344,10344,10344,10344,10344,10344,10344,10344,10344,10344,10344,10344,10344,10344,10344,10344,10344,10344,10344,10344,10344,10344,10344,10344,10344,10344,10344,10344,10344,10344,10344,10344,10344,10344,10344,10344,10344,10344,10344,10344,10344,10344,10344,10344,10344,10344,10344,10344,10344,10344,10344,10344,10344,
10344,10344,10344,10344,10344,10344,10344,10344,10344,10344,10344,10344,10344,10344,10344,10344,10344,10344,10344,10344,10344,10344,10344,10344,10344,10344,10344,10344,10344,10344,10344,10344,10344,10344,10344,10344,10344,10344,10344,10344,10344,10344,10344,10344,10344,10344,10344,10344,10344,10344,10344,10344,10344,10344,10344,10344,10344,10344,10344,10344,10344,10344,10344,10344,10344,10344,10344,10344,10344,10344,10344,10344,10344,10344,10344,10344,10344,10344,10344,10344,10344,10344,10344,10344,10344,10344,10344,10344,10344,10344,10344,10344,10344,10344,10344,10344,10344,10344,10344,10344,10344,10344,10344,10344,10344,10344,10344,10344,10344,10344,10344,10344,10344,10344,10344,10344,10344,10344,10344,10344,10344,10344,10344,10344,10344,10344,10344,10344,10344,10344,10344,10344,10344,10344,10344,10344,10344,10344,10344,10344,10344,10344,10344,10344,10344,10344,10344,10344,10344,10344,
10344,10344,10344,10344,10344,10344,10344,10344,10344,10344,10344,10344,10344,10344,10344,10344,10344,10344,10344,10344,10344,10344,10344,10344,10344,10344,10344,10344,10344,10344,10344,10344,10344,10344,10344,10344,10344,10344,10344,10344,10344,10344,10344,10344,10344,10344,10344,10344,10344,10344,10344,10344,10344,10344,10344,10344,10344,10344,10344,10344,10344,10344,10344,10344,10344,10344,10344,10344,10344,10344,10344,10344,10344,10344,10344,10344,10344,10344,10344,10344,10344,10344,10344,10344,10344,10344,10344,10344,10344,10344,10344,10344,10344,10344,10344,10344,10344,10344,10344,10344,10344,10344,10344,10344,10344,10344,10344,10344,10344,10344,10344,10344,10344,10344,10344,10344,10344,10344,10344,10344,10344,10344,10344,10344,10344,10344,10344,10344,10344,10344,10344,10344,10344,10344,10344,10344,10344,10344,10344,10344,10344,10344,10344,10344,10344,10344,10344,10344,10344,10344,
10344,10344,10344,10344,10344,10344,10344,10344,10344,10344,10344,10344,10344,10344,10344,10344,10344,10344,10344,10344,10344,10344,10344,10344,10344,10344,10344,10344,10344,10344,10344,10344,10344,10344,10344,10344,10344,10344,10344,10344,10344,10344,10344,10344,10344,10344,10344,10344,10344,10344,10344,10344,10344,10344,10344,10344,10344,10344,10344,10344,10344,10344,10344,10344,10344,10344,10344,10344,10344,10344,10344,10344,10344,10344,10344,10344,10344,10344,10344,10344,10344,10344,10344,10344,10344,10344,10344,10344,10344,10344,10344,10344,10344,10344,10344,10344,10344,10344,10344,10344,10344,10344,10344,10344,10344,10344,10344,10344,10344,10344,10344,10344,10344,10344,10344,10344,10344,10344,10344,10344,10344,10344,10344,10344,10344,10344,10344,10344,10344,10344,10344,10344,10344,10344,10344,10344,10344,10344,10344,10344,10344,10344,10344,10344,10344,10344,10344,10344,10344,10344,
10344,10344,10344,10344,10344,10344,10344,10344,10344,10344,10344,10344,10344,10344,10344,10344,10344,10344,10344,10344,10344,10344,10344,10344,10344,10344,10344,10344,10344,10344,10344,10344,10344,10344,10344,10344,10344,10344,10344,10344,10344,10344,10344,10344,10344,10344,10344,10344,10344,10344,10344,10344,10344,10344,10344,10344,10344,10344,10344,10344,10344,10344,10344,10344,10344,10344,10344,10344,10344,10344,10344,10344,10344,10344,10344,10344,10344,10344,10344,10344,10344,10344,10344,10344,10344,10344,10344,10344,10344,10344,10344,10344,10344,10344,10344,10344,10344,10344,10344,10344,10344,10344,10344,10344,10344,10344,10344,10344,10344,10344,10344,10344,10344,10344,10344,10344,10344,10344,10344,10344,10344,10344,10344,10344,10344,10344,10344,10344,10344,10344,10344,10344,10344,10344,10344,10344,10344,10344,10344,10344,10344,10344,10344,10344,10344,10344,10344,10344,10344,10344,
10344,10344,10344,10344,10344,10344,10344,10344,10344,10344,10344,10344,10344,10344,10344,10344,10344,10344,10344,10344,10344,10344,10344,10344,10344,10344,10344,10344,10344,10344,10344,10344,10344,10344,10344,10344,10344,10344,10344,10344,10344,10344,10344,10344,10344,10344,10344,10344,10344,10344,10344,10344,10344,10344,10344,10344,10344,10344,10344,10344,10344,10344,10344,10344,10344,10344,10344,10344,10344,10344,10344,10344,10344,10344,10344,10344,10344,10344,10344,10344,10344,10344,10344,10344,10344,10344,10344,10344,10344,10344,10344,10344,10344,10344,10344,10344,10344,10344,10344,10344,10344,10344,10344,10344,10344,10344,10344,10344,10344,10344,10344,10344,10344,10344,10344,10344,10344,10344,10344,10344,10344,10344,10344,10344,10344,10344,10344,10344,10344,10344,10344,10344,10344,10344,10344,10344,10344,10344,10344,10344,10344,10344,10344,10344,10344,10344,10344,10344,10344,10344,
10344,10344,10344,10344,10344,10344,10344,10344,10344,10344,10344,10344,10344,10344,10344,10344,10344,10344,10344,10344,10344,10344,10344,10344,10344,10344,10344,10344,10344,10344,10344,10344,10344,10344,10344,10344,10344,10344,10344,10344,10344,10344,10344,10344,10344,10344,10344,10344,10344,10344,10344,10344,10344,10344,10344,10344,10344,10344,10344,10344,10344,10344,10344,10344,10344,10344,10344,10344,10344,10344,10344,10344,10344,10344,10344,10344,10344,10344,10344,10344,10344,10344,10344,10344,10344,10344,10344,10344,10344,10344,10344,10344,10344,10344,10344,10344,10344,10344,10344,10344,10344,10344,10344,10344,10344,10344,10344,10344,10344,10344,10344,10344,10344,10344,10344,10344,10344,10344,10344,10344,10344,10344,10344,10344,10344,10344,10344,10344,10344,10344,10344,10344,10344,10344,10344,10344,10344,10344,10344,10344,10344,10344,10344,10344,10344,10344,10344,10344,10344,10344,
10344,10344,10344,10344,10344,10344,10344,10344,10344,10344,10344,10344,10344,10344,10344,10344,10344,10344,10344,10344,10344,10344,10344,10344,10344,10344,10344,10344,10344,10344,10344,10344,10344,10344,10344,10344,10344,10344,10344,10344,10344,10344,10344,10344,10344,10344,10344,10344,10344,10344,10344,10344,10344,10344,10344,10344,10344,10344,10344,10344,10344,10344,10344,10344,10344,10344,10344,10344,10344,10344,10344,10344,10344,10344,10344,10344,10344,10344,10344,10344,10344,10344,10344,10344,10344,10344,10344,10344,10344,10344,10344,10344,10344,10344,10344,10344,10344,10344,10344,10344,10344,10344,10344,10344,10344,10344,10344,10344,10344,10344,10344,10344,10344,10344,10344,10344,10344,10344,10344,10344,10344,10344,10344,10344,10344,10344,10344,10344,10344,10344,10344,10344,10344,10344,10344,10344,10344,10344,10344,10344,10344,10344,10344,10344,10344,10344,10344,10344,10344,10344,
10344,10344,10344,10344,10344,10344,10344,10344,10344,10344,10344,10344,10344,10344,10344,10344,10344,10344,10344,10344,10344,10344,10344,10344,10344,10344,10344,10344,10344,10344,10344,10344,10344,10344,10344,10344,10344,10344,10344,10344,10344,10344,10344,10344,10344,10344,10344,10344,10344,10344,10344,10344,10344,10344,10344,10344,10344,10344,10344,10344,10344,10344,10344,10344,10344,10344,10344,10344,10344,10344,10344,10344,10344,10344,10344,10344,10344,10344,10344,10344,10344,10344,10344,10344,10344,10344,10344,10344,10344,10344,10344,10344,10344,10344,10344,10344,10344,10344,10344,10344,10344,10344,10344,10344,10344,10344,10344,10344,10344,10344,10344,10344,10344,10344,10344,10344,10344,10344,10344,10344,10344,10344,10344,10344,10344,10344,10344,10344,10344,10344,10344,10344,10344,10344,10344,10344,10344,10344,10344,10344,10344,10344,10344,10344,10344,10344,10344,10344,10344,10344,
10344,10344,10344,10344,10344,10344,10344,10344,10344,10344,10344,10344,10344,10344,10344,10344,10344,10344,10344,10344,10344,10344,10344,10344,10344,10344,10344,10344,10344,10344,10344,10344,10344,10344,10344,10344,10344,10344,10344,10344,10344,10344,10344,10344,10344,10344,10344,10344,10344,10344,10344,10344,10344,10344,10344,10344,10344,10344,10344,10344,10344,10344,10344,10344,10344,10344,10344,10344,10344,10344,10344,10344,10344,10344,10344,10344,10344,10344,10344,10344,10344,10344,10344,10344,10344,10344,10344,10344,10344,10344,10344,10344,10344,10344,10344,10344,10344,10344,10344,10344,10344,10344,10344,10344,10344,10344,10344,10344,10344,10344,10344,10344,10344,10344,10344,10344,10344,10344,10344,10344,10344,10344,10344,10344,10344,10344,10344,10344,10344,10344,10344,10344,10344,10344,10344,10344,10344,10344,10344,10344,10344,10344,10344,10344,10344,10344,10344,10344,10344,10344,
10344,10344,10344,10344,10344,10344,10344,10344,10344,10344,10344,10344,10344,10344,10344,10344,10344,10344,10344,10344,10344,10344,10344,10344,10344,10344,10344,10344,10344,10344,10344,10344,10344,10344,10344,10344,10344,10344,10344,10344,10344,10344,10344,10344,10344,10344,10344,10344,10344,10344,10344,10344,10344,10344,10344,10344,10344,10344,10344,10344,10344,10344,10344,10344,10344,10344,10344,10344,10344,10344,10344,10344,10344,10344,10344,10344,10344,10344,10344,10344,10344,10344,10344,10344,10344,10344,10344,10344,10344,10344,10344,10344,10344,10344,10344,10344,10344,10344,10344,10344,10344,10344,10344,10344,10344,10344,10344,10344,10344,10344,10344,10344,10344,10344,10344,10344,10344,10344,10344,10344,10344,10344,10344,10344,10344,10344,10344,10344,10344,10344,10344,10344,10344,10344,10344,10344,10344,10344,10344,10344,10344,10344,10344,10344,10344,10344,10344,10344,10344,10344,
10344,10344,10344,10344,10344,10344,10344,10344,10344,10344,10344,10344,10344,10344,10344,10344,10344,10344,10344,10344,10344,10344,10344,10344,10344,10344,10344,10344,10344,10344,10344,10344,10344,10344,10344,10344,10344,10344,10344,10344,10344,10344,10344,10344,10344,10344,10344,10344,10344,10344,10344,10344,10344,10344,10344,10344,10344,10344,10344,10344,10344,10344,10344,10344,10344,10344,10344,10344,10344,10344,10344,10344,10344,10344,10344,10344,10344,10344,10344,10344,10344,10344,10344,10344,10344,10344,10344,10344,10344,10344,10344,10344,10344,10344,10344,10344,10344,10344,10344,10344,10344,10344,10344,10344,10344,10344,10344,10344,10344,10344,10344,10344,10344,10344,10344,10344,10344,10344,10344,10344,10344,10344,10344,10344,10344,10344,10344,10344,10344,10344,10344,10344,10344,10344,10344,10344,10344,10344,10344,10344,10344,10344,10344,10344,10344,10344,10344,10344,10344,10344,
10344,10344,10344,10344,10344,10344,10344,10344,10344,10344,10344,10344,10344,10344,10344,10344,10344,10344,10344,10344,10344,10344,10344,10344,10344,10344,10344,10344,10344,10344,10344,10344,10344,10344,10344,10344,10344,10344,10344,10344,10344,10344,10344,10344,10344,10344,10344,10344,10344,10344,10344,10344,10344,10344,10344,10344,10344,10344,10344,10344,10344,10344,10344,10344,10344,10344,10344,10344,10344,10344,10344,10344,10344,10344,10344,10344,10344,10344,10344,10344,10344,10344,10344,10344,10344,10344,10344,10344,10344,10344,10344,10344,10344,10344,10344,10344,10344,10344,10344,10344,10344,10344,10344,10344,10344,10344,10344,10344,10344,10344,10344,10344,10344,10344,10344,10344,10344,10344,10344,10344,10344,10344,10344,10344,10344,10344,10344,10344,10344,10344,10344,10344,10344,10344,10344,10344,10344,10344,10344,10344,10344,10344,10344,10344,10344,10344,10344,10344,10344,10344,
10344,10344,10344,10344,10344,10344,10344,10344,10344,10344,10344,10344,10344,10344,10344,10344,10344,10344,10344,10344,10344,10344,10344,10344,10344,10344,10344,10344,10344,10344,10344,10344,10344,10344,10344,10344,10344,10344,10344,10344,10344,10344,10344,10344,10344,10344,10344,10344,10344,10344,10344,10344,10344,10344,10344,10344,10344,10344,10344,10344,10344,10344,10344,10344,10344,10344,10344,10344,10344,10344,10344,10344,10344,10344,10344,10344,10344,10344,10344,10344,10344,10344,10344,10344,10344,10344,10344,10344,10344,10344,10344,10344,10344,10344,10344,10344,10344,10344,10344,10344,10344,10344,10344,10344,10344,10344,10344,10344,10344,10344,10344,10344,10344,10344,10344,10344,10344,10344,10344,10344,10344,10344,10344,10344,10344,10344,10344,10344,10344,10344,10344,10344,10344,10344,10344,10344,10344,10344,10344,10344,10344,10344,10344,10344,10344,10344,10344,10344,10344,10344,
10344,10344,10344,10344,10344,10344,10344,10344,10344,10344,10344,10344,10344,10344,10344,10344,10344,10344,10344,10344,10344,10344,10344,10344,10344,10344,10344,10344,10344,10344,10344,10344,10344,10344,10344,10344,10344,10344,10344,10344,10344,10344,10344,10344,10344,10344,10344,10344,10344,10344,10344,10344,10344,10344,10344,10344,10344,10344,10344,10344,10344,10344,10344,10344,10344,10344,10344,10344,10344,10344,10344,10344,10344,10344,10344,10344,10344,10344,10344,10344,10344,10344,10344,10344,10344,10344,10344,10344,10344,10344,10344,10344,10344,10344,10344,10344,10344,10344,10344,10344,10344,10344,10344,10344,10344,10344,10344,10344,10344,10344,10344,10344,10344,10344,10344,10344,10344,10344,10344,10344,10344,10344,10344,10344,10344,10344,10344,10344,10344,10344,10344,10344,10344,10344,10344,10344,10344,10344,10344,10344,10344,10344,10344,10344,10344,10344,10344,10344,10344,10344,
10344,10344,10344,10344,10344,10344,10344,10344,10344,10344,10344,10344,10344,10344,10344,10344,10344,10344,10344,10344,10344,10344,10344,10344,10344,10344,10344,10344,10344,10344,10344,10344,10344,10344,10344,10344,10344,10344,10344,10344,10344,10344,10344,10344,10344,10344,10344,10344,10344,10344,10344,10344,10344,10344,10344,10344,10344,10344,10344,10344,10344,10344,10344,10344,10344,10344,10344,10344,10344,10344,10344,10344,10344,10344,10344,10344,10344,10344,10344,10344,10344,10344,10344,10344,10344,10344,10344,10344,10344,10344,10344,10344,10344,10344,10344,10344,10344,10344,10344,10344,10344,10344,10344,10344,10344,10344,10344,10344,10344,10344,10344,10344,10344,10344,10344,10344,10344,10344,10344,10344,10344,10344,10344,10344,10344,10344,10344,10344,10344,10344,10344,10344,10344,10344,10344,10344,10344,10344,10344,10344,10344,10344,10344,10344,10344,10344,10344,10344,10344,10344,
10344,10344,10344,10344,10344,10344,10344,10344,10344,10344,10344,10344,10344,10344,10344,10344,10344,10344,10344,10344,10344,10344,10344,10344,10344,10344,10344,10344,10344,10344,10344,10344,10344,10344,10344,10344,10344,10344,10344,10344,10344,10344,10344,10344,10344,10344,10344,10344,10344,10344,10344,10344,10344,10344,10344,10344,10344,10344,10344,10344,10344,10344,10344,10344,10344,10344,10344,10344,10344,10344,10344,10344,10344,10344,10344,10344,10344,10344,10344,10344,10344,10344,10344,10344,10344,10344,10344,10344,10344,10344,10344,10344,10344,10344,10344,10344,10344,10344,10344,10344,10344,10344,10344,10344,10344,10344,10344,10344,10344,10344,10344,10344,10344,10344,10344,10344,10344,10344,10344,10344,10344,10344,10344,10344,10344,10344,10344,10344,10344,10344,10344,10344,10344,10344,10344,10344,10344,10344,10344,10344,10344,10344,10344,10344,10344,10344,10344,10344,10344,10344,
10344,10344,10344,10344,10344,10344,10344,10344,10344,10344,10344,10344,10344,10344,10344,10344,10344,10344,10344,10344,10344,10344,10344,10344,10344,10344,10344,10344,10344,10344,10344,10344,10344,10344,10344,10344,10344,10344,10344,10344,10344,10344,10344,10344,10344,10344,10344,10344,10344,10344,10344,10344,10344,10344,10344,10344,10344,10344,10344,10344,10344,10344,10344,10344,10344,10344,10344,10344,10344,10344,10344,10344,10344,10344,10344,10344,10344,10344,10344,10344,10344,10344,10344,10344,10344,10344,10344,10344,10344,10344,10344,10344,10344,10344,10344,10344,10344,10344,10344,10344,10344,10344,10344,10344,10344,10344,10344,10344,10344,10344,10344,10344,10344,10344,10344,10344,10344,10344,10344,10344,10344,10344,10344,10344,10344,10344,10344,10344,10344,10344,10344,10344,10344,10344,10344,10344,10344,10344,10344,10344,10344,10344,10344,10344,10344,10344,10344,10344,10344,10344,
10344,10344,10344,10344,10344,10344,10344,10344,10344,10344,10344,10344,10344,10344,10344,10344,10344,10344,10344,10344,10344,10344,10344,10344,10344,10344,10344,10344,10344,10344,10344,10344,10344,10344,10344,10344,10344,10344,10344,10344,10344,10344,10344,10344,10344,10344,10344,10344,10344,10344,10344,10344,10344,10344,10344,10344,10344,10344,10344,10344,10344,10344,10344,10344,10344,10344,10344,10344,10344,10344,10344,10344,10344,10344,10344,10344,10344,10344,10344,10344,10344,10344,10344,10344,10344,10344,10344,10344,10344,10344,10344,10344,10344,10344,10344,10344,10344,10344,10344,10344,10344,10344,10344,10344,10344,10344,10344,10344,10344,10344,10344,10344,10344,10344,10344,10344,10344,10344,10344,10344,10344,10344,10344,10344,10344,10344,10344,10344,10344,10344,10344,10344,10344,10344,10344,10344,10344,10344,10344,10344,10344,10344,10344,10344,10344,10344,10344,10344,10344,10344,
10344,10344,10344,10344,10344,10344,10344,10344,10344,10344,10344,10344,10344,10344,10344,10344,10344,10344,10344,10344,10344,10344,10344,10344,10344,10344,10344,10344,10344,10344,10344,10344,10344,10344,10344,10344,10344,10344,10344,10344,10344,10344,10344,10344,10344,10344,10344,10344,10344,10344,10344,10344,10344,10344,10344,10344,10344,10344,10344,10344,10344,10344,10344,10344,10344,10344,10344,10344,10344,10344,10344,10344,10344,10344,10344,10344,10344,10344,10344,10344,10344,10344,10344,10344,10344,10344,10344,10344,10344,10344,10344,10344,10344,10344,10344,10344,10344,10344,10344,10344,10344,10344,10344,10344,10344,10344,10344,10344,10344,10344,10344,10344,10344,10344,10344,10344,10344,10344,10344,10344,10344,10344,10344,10344,10344,10344,10344,10344,10344,10344,10344,10344,10344,10344,10344,10344,10344,10344,10344,10344,10344,10344,10344,10344,10344,10344,10344,10344,10344,10344,
10344,10344,10344,10344,10344,10344,10344,10344,10344,10344,10344,10344,10344,10344,10344,10344,10344,10344,10344,10344,10344,10344,10344,10344,10344,10344,10344,10344,10344,10344,10344,10344,10344,10344,10344,10344,10344,10344,10344,10344,10344,10344,10344,10344,10344,10344,10344,10344,10344,10344,10344,10344,10344,10344,10344,10344,10344,10344,10344,10344,10344,10344,10344,10344,10344,10344,10344,10344,10344,10344,10344,10344,10344,10344,10344,10344,10344,10344,10344,10344,10344,10344,10344,10344,10344,10344,10344,10344,10344,10344,10344,10344,10344,10344,10344,10344,10344,10344,10344,10344,10344,10344,10344,10344,10344,10344,10344,10344,10344,10344,10344,10344,10344,10344,10344,10344,10344,10344,10344,10344,10344,10344,10344,10344,10344,10344,10344,10344,10344,10344,10344,10344,10344,10344,10344,10344,10344,10344,10344,10344,10344,10344,10344,10344,10344,10344,10344,10344,10344,10344,
10344,10344,10344,10344,10344,10344,10344,10344,10344,10344,10344,10344,10344,10344,10344,10344,10344,10344,10344,10344,10344,10344,10344,10344,10344,10344,10344,10344,10344,10344,10344,10344,10344,10344,10344,10344,10344,10344,10344,10344,10344,10344,10344,10344,10344,10344,10344,10344,10344,10344,10344,10344,10344,10344,10344,10344,10344,10344,10344,10344,10344,10344,10344,10344,10344,10344,10344,10344,10344,10344,10344,10344,10344,10344,10344,10344,10344,10344,10344,10344,10344,10344,10344,10344,10344,10344,10344,10344,10344,10344,10344,10344,10344,10344,10344,10344,10344,10344,10344,10344,10344,10344,10344,10344,10344,10344,10344,10344,10344,10344,10344,10344,10344,10344,10344,10344,10344,10344,10344,10344,10344,10344,10344,10344,10344,10344,10344,10344,10344,10344,10344,10344,10344,10344,10344,10344,10344,10344,10344,10344,10344,10344,10344,10344,10344,10344,10344,10344,10344,10344,
10344,10344,10344,10344,10344,10344,10344,10344,10344,10344,10344,10344,10344,10344,10344,10344,10344,10344,10344,10344,10344,10344,10344,10344,10344,10344,10344,10344,10344,10344,10344,10344,10344,10344,10344,10344,10344,10344,10344,10344,10344,10344,10344,10344,10344,10344,10344,10344,10344,10344,10344,10344,10344,10344,10344,10344,10344,10344,10344,10344,10344,10344,10344,10344,10344,10344,10344,10344,10344,10344,10344,10344,10344,10344,10344,10344,10344,10344,10344,10344,10344,10344,10344,10344,10344,10344,10344,10344,10344,10344,10344,10344,10344,10344,10344,10344,10344,10344,10344,10344,10344,10344,10344,10344,10344,10344,10344,10344,10344,10344,10344,10344,10344,10344,10344,10344,10344,10344,10344,10344,10344,10344,10344,10344,10344,10344,10344,10344,10344,10344,10344,10344,10344,10344,10344,10344,10344,10344,10344,10344,10344,10344,10344,10344,10344,10344,10344,10344,10344,10344,
10344,10344,10344,10344,10344,10344,10344,10344,10344,10344,10344,10344,10344,10344,10344,10344,10344,10344,10344,10344,10344,10344,10344,10344,10344,10344,10344,10344,10344,10344,10344,10344,10344,10344,10344,10344,10344,10344,10344,10344,10344,10344,10344,10344,10344,10344,10344,10344,10344,10344,10344,10344,10344,10344,10344,10344,10344,10344,10344,10344,10344,10344,10344,10344,10344,10344,10344,10344,10344,10344,10344,10344,10344,10344,10344,10344,10344,10344,10344,10344,10344,10344,10344,10344,10344,10344,10344,10344,10344,10344,10344,10344,10344,10344,10344,10344,10344,10344,10344,10344,10344,10344,10344,10344,10344,10344,10344,10344,10344,10344,10344,10344,10344,10344,10344,10344,10344,10344,10344,10344,10344,10344,10344,10344,10344,10344,10344,10344,10344,10344,10344,10344,10344,10344,10344,10344,10344,10344,10344,10344,10344,10344,10344,10344,10344,10344,10344,10344,10344,10344,
10344,10344,10344,10344,10344,10344,10344,10344,10344,10344,10344,10344,10344,10344,10344,10344,10344,10344,10344,10344,10344,10344,10344,10344,10344,10344,10344,10344,10344,10344,10344,10344,10344,10344,10344,10344,10344,10344,10344,10344,10344,10344,10344,10344,10344,10344,10344,10344,10344,10344,10344,10344,10344,10344,10344,10344,10344,10344,10344,10344,10344,10344,10344,10344,10344,10344,10344,10344,10344,10344,10344,10344,10344,10344,10344,10344,10344,10344,10344,10344,10344,10344,10344,10344,10344,10344,10344,10344,10344,10344,10344,10344,10344,10344,10344,10344,10344,10344,10344,10344,10344,10344,10344,10344,10344,10344,10344,10344,10344,10344,10344,10344,10344,10344,10344,10344,10344,10344,10344,10344,10344,10344,10344,10344,10344,10344,10344,10344,10344,10344,10344,10344,10344,10344,10344,10344,10344,10344,10344,10344,10344,10344,10344,10344,10344,10344,10344,10344,10344,10344,
10344,10344,10344,10344,10344,10344,10344,10344,10344,10344,10344,10344,10344,10344,10344,10344,10344,10344,10344,10344,10344,10344,10344,10344,10344,10344,10344,10344,10344,10344,10344,10344,10344,10344,10344,10344,10344,10344,10344,10344,10344,10344,10344,10344,10344,10344,10344,10344,10344,10344,10344,10344,10344,10344,10344,10344,10344,10344,10344,10344,10344,10344,10344,10344,10344,10344,10344,10344,10344,10344,10344,10344,10344,10344,10344,10344,10344,10344,10344,10344,10344,10344,10344,10344,10344,10344,10344,10344,10344,10344,10344,10344,10344,10344,10344,10344,10344,10344,10344,10344,10344,10344,10344,10344,10344,10344,10344,10344,10344,10344,10344,10344,10344,10344,10344,10344,10344,10344,10344,10344,10344,10344,10344,10344,10344,10344,10344,10344,10344,10344,10344,10344,10344,10344,10344,10344,10344,10344,10344,10344,10344,10344,10344,10344,10344,10344,10344,10344,10344,10344,
10344,10344,10344,10344,10344,10344,10344,10344,10344,10344,10344,10344,10344,10344,10344,10344,10344,10344,10344,10344,10344,10344,10344,10344,10344,10344,10344,10344,10344,10344,10344,10344,10344,10344,10344,10344,10344,10344,10344,10344,10344,10344,10344,10344,10344,10344,10344,10344,10344,10344,10344,10344,10344,10344,10344,10344,10344,10344,10344,10344,10344,10344,10344,10344,10344,10344,10344,10344,10344,10344,10344,10344,10344,10344,10344,10344,10344,10344,10344,10344,10344,10344,10344,10344,10344,10344,10344,10344,10344,10344,10344,10344,10344,10344,10344,10344,10344,10344,10344,10344,10344,10344,10344,10344,10344,10344,10344,10344,10344,10344,10344,10344,10344,10344,10344,10344,10344,10344,10344,10344,10344,10344,10344,10344,10344,10344,10344,10344,10344,10344,10344,10344,10344,10344,10344,10344,10344,10344,10344,10344,10344,10344,10344,10344,10344,10344,10344,10344,10344,10344,
10344,10344,10344,10344,10344,10344,10344,10344,10344,10344,10344,10344,10344,10344,10344,10344,10344,10344,10344,10344,10344,10344,10344,10344,10344,10344,10344,10344,10344,10344,10344,10344,10344,10344,10344,10344,10344,10344,10344,10344,10344,10344,10344,10344,10344,10344,10344,10344,10344,10344,10344,10344,10344,10344,10344,10344,10344,10344,10344,10344,10344,10344,10344,10344,10344,10344,10344,10344,10344,10344,10344,10344,10344,10344,10344,10344,10344,10344,10344,10344,10344,10344,10344,10344,10344,10344,10344,10344,10344,10344,10344,10344,10344,10344,10344,10344,10344,10344,10344,10344,10344,10344,10344,10344,10344,10344,10344,10344,10344,10344,10344,10344,10344,10344,10344,10344,10344,10344,10344,10344,10344,10344,10344,10344,10344,10344,10344,10344,10344,10344,10344,10344,10344,10344,10344,10344,10344,10344,10344,10344,10344,10344,10344,10344,10344,10344,10344,10344,10344,10344,
10344,10344,10344,10344,10344,10344,10344,10344,10344,10344,10344,10344,10344,10344,10344,10344,10344,10344,10344,10344,10344,10344,10344,10344,10344,10344,10344,10344,10344,10344,10344,10344,10344,10344,10344,10344,10344,10344,10344,10344,10344,10344,10344,10344,10344,10344,10344,10344,10344,10344,10344,10344,10344,10344,10344,10344,10344,10344,10344,10344,10344,10344,10344,10344,10344,10344,10344,10344,10344,10344,10344,10344,10344,10344,10344,10344,10344,10344,10344,10344,10344,10344,10344,10344,10344,10344,10344,10344,10344,10344,10344,10344,10344,10344,10344,10344,10344,10344,10344,10344,10344,10344,10344,10344,10344,10344,10344,10344,10344,10344,10344,10344,10344,10344,10344,10344,10344,10344,10344,10344,10344,10344,10344,10344,10344,10344,10344,10344,10344,10344,10344,10344,10344,10344,10344,10344,10344,10344,10344,10344,10344,10344,10344,10344,10344,10344,10344,10344,10344,10344,
10344,10344,10344,10344,10344,10344,10344,10344,10344,10344,10344,10344,10344,10344,10344,10344,10344,10344,10344,10344,10344,10344,10344,10344,10344,10344,10344,10344,10344,10344,10344,10344,10344,10344,10344,10344,10344,10344,10344,10344,10344,10344,10344,10344,10344,10344,10344,10344,10344,10344,10344,10344,10344,10344,10344,10344,10344,10344,10344,10344,10344,10344,10344,10344,10344,10344,10344,10344,10344,10344,10344,10344,10344,10344,10344,10344,10344,10344,10344,10344,10344,10344,10344,10344,10344,10344,10344,10344,10344,10344,10344,10344,10344,10344,10344,10344,10344,10344,10344,10344,10344,10344,10344,10344,10344,10344,10344,10344,10344,10344,10344,10344,10344,10344,10344,10344,10344,10344,10344,10344,10344,10344,10344,10344,10344,10344,10344,10344,10344,10344,10344,10344,10344,10344,10344,10344,10344,10344,10344,10344,10344,10344,10344,10344,10344,10344,10344,10344,10344,10344,
10344,10344,10344,10344,10344,10344,10344,10344,10344,10344,10344,10344,10344,10344,10344,10344,10344,10344,10344,10344,10344,10344,10344,10344,10344,10344,10344,10344,10344,10344,10344,10344,10344,10344,10344,10344,10344,10344,10344,10344,10344,10344,10344,10344,10344,10344,10344,10344,10344,10344,10344,10344,10344,10344,10344,10344,10344,10344,10344,10344,10344,10344,10344,10344,10344,10344,10344,10344,10344,10344,10344,10344,10344,10344,10344,10344,10344,10344,10344,10344,10344,10344,10344,10344,10344,10344,10344,10344,10344,10344,10344,10344,10344,10344,10344,10344,10344,10344,10344,10344,10344,10344,10344,10344,10344,10344,10344,10344,10344,10344,10344,10344,10344,10344,10344,10344,10344,10344,10344,10344,10344,10344,10344,10344,10344,10344,10344,10344,10344,10344,10344,10344,10344,10344,10344,10344,10344,10344,10344,10344,10344,10344,10344,10344,10344,10344,10344,10344,10344,10344,
10344,10344,10344,10344,10344,10344,10344,10344,10344,10344,10344,10344,10344,10344,10344,10344,10344,10344,10344,10344,10344,10344,10344,10344,10344,10344,10344,10344,10344,10344,10344,10344,10344,10344,10344,10344,10344,10344,10344,10344,10344,10344,10344,10344,10344,10344,10344,10344,10344,10344,10344,10344,10344,10344,10344,10344,10344,10344,10344,10344,10344,10344,10344,10344,10344,10344,10344,10344,10344,10344,10344,10344,10344,10344,10344,10344,10344,10344,10344,10344,10344,10344,10344,10344,10344,10344,10344,10344,10344,10344,10344,10344,10344,10344,10344,10344,10344,10344,10344,10344,10344,10344,10344,10344,10344,10344,10344,10344,10344,10344,10344,10344,10344,10344,10344,10344,10344,10344,10344,10344,10344,10344,10344,10344,10344,10344,10344,10344,10344,10344,10344,10344,10344,10344,10344,10344,10344,10344,10344,10344,10344,10344,10344,10344,10344,10344,10344,10344,10344,10344,
10344,10344,10344,10344,10344,10344,10344,10344,10344,10344,10344,10344,10344,10344,10344,10344,10344,10344,10344,10344,10344,10344,10344,10344,10344,10344,10344,10344,10344,10344,10344,10344,10344,10344,10344,10344,10344,10344,10344,10344,10344,10344,10344,10344,10344,10344,10344,10344,10344,10344,10344,10344,10344,10344,10344,10344,10344,10344,10344,10344,10344,10344,10344,10344,10344,10344,10344,10344,10344,10344,10344,10344,10344,10344,10344,10344,10344,10344,10344,10344,10344,10344,10344,10344,10344,10344,10344,10344,10344,10344,10344,10344,10344,10344,10344,10344,10344,10344,10344,10344,10344,10344,10344,10344,10344,10344,10344,10344,10344,10344,10344,10344,10344,10344,10344,10344,10344,10344,10344,10344,10344,10344,10344,10344,10344,10344,10344,10344,10344,10344,10344,10344,10344,10344,10344,10344,10344,10344,10344,10344,10344,10344,10344,10344,10344,10344,10344,10344,10344,10344,
10344,10344,10344,10344,10344,10344,10344,10344,10344,10344,10344,10344,10344,10344,10344,10344,10344,10344,10344,10344,10344,10344,10344,10344,10344,10344,10344,10344,10344,10344,10344,10344,10344,10344,10344,10344,10344,10344,10344,10344,10344,10344,10344,10344,10344,10344,10344,10344,10344,10344,10344,10344,10344,10344,10344,10344,10344,10344,10344,10344,10344,10344,10344,10344,10344,10344,10344,10344,10344,10344,10344,10344,10344,10344,10344,10344,10344,10344,10344,10344,10344,10344,10344,10344,10344,10344,10344,10344,10344,10344,10344,10344,10344,10344,10344,10344,10344,10344,10344,10344,10344,10344,10344,10344,10344,10344,10344,10344,10344,10344,10344,10344,10344,10344,10344,10344,10344,10344,10344,10344,10344,10344,10344,10344,10344,10344,10344,10344,10344,10344,10344,10344,10344,10344,10344,10344,10344,10344,10344,10344,10344,10344,10344,10344,10344,10344,10344,10344,10344,10344
</data>
 </layer>
 <layer id="2" name="Tile Layer 2" width="150" height="100">
  <data encoding="csv">
0,0,0,0,0,0,0,0,0,0,0,0,0,0,0,0,0,0,0,0,0,0,0,0,12771,12772,0,0,0,0,0,0,0,0,0,0,0,0,0,0,0,0,0,0,0,0,0,0,0,0,0,0,0,0,0,0,0,0,0,0,0,0,0,0,0,0,0,0,12717,12735,12735,12735,12736,0,0,0,0,0,0,0,0,0,0,0,0,0,0,0,0,0,0,0,0,0,0,0,0,0,0,0,0,0,0,0,0,0,0,0,0,0,0,0,0,0,0,0,0,0,0,0,0,0,0,0,0,0,0,0,0,0,0,0,0,0,0,0,0,0,0,0,0,0,0,0,0,0,0,0,0,0,
0,0,0,0,0,0,0,0,0,0,0,0,0,0,0,0,0,0,0,0,0,0,12771,12772,12772,12772,0,0,0,0,0,0,0,0,0,0,0,0,0,0,0,0,0,0,0,0,0,0,0,0,0,0,0,0,235,236,237,0,0,0,0,0,0,0,0,0,0,12717,12735,12735,12736,0,0,0,0,0,0,0,0,0,0,0,0,0,0,0,0,0,0,0,0,0,0,0,0,0,0,0,0,0,0,0,0,0,0,0,0,0,0,0,0,0,0,0,0,0,0,0,0,0,0,0,0,0,0,0,0,0,0,0,0,0,0,0,0,0,0,0,0,0,0,0,0,0,0,0,0,0,0,0,
0,0,0,0,0,0,0,0,0,0,0,0,0,0,0,0,0,0,0,12771,12772,12772,12772,0,0,0,0,0,0,0,0,0,0,0,0,0,0,0,0,0,0,0,0,0,0,0,0,0,0,0,0,0,0,0,255,256,257,0,0,0,0,0,0,0,0,0,0,12735,12735,12736,0,0,0,0,0,0,0,0,0,0,0,0,0,0,0,0,0,0,0,0,0,0,0,0,0,0,0,0,0,0,0,0,0,0,0,0,0,0,0,0,0,0,0,0,0,0,0,0,0,0,0,0,0,0,0,0,0,0,0,0,0,0,0,0,0,0,0,0,0,0,0,0,0,0,0,0,0,0,0,0,
0,0,0,0,0,0,0,0,0,0,0,0,0,0,0,0,0,0,12771,12772,12772,0,0,0,0,0,0,0,0,0,0,0,12771,12772,12772,12772,0,0,0,0,0,0,0,0,0,0,0,0,0,0,0,0,0,0,275,276,277,0,0,0,0,0,0,0,0,0,0,12735,12736,0,0,0,0,0,0,0,0,0,0,0,0,0,0,0,0,0,0,0,0,0,0,0,0,0,0,0,0,0,0,0,0,0,0,0,0,0,0,0,0,0,0,0,0,0,0,0,0,0,0,0,0,0,0,0,0,0,0,0,0,0,0,0,0,0,0,0,0,0,0,0,0,0,0,0,0,0,0,0,0,0,
0,0,0,0,0,0,0,0,0,0,0,0,0,0,0,0,0,0,0,0,0,0,0,0,0,0,0,0,0,0,0,0,0,0,0,12771,12772,0,0,0,0,0,0,0,0,0,0,0,0,0,0,0,0,0,295,296,297,0,0,0,0,0,0,0,0,0,0,0,0,0,0,0,0,0,0,0,0,0,235,236,237,0,0,0,0,0,0,0,0,0,0,0,0,12717,12718,0,0,0,0,0,0,0,0,0,0,0,0,0,0,0,0,0,0,0,0,0,0,0,0,0,0,0,0,0,0,0,0,0,0,0,0,0,0,0,0,0,12717,12717,12718,0,0,0,0,0,0,0,0,0,0,0,
0,0,0,0,0,0,0,0,0,0,0,0,0,0,0,0,12717,12718,12718,0,0,0,0,0,0,0,0,0,0,0,0,0,0,0,0,12771,12772,12772,12772,0,0,0,0,0,0,0,0,0,0,0,0,0,0,0,0,0,0,0,0,0,0,0,0,0,0,0,0,0,0,0,0,0,0,0,0,0,0,0,255,256,257,0,0,0,0,0,0,0,0,0,0,0,0,12717,12718,0,0,0,0,0,0,0,0,0,0,0,0,0,0,0,0,0,0,0,0,0,0,0,0,0,0,0,0,0,0,0,0,0,0,0,0,0,0,0,0,0,12735,12717,12717,12718,0,0,0,0,0,0,0,0,0,0,
0,0,0,0,0,0,0,0,0,0,0,0,0,0,0,0,12735,12736,12736,12718,12718,12718,12718,12718,12718,12718,0,0,0,0,0,0,0,0,0,0,0,12771,12772,12772,12772,0,0,0,0,0,0,0,0,0,0,0,0,0,0,0,0,0,0,0,0,0,0,0,0,0,0,0,0,0,0,0,0,0,0,0,0,0,275,276,277,0,0,0,0,0,0,0,0,0,0,0,0,12735,12736,0,0,0,0,0,0,0,0,0,0,12771,12771,12771,12772,0,0,0,0,0,0,0,0,0,0,0,0,0,0,0,0,0,0,0,0,0,0,0,0,0,0,0,0,12735,12717,12717,12718,0,0,0,0,0,0,0,0,0,
0,0,0,0,0,0,0,0,0,0,0,0,0,0,0,0,0,0,12735,12736,12736,12736,12736,12736,12736,12736,12718,12718,12718,0,0,0,0,0,0,0,0,0,0,12771,12772,12772,0,0,0,0,0,0,0,0,0,0,0,0,0,0,0,0,0,0,0,0,0,0,0,0,0,0,0,0,0,0,0,0,0,0,12717,12718,295,296,297,0,0,0,0,0,0,0,0,0,0,0,0,0,0,12771,12772,0,0,0,0,0,0,0,0,0,0,0,0,0,0,0,0,0,0,0,12717,12718,12718,0,0,0,0,0,0,0,0,0,0,0,0,0,0,0,0,0,0,0,12735,12717,12718,0,0,0,0,0,0,0,0,0,
0,0,0,0,0,0,0,0,0,0,0,0,0,0,0,0,0,0,0,0,0,0,0,0,12735,12736,12736,12736,12736,12718,12718,12718,12718,12718,0,0,0,0,0,0,0,0,0,0,0,0,0,0,0,0,0,0,0,0,0,0,12717,12717,12717,12718,0,0,0,0,0,0,0,0,0,0,0,0,0,0,12717,12718,12717,12718,0,0,0,0,0,0,0,0,0,0,0,0,0,12771,12771,12771,12771,12772,0,0,0,0,0,0,0,0,0,0,0,0,0,0,0,0,0,0,0,0,12717,12718,12736,0,0,0,0,0,0,0,0,0,0,0,0,0,0,0,0,0,0,0,0,12735,12736,0,0,0,0,0,0,0,0,0,
0,0,0,0,0,0,0,0,0,0,0,0,0,0,0,12771,12772,0,0,0,0,0,0,0,0,0,0,0,12735,12736,12736,12736,12736,12736,12718,12718,12718,12718,0,0,0,0,0,0,0,0,0,0,0,0,0,0,0,0,0,0,12735,12735,12717,12717,12717,12717,12718,0,0,0,0,0,0,0,0,0,0,0,12735,12736,12718,12736,0,0,0,0,0,0,0,0,0,0,12771,12771,12771,12772,0,0,0,0,0,0,0,0,0,0,0,0,0,0,0,0,0,0,0,0,0,0,12771,12771,12771,12772,0,0,0,0,0,0,0,0,0,0,0,0,0,0,0,0,0,0,0,0,0,0,0,0,0,0,0,0,0,0,0,0,
0,0,0,0,0,235,236,237,0,0,0,0,0,0,0,12771,12771,12772,0,0,0,0,0,0,0,0,0,0,0,0,0,0,12735,12736,12736,12736,12736,12736,12718,12718,0,0,0,0,0,0,0,0,0,0,0,0,0,0,0,0,0,0,12735,12735,12735,12735,12717,12717,12717,12718,0,0,0,0,0,0,0,0,12735,12736,12736,0,0,0,0,0,0,0,12717,12718,12771,12771,12772,0,0,0,0,0,0,0,0,0,0,0,0,0,0,0,0,0,0,0,0,0,0,0,0,12717,12718,12718,12771,12771,12772,0,0,0,0,0,0,0,0,0,0,0,0,0,12771,12772,0,0,0,0,0,0,0,0,0,0,0,0,0,0,0,0,
0,0,0,0,0,255,256,257,0,0,0,0,0,0,0,0,12771,12771,12772,0,0,0,0,0,0,0,0,0,0,0,0,0,0,0,0,0,0,12735,12736,12736,12718,0,0,0,0,0,0,0,0,0,0,0,0,0,0,0,0,0,0,0,0,0,12735,12735,12735,12736,0,0,0,0,0,0,0,0,0,0,0,0,0,0,0,0,0,0,12735,12771,12771,12772,12718,0,0,0,0,0,0,0,0,0,0,0,0,0,0,0,0,0,0,0,0,0,0,12717,12718,12718,12736,12736,12735,12736,0,0,0,0,0,0,0,0,0,0,0,0,0,0,12771,12772,0,0,0,0,0,0,0,0,0,0,0,0,0,0,0,0,
0,0,0,0,0,275,276,277,0,0,0,0,0,0,0,0,0,12771,12771,12772,0,0,0,0,0,0,0,0,0,0,0,0,0,0,0,0,0,0,0,12735,12736,0,0,0,0,0,0,0,0,0,0,0,0,0,0,0,0,0,0,0,0,0,0,0,0,0,0,0,0,0,0,0,0,0,0,0,0,0,0,0,0,0,0,0,0,0,12735,12736,12736,0,0,0,0,0,0,0,0,0,0,0,0,0,0,0,0,0,0,0,0,0,0,12735,12736,12736,12717,12735,12736,0,0,0,0,0,0,0,0,0,0,0,0,0,0,0,0,12771,12772,0,0,0,0,0,0,0,0,0,0,0,0,0,0,0,
0,0,0,0,0,295,296,297,0,0,0,0,0,0,0,0,0,0,0,0,0,0,0,0,0,0,0,0,0,0,0,0,0,0,0,0,0,0,0,0,0,0,0,0,0,12717,12718,0,0,0,0,0,0,0,0,0,0,0,0,0,0,0,0,0,0,0,0,0,0,0,0,0,0,0,0,0,0,0,0,0,0,0,0,0,0,0,0,0,0,0,0,0,0,0,0,0,0,12717,12717,12717,12717,12718,0,0,0,0,0,0,0,0,0,0,0,0,12735,12735,12736,0,0,0,0,0,0,0,0,0,0,0,0,0,0,0,0,12771,12772,0,0,0,0,0,0,0,0,0,0,0,0,0,0,0,
0,0,0,0,0,0,0,0,0,0,0,0,0,0,0,0,0,0,0,0,0,0,0,0,0,0,0,0,0,0,0,0,0,0,0,235,236,237,0,0,0,0,0,0,12717,12735,12736,0,0,0,0,0,12771,12772,0,0,0,0,0,0,0,0,0,0,0,0,0,0,0,0,0,0,0,0,0,0,0,0,0,0,0,0,0,0,0,0,0,0,0,0,0,0,0,0,0,0,0,12735,12735,12735,12735,12736,0,0,0,0,0,0,0,0,0,0,0,12717,12735,12736,0,0,0,0,0,0,0,0,0,0,0,0,0,0,0,0,0,12771,12772,0,0,0,0,0,0,0,0,0,0,0,0,12717,12718,0,
0,0,0,0,0,0,0,0,0,0,0,0,0,0,0,0,0,0,0,0,0,0,0,0,0,0,0,0,0,0,0,0,0,0,0,255,256,257,0,0,0,0,0,0,12735,12736,0,0,0,0,0,0,12771,12772,0,0,0,0,0,0,0,0,0,0,0,0,0,0,0,0,0,0,0,0,0,0,0,0,0,0,0,0,0,0,0,0,0,0,0,0,0,0,0,0,0,0,0,0,0,0,0,0,0,0,0,0,0,0,0,0,0,0,0,12735,12735,12736,0,0,0,0,0,0,0,0,0,0,0,12717,12718,0,0,0,0,12771,12772,0,0,0,0,0,0,0,0,0,0,0,0,12735,12736,0,
0,0,0,0,0,0,0,0,0,0,0,0,0,0,0,0,0,0,0,0,0,0,0,0,0,0,0,0,0,0,0,0,0,0,0,275,276,277,0,0,0,0,0,0,12735,12736,0,0,0,0,0,0,12771,12772,0,0,0,0,0,0,0,0,0,0,0,0,0,0,0,0,0,0,0,0,0,0,0,0,0,0,0,0,0,0,0,0,0,0,0,0,0,0,0,0,0,0,0,0,0,0,0,0,0,0,0,0,0,0,0,0,0,0,0,12735,12736,0,0,0,0,0,0,0,0,0,0,0,0,12717,12718,0,0,0,0,12771,12772,0,0,0,0,0,0,0,0,0,0,0,0,0,0,0,
0,0,0,0,0,0,0,0,0,0,0,0,0,0,0,0,0,0,0,0,0,0,0,0,0,0,0,0,0,0,0,0,0,0,0,295,296,297,0,0,0,0,0,0,0,0,0,0,0,0,0,0,0,0,0,0,0,0,0,0,0,0,0,0,0,0,0,0,0,0,0,0,0,0,0,0,0,0,0,0,0,0,0,0,0,0,0,0,12717,12718,0,0,0,0,0,0,0,0,0,0,0,0,0,0,0,0,0,0,0,0,0,0,0,0,0,0,0,0,0,0,0,0,0,0,0,0,0,12717,12718,0,0,0,0,0,0,0,0,0,0,0,0,0,0,0,0,0,0,0,0,0,
0,0,0,0,0,0,12717,12718,0,0,0,0,0,0,0,0,0,0,0,0,0,0,0,0,0,0,0,0,0,0,0,0,0,0,0,0,0,0,0,0,0,0,0,0,0,0,0,0,0,0,0,0,0,0,0,0,0,0,12717,12718,0,0,0,0,0,0,0,0,0,0,0,0,0,0,0,0,0,0,0,0,0,0,0,0,0,12717,12717,12717,12735,12736,12771,12772,0,0,0,0,0,0,0,0,0,0,0,0,0,0,0,0,0,0,0,0,0,0,0,0,0,0,0,0,0,0,0,0,0,0,0,12735,12736,0,0,0,0,0,0,0,0,0,0,0,0,0,0,0,0,0,0,0,0,0,
0,0,0,0,0,0,12735,12717,12717,12718,0,0,0,0,0,0,0,0,0,0,0,0,0,0,0,0,0,0,0,0,0,0,0,0,0,0,0,0,0,0,0,0,0,0,0,0,0,0,0,0,0,0,0,0,0,0,0,0,12735,12736,12718,0,0,0,0,0,0,0,0,0,0,0,0,0,0,0,12717,12718,0,0,0,12717,12717,12717,12717,12735,12735,12735,12736,0,0,12771,12772,0,0,0,0,0,0,0,0,12717,12718,12718,0,0,0,0,0,0,0,0,0,12717,12718,0,0,0,0,0,0,0,0,0,0,0,0,0,0,0,0,0,0,0,0,0,0,0,0,0,0,0,0,0,0,0,0,0,0,0,
0,0,0,0,0,0,0,12735,12735,12736,0,0,0,0,0,0,0,0,0,0,0,0,0,0,0,0,0,0,0,0,0,0,0,0,0,0,0,0,0,0,0,0,12771,12772,0,0,0,0,0,0,0,0,0,0,0,0,0,0,0,12735,12736,0,0,0,0,0,0,0,0,0,0,0,0,0,0,0,12717,12718,0,0,0,12735,12735,12735,12735,12736,0,0,0,0,0,12771,12772,0,0,0,0,0,0,12717,12718,12718,12718,12736,0,0,0,0,0,0,0,0,12717,12735,12736,0,0,0,0,0,0,0,0,0,0,0,0,0,0,0,0,0,0,0,0,0,0,0,12717,12718,0,0,0,0,0,0,0,0,0,0,
0,0,0,0,0,0,0,0,0,0,0,0,0,0,0,0,12717,12718,0,0,0,0,0,12771,12772,0,0,0,0,0,0,0,0,0,0,0,0,0,0,0,0,12771,12772,0,0,0,0,0,0,0,0,0,0,0,0,0,0,0,0,0,0,0,0,0,0,0,0,0,12717,12718,12718,12718,12718,12718,12718,12718,12718,12718,0,0,0,0,0,0,0,0,0,0,0,0,0,0,12771,12772,0,0,0,12717,12718,12718,12718,12736,12736,0,0,0,0,0,0,0,12717,12717,12735,12736,0,0,0,0,0,0,0,0,0,0,0,0,0,0,0,0,0,0,0,0,0,0,0,12717,12735,12736,0,0,0,0,0,0,0,0,0,0,
0,0,0,0,0,0,0,0,0,0,0,0,0,0,0,0,12735,12736,0,0,0,0,0,12771,12771,12772,0,0,0,0,0,0,0,0,0,0,0,0,0,12771,12771,12772,0,0,0,0,0,0,0,0,0,0,0,0,0,0,0,0,0,0,0,0,0,0,0,0,0,0,12735,12736,12736,12736,12736,12736,12736,12736,12736,12736,0,0,0,0,0,0,0,0,0,0,0,0,0,0,12771,12772,12717,12718,12718,12718,12718,12736,12736,0,0,0,0,0,0,0,0,12717,12735,12735,12736,0,0,0,0,0,0,0,0,0,0,0,0,0,0,0,0,0,0,0,0,0,0,12717,12717,12735,12736,0,0,0,0,0,0,0,0,0,0,0,
0,0,0,0,0,0,0,0,0,0,0,0,0,0,0,0,0,0,0,0,0,0,0,0,12771,12772,0,0,12771,12771,12772,0,0,0,0,0,0,0,12771,12772,0,0,0,0,0,0,0,0,0,0,0,0,0,0,0,0,0,0,0,0,0,12717,12717,12718,0,0,0,0,0,0,0,0,0,0,0,0,0,0,0,0,0,0,0,0,0,0,0,0,0,0,0,0,0,12771,12772,12736,12736,12736,12736,0,0,0,0,0,0,0,0,0,0,12735,12736,0,0,0,0,0,0,0,0,0,0,0,0,0,0,0,0,0,0,0,0,0,0,0,12717,12735,12735,12736,0,0,0,0,0,0,0,0,0,0,0,0,
0,0,0,0,0,0,0,0,0,0,0,0,0,0,0,0,0,0,0,0,0,0,0,0,12771,12772,0,0,0,0,0,0,0,0,0,0,0,12771,12771,12772,0,0,0,0,0,0,0,0,0,0,0,0,0,0,0,0,0,0,0,0,0,12735,12735,12736,0,0,0,0,0,0,0,0,0,0,0,0,0,0,0,0,0,0,0,0,0,0,0,0,0,0,12717,12717,12717,12771,12772,0,0,0,0,0,0,0,0,0,0,0,0,0,0,0,0,0,0,0,0,0,0,0,0,0,0,0,0,0,0,0,0,0,0,0,0,0,0,12717,12735,12736,0,0,0,0,0,0,0,0,0,0,0,0,0,0,
0,0,0,0,0,0,0,0,0,0,0,0,0,0,0,0,0,0,12699,0,0,0,0,0,12771,12772,0,0,0,0,0,0,0,0,0,0,0,0,0,0,0,0,0,0,0,0,0,0,0,0,0,0,0,0,0,0,0,0,0,0,0,0,0,0,0,0,0,0,0,0,0,0,0,0,0,0,0,0,0,0,0,0,0,0,0,0,0,0,0,0,12717,12735,12735,12735,12771,12772,0,0,0,0,0,0,0,0,0,0,0,0,0,0,0,0,0,0,0,0,0,0,0,0,0,0,0,0,12717,12718,0,0,0,0,0,0,0,12735,12735,12736,0,0,0,0,0,0,0,0,0,0,0,0,0,0,
0,0,0,0,0,0,0,0,0,0,0,0,0,0,0,0,0,0,0,0,0,0,0,12771,12772,12772,0,0,0,0,0,0,0,0,0,0,0,0,0,0,0,0,0,0,0,0,0,0,0,0,0,0,0,0,0,0,0,0,0,0,0,0,0,0,0,0,0,0,0,0,0,0,0,0,0,0,0,0,0,0,0,0,0,0,0,0,0,0,0,0,12735,12736,0,0,12771,12772,0,0,0,0,0,0,0,0,0,0,0,0,0,0,0,0,0,0,0,0,0,0,0,0,0,0,0,12717,12735,12736,0,0,0,0,0,0,12717,12735,12736,0,0,0,0,0,0,0,0,0,0,0,0,0,0,0,
0,0,0,0,0,0,0,0,0,0,0,0,0,0,0,0,0,0,0,0,0,0,0,12771,12772,0,0,0,0,0,0,0,0,0,0,0,0,0,0,0,0,0,0,0,0,0,0,0,0,0,0,0,0,0,0,0,0,0,0,0,0,0,0,0,0,0,0,0,0,0,0,0,0,0,0,0,0,0,0,0,0,0,0,0,0,0,0,0,0,0,0,0,0,0,12771,12772,0,0,0,0,0,0,0,0,0,0,0,0,0,0,0,0,0,0,0,0,0,0,0,0,0,0,0,12735,12735,12736,0,0,0,0,0,0,12735,12735,12736,0,0,0,0,0,0,0,0,0,0,0,0,12717,12718,0,
0,0,0,0,0,0,0,0,0,0,0,0,0,0,0,0,0,0,0,0,0,0,0,0,0,0,0,0,0,0,0,0,0,0,0,0,0,0,0,0,0,0,12717,12717,12717,12718,0,0,0,0,0,0,0,0,0,0,0,0,0,0,0,0,0,0,0,0,0,0,0,0,0,0,235,236,237,0,0,0,0,0,0,0,0,0,0,0,0,0,0,0,0,0,0,0,12771,12772,0,0,0,0,0,0,0,0,0,0,0,0,0,0,0,0,0,0,0,0,0,0,0,0,0,0,0,0,0,0,0,0,0,0,0,0,12735,12736,0,0,0,0,0,0,0,0,0,0,0,0,0,12717,12718,0,
0,0,0,0,0,0,0,0,0,0,0,0,0,0,0,0,0,0,0,0,0,0,0,0,0,0,0,0,0,0,0,0,0,0,0,0,0,0,0,0,0,12717,12735,12735,12735,12736,0,0,0,0,0,0,0,0,0,0,0,0,0,0,0,0,0,0,0,0,0,0,0,0,0,0,255,256,257,0,0,0,0,0,0,0,0,0,0,0,0,0,0,0,0,0,0,0,0,0,0,0,0,0,0,0,0,0,0,0,0,0,0,0,0,0,0,0,0,0,0,0,0,0,0,0,0,0,0,0,0,0,0,0,0,0,0,0,0,0,0,0,0,0,12771,12772,0,0,0,0,0,12717,12718,0,
0,0,0,0,0,0,0,0,0,0,0,0,0,0,0,0,0,0,0,0,0,0,0,0,0,0,0,0,0,0,0,0,0,0,0,0,0,0,0,0,12717,12735,12735,12736,0,0,0,0,0,0,0,0,0,0,0,0,0,0,0,0,0,0,0,0,0,0,0,0,0,0,0,0,275,276,277,0,0,0,0,0,0,0,0,0,0,0,0,0,0,0,0,0,0,0,0,0,0,0,0,0,0,0,0,0,0,0,0,0,0,0,0,0,0,0,0,0,0,0,0,0,0,0,0,0,0,0,0,0,0,0,0,0,0,0,0,0,0,0,0,0,0,12771,12772,0,0,0,0,12717,12718,0,
0,0,0,0,0,0,0,0,0,0,0,0,0,0,0,0,0,0,0,0,0,0,0,0,0,0,0,0,0,0,0,0,0,0,0,0,0,0,12717,12717,12735,12735,12736,0,0,235,236,237,0,0,0,0,0,0,0,0,0,0,0,0,0,0,0,0,0,0,0,0,0,0,0,0,295,296,297,0,0,0,0,0,0,0,0,0,0,0,0,0,0,0,0,0,0,0,0,0,0,0,0,0,0,0,0,0,0,0,0,0,0,0,0,0,0,0,0,0,0,0,0,0,0,0,0,0,0,0,0,0,0,0,0,0,0,0,0,0,0,0,0,0,0,12771,12772,0,0,0,0,12717,12718,0,
0,0,0,0,0,12717,12718,0,0,0,235,236,237,0,0,0,0,0,0,0,0,0,0,0,0,0,0,12717,12718,12699,0,0,0,0,0,0,0,12717,12735,12735,12736,0,0,0,0,255,256,257,0,0,0,0,0,0,0,0,0,0,0,0,0,0,0,0,0,0,0,0,0,0,0,0,0,0,0,0,0,0,0,0,0,0,0,0,0,0,12771,12772,0,0,0,0,12717,12717,12717,12718,0,0,0,0,0,0,0,0,0,0,0,0,0,0,0,0,0,0,0,0,0,0,0,0,0,0,0,0,0,0,0,0,0,0,0,0,0,0,0,0,0,0,0,0,0,12771,12771,12772,0,0,0,12735,12736,0,
0,0,0,0,0,12735,12736,0,0,0,255,256,257,0,0,0,0,0,0,0,0,0,0,0,0,0,0,12735,12736,0,0,0,0,0,0,0,0,12735,12736,0,0,0,0,0,0,275,276,277,0,0,0,0,0,0,0,0,0,0,0,0,0,0,0,0,0,0,0,0,0,0,0,0,0,0,0,0,0,0,0,0,0,0,0,0,0,12771,12772,0,0,0,0,0,12735,12735,12717,12717,12717,12718,0,0,0,0,0,0,0,0,0,0,0,0,0,0,0,0,0,0,0,235,236,237,0,0,0,0,0,0,0,0,0,0,0,0,0,0,0,0,0,0,0,0,0,0,12771,12772,0,0,0,0,0,0,
0,0,0,0,0,0,0,0,0,0,275,276,277,0,0,0,0,0,0,0,0,0,0,0,0,0,0,0,0,0,0,0,0,0,0,0,0,12735,12736,0,0,0,0,0,0,295,296,297,0,0,0,0,0,0,0,0,0,0,0,0,0,0,0,0,0,0,0,0,0,0,0,0,0,0,0,0,0,0,0,0,12771,12771,12771,12771,12771,12772,0,0,0,0,0,0,0,0,12735,12735,12735,12736,0,0,0,0,0,0,0,0,0,0,0,0,0,0,0,0,0,0,0,255,256,257,0,0,0,0,0,0,0,0,0,0,0,0,0,0,0,0,0,0,0,0,0,0,0,0,0,0,0,0,0,0,
0,0,0,0,0,0,0,0,0,0,295,296,297,0,0,0,0,0,0,0,0,0,0,0,0,0,0,0,0,0,0,0,0,0,0,0,0,0,0,0,0,0,0,0,0,0,0,0,0,0,0,0,0,0,0,0,0,0,0,0,0,0,0,0,0,0,0,0,0,0,0,0,0,0,0,0,0,0,0,0,0,0,0,12717,12735,12736,0,0,0,0,0,0,0,0,0,0,0,0,0,0,0,0,0,0,0,0,0,0,0,0,0,0,0,0,0,0,0,275,276,277,0,0,0,0,0,0,0,0,0,0,0,0,0,0,0,0,0,0,0,0,0,0,0,0,0,0,0,0,0,0,
0,0,0,0,0,0,0,0,0,0,0,0,0,0,0,0,0,0,0,0,0,0,0,0,0,0,0,0,0,0,0,0,0,0,0,0,0,0,0,0,0,0,0,0,0,0,0,0,0,0,0,0,0,0,0,0,0,0,0,0,0,0,0,0,0,0,0,0,0,0,12771,12772,0,0,0,0,0,0,0,0,0,0,0,12735,12736,0,0,0,0,0,0,0,0,0,0,0,0,0,0,0,0,0,0,0,0,0,12717,12718,0,0,0,0,0,0,0,0,0,295,296,297,0,0,0,0,0,0,0,0,0,0,0,0,0,0,0,0,0,0,0,0,0,0,0,0,0,0,0,0,0,0,
0,0,0,0,0,0,0,0,0,0,0,0,0,0,0,0,0,0,0,0,12717,12718,12771,12772,0,0,0,0,0,0,0,0,0,0,0,0,0,0,0,0,0,0,0,0,0,0,0,0,0,0,0,0,0,0,0,0,0,0,0,0,12717,12718,0,0,0,0,0,0,0,12771,12772,0,0,0,0,0,0,0,0,0,0,0,12717,12735,12736,0,0,0,0,0,0,0,0,0,0,0,0,0,0,0,0,0,0,0,0,0,12717,12717,12718,0,0,0,0,0,0,0,0,0,0,0,0,0,0,0,0,0,0,0,0,0,0,0,0,0,0,0,0,0,0,0,12717,12718,0,0,0,0,0,0,0,0,
0,0,0,0,0,0,0,0,0,0,0,0,0,0,0,0,0,0,0,0,12717,12718,12771,12772,0,0,0,0,0,0,0,12771,12772,0,0,0,0,0,0,0,0,0,0,0,0,0,0,0,0,0,0,0,0,0,0,0,0,0,0,0,12717,12718,0,0,0,0,0,0,0,12771,12772,0,0,0,0,0,0,0,0,0,0,0,12735,12736,0,0,0,0,0,0,0,0,0,0,0,0,0,0,0,0,0,0,0,0,0,0,12735,12735,12717,12718,0,0,0,0,0,0,0,0,0,0,0,0,0,0,0,0,0,0,0,0,12717,12717,12718,0,0,0,0,0,0,12717,12718,12718,0,0,0,0,0,0,0,0,
0,0,0,0,0,0,0,0,0,0,0,0,0,0,0,0,0,0,0,12717,12718,12736,12771,12772,0,0,0,0,0,0,0,0,12771,12772,0,0,0,0,0,0,0,0,0,0,0,0,0,0,0,0,0,0,0,0,0,0,0,0,0,0,12735,12736,0,0,0,0,0,0,0,12771,12772,0,0,0,0,0,0,0,0,0,0,0,12735,12736,0,0,0,0,0,0,0,0,0,0,0,0,0,0,0,0,0,0,0,0,0,0,0,0,12735,12736,0,0,0,0,0,0,0,0,0,0,0,0,0,0,0,0,0,0,12717,12717,12735,12735,12736,0,0,0,0,0,0,12735,12736,12736,0,0,0,0,0,0,0,0,
0,0,0,0,0,0,0,0,0,0,0,0,0,0,0,0,0,0,12717,12718,12718,12771,12772,0,0,0,0,0,0,0,0,0,0,0,0,0,0,0,0,12699,0,0,0,0,0,0,0,0,0,0,0,0,12717,12718,0,12771,12772,12772,0,0,0,0,0,0,0,0,0,0,0,12771,12772,0,0,0,0,0,0,0,0,0,0,0,0,0,0,0,0,0,0,0,0,0,0,0,0,0,0,0,0,0,0,0,0,0,0,0,0,0,0,0,0,0,0,0,0,0,0,0,0,0,0,0,0,0,0,0,0,0,12735,12735,12736,0,0,0,0,0,0,0,0,0,0,0,12717,12717,12718,0,0,0,0,0,
0,0,0,0,0,0,0,0,0,0,0,0,0,0,0,0,0,0,12717,12718,12736,12771,12772,0,0,0,0,0,0,0,0,0,0,0,0,0,0,0,0,0,0,0,0,0,0,0,0,0,0,0,12771,12772,12735,12736,0,0,12771,12772,0,0,0,0,0,0,0,0,0,0,0,12771,12772,0,0,0,0,0,0,0,0,0,0,0,0,0,0,0,0,0,0,0,0,0,0,0,0,0,0,0,0,0,0,0,0,0,0,0,0,0,0,0,0,0,0,0,0,0,0,0,0,0,0,0,0,0,0,0,0,0,12735,12736,0,0,0,0,0,0,0,0,0,0,0,0,12735,12717,12718,0,0,0,0,0,
0,0,0,0,0,0,0,0,0,0,0,0,0,0,0,0,0,0,12735,12736,0,12771,12772,0,0,0,0,0,0,0,0,0,0,0,0,0,0,0,0,0,0,0,0,0,0,0,0,0,12771,12772,12772,12735,12735,12736,0,0,0,0,0,0,0,0,0,0,0,0,0,0,0,12771,12772,0,0,0,0,0,0,0,0,0,0,0,0,0,0,0,0,0,0,0,0,0,0,0,0,0,0,0,0,0,0,0,0,0,0,0,0,0,0,0,0,0,0,12717,12717,12717,12717,12717,12718,0,0,0,0,0,0,0,0,0,0,0,0,0,0,0,0,0,0,0,0,0,0,0,0,12717,12718,0,0,0,0,0,
0,0,0,0,0,0,0,0,0,0,0,0,0,0,0,0,0,0,0,0,0,0,0,0,0,0,0,0,0,0,0,0,0,0,0,0,0,0,0,0,0,0,0,0,0,0,0,0,0,0,0,12735,12736,0,0,0,0,0,0,0,0,0,0,0,0,0,0,0,0,12771,12772,0,0,0,0,0,0,0,0,0,0,0,0,0,0,0,0,0,0,0,0,0,0,0,0,0,0,0,0,0,0,0,0,0,0,0,0,0,0,0,0,0,0,12735,12735,12735,12735,12735,12736,0,0,0,0,0,0,0,0,0,0,0,0,0,0,0,0,0,0,0,0,0,0,0,0,12735,12736,0,0,0,0,0,
0,0,0,0,0,0,0,0,0,0,0,0,0,0,0,0,0,0,0,0,0,0,0,0,0,0,0,0,0,0,0,0,0,0,0,0,12771,12772,0,0,0,0,0,0,0,0,0,0,0,0,0,0,0,0,0,0,0,0,0,0,0,0,0,0,0,12771,12771,12771,12771,12771,12771,12772,0,0,0,0,0,0,0,0,0,0,0,0,0,0,0,0,0,0,0,0,0,0,0,0,0,0,0,0,0,0,0,0,0,0,0,0,0,0,0,0,0,0,0,0,0,0,0,0,0,0,0,0,0,0,0,0,0,0,0,0,0,0,0,0,0,0,0,0,0,0,0,0,0,0,0,0,0,0,
0,0,0,0,0,0,0,0,0,0,0,0,0,0,0,0,0,0,0,0,0,0,0,0,0,0,0,0,0,0,0,0,0,0,0,0,12771,12772,0,0,0,0,0,0,0,0,0,0,0,0,0,0,0,0,0,0,0,0,0,0,0,0,12771,12771,12771,12772,0,0,0,0,12771,12772,0,0,0,0,0,0,0,0,0,0,0,0,0,0,0,0,0,0,0,0,0,0,0,0,0,0,0,0,0,0,0,0,0,0,0,0,0,0,0,0,0,0,0,0,0,0,0,0,0,0,0,0,0,0,0,0,0,0,0,0,0,0,0,0,0,0,0,0,0,0,0,0,0,0,0,0,0,0,
0,0,0,0,0,0,0,0,0,0,0,0,0,0,0,0,0,0,0,0,0,0,0,0,0,0,0,0,0,0,0,0,0,0,0,0,0,12771,12772,0,0,0,0,0,0,0,0,0,0,0,0,0,0,0,0,0,0,0,0,0,0,0,0,0,0,0,0,0,0,0,12771,12772,12772,0,0,0,0,0,0,0,0,0,0,0,0,0,0,0,0,0,0,0,0,0,0,0,0,235,236,237,0,0,0,0,0,0,0,0,0,0,0,0,0,0,0,0,0,0,0,0,0,0,0,0,0,0,0,0,0,0,0,0,0,0,0,0,0,0,0,0,0,0,0,0,0,0,0,0,0,0,
0,0,0,0,0,0,0,0,0,0,0,0,0,0,0,0,0,0,0,0,0,0,0,0,0,0,0,0,0,0,0,0,0,0,0,0,0,12771,12772,0,0,0,0,0,0,0,0,0,0,0,0,0,0,0,0,0,0,0,0,0,0,0,0,0,0,0,0,0,0,0,0,0,0,0,0,0,0,0,0,0,0,0,0,0,0,0,0,0,0,0,0,0,0,0,0,0,0,255,256,257,0,0,0,0,0,0,0,0,0,0,0,0,0,0,0,0,0,0,0,0,0,0,0,0,0,0,0,0,0,0,0,0,0,0,0,0,0,0,0,0,0,0,0,0,0,0,0,0,0,0,
0,0,0,0,0,0,0,0,0,0,0,0,0,0,12717,12718,0,0,0,0,0,0,0,0,0,0,0,0,0,0,0,0,0,0,0,0,0,0,12771,12772,0,0,0,0,0,0,0,0,0,0,0,0,0,0,0,0,0,0,0,0,0,0,0,0,0,0,0,0,0,0,0,0,0,0,0,0,0,0,0,0,0,0,0,0,0,0,0,0,0,0,0,0,0,0,0,0,0,275,276,277,0,0,0,0,0,0,0,0,0,0,0,0,0,0,0,0,0,0,0,0,0,0,0,0,0,0,0,0,12717,12718,0,0,0,0,0,0,0,0,0,0,0,0,0,0,0,0,0,0,0,0,
0,0,0,0,0,0,0,0,0,0,0,0,0,0,12735,12717,12718,0,0,0,0,0,0,0,0,0,0,0,0,0,0,0,0,0,0,0,0,0,0,12771,12772,0,0,0,12717,12718,0,0,0,0,0,0,0,0,0,0,0,0,0,0,0,0,0,0,0,0,0,0,0,0,0,0,0,0,0,0,0,0,0,0,0,0,0,0,0,0,12717,12718,0,0,0,0,0,0,0,0,0,295,296,297,0,0,0,0,0,0,0,0,0,0,0,0,0,0,0,0,0,0,0,0,0,12717,12718,12718,12718,12718,12718,12718,12718,12736,0,0,0,0,0,0,0,0,0,0,0,0,0,0,0,0,0,0,0,0,
0,0,0,0,0,0,0,0,0,0,0,0,0,0,0,12735,12736,0,0,0,0,0,0,0,0,0,0,0,0,0,0,0,0,0,0,0,0,0,0,12771,12772,0,0,0,12735,12736,0,0,0,0,0,0,0,0,0,0,0,0,0,0,0,0,0,12717,12717,12718,0,0,0,0,0,0,0,0,0,0,0,0,0,0,0,0,0,0,0,0,12735,12736,0,0,0,0,0,0,0,0,0,0,0,0,0,0,0,0,0,0,0,12717,12718,0,0,0,0,0,0,0,0,0,0,0,12717,12718,12736,12736,12736,12736,12736,12736,12736,0,0,0,0,0,0,0,0,0,0,0,0,0,0,0,12717,12718,0,0,0,0,
0,0,0,0,0,0,0,0,0,0,0,0,0,0,0,0,0,0,0,0,0,0,0,0,0,0,0,0,0,0,0,0,0,0,0,0,0,0,0,0,12771,12772,0,0,12735,12736,12718,0,0,0,0,0,0,0,0,0,0,0,0,0,0,0,0,12735,12735,12736,0,0,0,0,0,0,0,0,0,12771,12772,0,0,0,0,0,0,0,0,0,12735,12736,0,0,0,0,0,0,0,0,0,0,0,0,0,0,0,0,0,0,12717,12718,12718,0,0,0,0,0,0,0,0,0,0,0,12735,12736,0,0,0,0,0,0,0,0,0,0,0,12717,12718,0,0,0,0,0,0,0,0,0,12717,12718,0,0,0,0,
0,0,0,0,0,0,0,0,0,0,0,0,0,0,0,12717,12717,12718,0,0,0,0,0,0,0,0,0,0,0,0,0,0,0,0,0,0,0,0,0,0,12771,12772,0,0,0,12735,12736,0,0,0,0,0,0,0,0,0,0,0,0,0,0,0,0,0,0,0,0,0,0,0,0,0,0,0,0,12771,12772,0,0,0,0,0,0,0,0,12771,12772,0,0,0,0,0,0,0,0,0,0,0,0,0,0,0,0,0,0,12717,12718,12718,12736,0,0,0,0,0,0,0,0,0,0,0,0,0,0,0,0,0,0,0,0,0,0,0,0,12735,12736,12718,12718,0,0,0,0,0,0,0,12717,12718,0,0,0,0,
0,0,0,0,0,0,0,12717,12718,0,0,0,0,0,0,12735,12717,12717,12718,12771,12772,0,0,0,0,0,0,0,0,0,0,0,0,0,0,0,0,0,0,0,0,0,0,0,0,0,0,0,0,0,0,0,0,0,0,0,0,0,0,0,0,0,0,0,0,0,0,0,0,0,0,0,0,0,0,0,12771,12772,12772,12718,0,0,0,0,0,12771,12771,12772,0,0,0,0,0,0,0,0,0,0,0,0,0,0,0,0,0,12735,12736,12736,0,0,0,0,0,0,0,0,0,0,0,0,0,0,0,0,0,0,0,0,0,0,0,0,0,0,12735,12736,12736,0,0,0,0,0,0,0,12717,12717,12718,0,0,0,
0,0,0,0,0,0,0,12735,12736,0,0,0,0,0,0,0,12735,12735,12771,12772,12772,0,0,0,0,0,0,0,0,0,0,0,0,235,236,237,0,0,0,0,0,0,0,0,0,0,0,0,0,0,0,0,0,0,0,0,0,0,0,0,0,0,0,0,0,0,0,0,0,0,0,0,0,0,0,0,0,0,12771,12772,12772,0,0,0,0,0,12771,12772,0,0,0,0,0,0,0,0,0,0,0,0,0,0,0,0,0,0,0,0,0,0,0,0,0,0,0,0,0,0,0,0,0,0,0,0,0,0,0,0,0,0,0,0,0,0,0,12735,12736,12718,0,0,0,0,0,0,12735,12717,12718,0,0,0,
0,0,0,0,0,0,0,12735,12736,0,0,0,0,0,0,0,0,0,12771,12772,0,0,0,0,0,0,0,0,0,0,0,0,0,255,256,257,0,0,0,0,0,0,0,0,0,0,0,0,12717,12718,0,0,0,0,12771,12772,0,0,0,0,0,0,0,0,0,0,0,0,0,0,0,0,0,0,0,0,0,0,12735,12771,12772,12772,0,0,0,0,12771,12772,0,0,0,0,0,0,0,0,0,0,0,0,0,0,0,0,0,0,0,0,0,0,0,0,0,0,0,0,0,0,0,0,0,0,0,0,0,0,0,0,0,0,0,0,0,0,0,0,12735,12736,0,0,0,0,0,0,0,12735,12736,0,0,0,
0,0,0,0,0,0,0,12735,12736,0,0,0,0,0,0,0,0,0,0,0,0,0,0,0,0,0,0,0,0,0,0,0,0,275,276,277,0,0,0,0,0,0,0,0,0,0,0,0,12735,12736,0,0,0,0,12771,12772,0,0,0,0,0,0,0,0,0,0,0,0,0,0,0,0,0,0,0,0,0,0,0,0,0,12771,12772,0,0,0,12771,12772,0,0,0,0,0,0,0,0,0,0,12717,12718,12718,12718,12718,12718,12718,0,0,0,0,0,0,0,0,0,0,0,0,0,0,0,0,0,0,0,0,0,0,0,0,0,0,0,0,0,0,0,12735,12736,0,0,0,0,0,0,0,0,0,0,0,0,
0,0,0,0,0,0,0,12735,12736,0,0,0,0,0,0,0,0,0,0,0,0,0,0,0,0,0,0,0,0,0,0,0,0,295,296,297,0,0,0,0,0,0,0,0,0,0,0,0,12735,12736,12718,0,0,0,12771,12772,0,0,0,0,0,0,0,0,0,0,0,0,0,0,0,0,0,0,0,0,0,0,0,0,0,0,12771,12772,0,0,12771,12771,12772,0,0,0,0,0,0,0,0,0,12735,12736,12736,12736,12736,12736,12736,0,0,0,0,0,0,0,0,0,0,0,0,0,0,0,0,0,0,0,0,0,0,0,0,0,0,0,0,0,0,0,0,0,0,0,0,0,0,0,0,0,0,0,0,0,
0,0,0,0,0,0,0,12735,12736,0,0,0,0,0,0,0,0,0,0,0,0,0,0,12717,12718,0,0,0,0,0,0,0,0,0,0,0,0,0,0,0,0,0,0,0,0,0,0,0,0,12735,12736,12718,0,0,0,0,0,0,0,0,0,0,0,0,0,0,0,0,0,0,0,0,0,0,0,0,0,0,0,0,0,0,0,0,0,0,0,12771,12772,0,0,0,0,0,0,0,0,0,0,0,0,0,0,0,0,0,0,0,0,0,0,0,0,0,0,0,0,0,0,0,0,0,0,0,0,0,0,0,0,0,0,0,0,0,0,0,0,0,0,0,0,0,0,0,0,0,0,0,0,0,
0,0,0,0,0,0,0,12735,12736,0,0,0,0,0,0,0,0,0,0,0,0,0,0,12735,12717,12718,0,0,0,0,0,0,0,0,0,0,0,0,0,0,0,0,0,0,0,0,0,0,0,0,12735,12736,12718,0,0,0,0,0,0,0,12771,12772,0,0,0,0,0,0,0,0,0,0,0,0,0,0,0,0,0,0,0,0,0,0,0,0,0,12771,12772,0,0,0,0,0,0,0,0,0,0,0,0,0,0,0,0,0,0,0,0,0,0,0,0,0,0,0,0,0,0,0,0,0,0,0,0,0,0,0,0,0,0,0,0,0,0,0,0,0,0,0,0,0,0,0,0,0,0,0,0,0,
0,0,0,0,0,0,0,0,0,0,0,0,12771,12772,12772,0,0,0,0,0,0,0,0,0,12735,12736,0,0,0,0,0,0,0,0,0,0,0,0,0,0,12771,12772,0,0,0,0,0,0,0,0,12735,12736,12736,12718,0,0,0,0,0,0,0,12771,12772,0,0,0,0,0,0,0,0,0,0,0,0,0,0,0,0,0,0,0,0,0,0,0,0,12771,12772,12717,12718,0,0,0,0,0,0,0,0,0,0,0,0,0,0,0,0,0,0,0,0,0,0,0,0,0,0,0,0,0,0,0,0,0,0,0,0,0,0,0,0,0,0,0,0,0,0,0,0,0,0,0,0,0,0,0,0,0,0,0,
0,0,0,0,0,0,0,0,0,0,0,0,12771,12772,0,0,0,0,0,0,0,0,0,0,0,0,0,0,0,0,0,0,0,0,0,0,0,0,0,0,12771,12772,0,0,0,0,0,0,0,0,0,12735,12736,12736,0,0,0,0,0,0,0,12771,12772,0,0,0,0,0,0,0,0,0,0,0,0,0,0,0,0,0,0,0,0,0,0,0,0,0,0,12717,12718,0,0,0,0,0,0,0,0,0,0,0,0,0,0,0,0,0,0,0,0,0,0,0,0,0,0,0,0,0,0,0,0,0,0,0,0,0,0,0,0,0,0,0,0,0,0,0,0,0,0,0,0,0,0,0,0,0,0,0,
0,0,0,0,0,0,0,0,0,0,0,12771,12772,12772,0,0,0,0,0,0,0,0,0,0,0,0,0,0,0,0,0,0,0,0,0,0,0,0,0,0,12771,12772,0,0,0,0,0,0,0,0,0,0,12735,12736,0,0,0,0,0,0,0,12771,12772,0,0,0,0,0,0,0,0,0,0,0,0,0,0,0,0,0,0,0,0,0,0,0,0,0,0,12735,12736,0,0,0,0,0,0,0,0,0,0,0,0,0,0,0,0,0,0,0,0,0,0,0,0,0,0,0,0,0,0,0,0,0,0,0,0,0,0,0,0,0,0,0,0,0,0,0,0,0,0,0,0,0,0,0,0,0,0,0,
0,0,0,0,0,0,0,0,0,0,12771,12772,12772,0,0,0,0,0,0,0,0,0,0,0,0,12717,12718,0,0,0,0,0,0,0,0,0,0,0,0,0,12771,12772,12772,0,0,0,0,0,0,0,0,0,12735,12736,0,0,0,0,0,0,0,12771,12772,0,0,0,0,0,235,236,237,0,0,0,0,0,0,0,0,0,0,0,0,0,0,0,0,0,0,0,0,0,0,0,12771,12772,0,0,0,0,0,0,0,0,0,0,0,0,0,0,0,0,0,0,0,0,0,0,0,0,0,0,0,0,0,0,0,0,0,0,0,0,0,0,0,0,0,0,0,0,0,0,0,0,0,0,0,0,0,0,
0,0,0,0,0,0,0,0,0,0,0,0,0,0,0,0,0,0,0,0,0,0,0,0,0,12717,12718,0,0,0,0,0,0,0,0,0,0,0,0,0,0,0,0,0,0,0,0,0,0,0,0,0,0,0,0,0,0,0,0,0,0,12771,12772,0,0,0,0,0,255,256,257,0,0,0,0,0,0,0,0,0,0,0,0,0,0,0,0,0,0,0,0,0,0,0,0,12771,12772,0,0,0,0,0,0,0,0,0,0,0,0,0,0,0,0,0,0,0,0,0,0,0,0,0,0,0,0,0,0,0,0,0,0,0,0,0,0,0,0,0,0,0,0,0,0,0,0,0,0,0,0,0,
0,0,0,0,0,0,0,0,0,0,0,0,0,0,0,0,235,236,237,0,0,0,0,0,0,12735,12736,0,0,0,0,0,0,0,0,0,0,0,0,0,0,0,0,0,0,0,0,0,0,0,0,0,0,0,0,0,0,0,0,0,0,12771,12772,12772,0,0,0,0,275,276,277,0,0,0,0,0,0,0,0,0,0,0,0,0,0,0,0,0,0,0,0,0,0,0,0,12771,12772,12772,0,0,0,0,0,0,0,0,0,0,0,0,0,0,0,0,0,0,0,0,0,0,0,0,0,0,0,0,0,0,0,0,0,0,0,0,0,0,0,0,0,0,0,0,0,0,0,0,0,0,0,12717,
0,0,0,0,0,0,0,0,0,0,0,0,0,0,0,0,255,256,257,0,0,0,0,0,0,0,0,0,0,0,0,0,0,0,0,0,0,0,0,0,0,0,0,0,0,0,0,0,0,0,0,0,0,0,0,0,0,0,0,0,0,0,12771,12772,0,0,0,0,295,296,297,0,0,0,0,0,0,0,0,0,0,0,0,0,0,0,0,0,0,0,0,0,0,0,0,0,0,0,0,0,0,0,0,0,0,0,0,0,0,0,0,0,0,0,0,0,0,0,0,0,0,0,0,0,0,0,0,0,0,0,0,0,0,0,0,0,0,0,0,0,0,0,0,0,0,0,0,0,0,12717,
0,0,0,0,0,0,0,0,12771,12772,0,0,0,0,0,0,275,276,277,0,0,0,0,0,0,0,0,0,0,0,0,0,0,0,0,0,0,0,0,0,0,0,0,0,12771,12772,0,0,0,0,0,0,0,0,0,0,0,0,0,0,12771,12772,12771,12772,0,0,0,0,0,0,0,0,0,0,0,0,0,0,0,0,0,0,0,0,0,0,0,0,0,0,0,0,0,0,0,0,0,0,0,0,0,0,0,0,0,0,0,0,0,0,0,0,0,0,0,0,0,0,0,0,0,0,0,0,0,0,0,0,0,0,0,0,0,0,0,0,0,0,0,0,0,0,0,0,0,0,0,0,0,12717,
0,0,0,0,0,0,0,0,12771,12771,12772,0,0,0,0,0,295,296,297,0,0,0,0,0,0,0,0,0,0,0,0,0,0,0,0,0,0,0,0,0,0,0,12771,12772,12771,12771,12771,12771,12772,0,0,0,0,0,0,0,0,0,0,0,12771,12772,12771,12772,0,0,0,0,0,0,0,0,0,0,0,0,0,0,0,0,0,0,0,0,0,0,0,0,0,0,0,0,0,0,0,0,0,0,0,0,0,0,0,0,0,0,0,0,0,0,0,0,0,0,0,0,0,235,236,237,0,0,0,0,0,0,0,0,0,0,0,0,0,0,0,0,0,0,0,0,0,0,0,0,0,0,0,0,0,12717,
0,0,0,0,0,0,0,0,0,0,0,0,0,0,0,0,0,0,0,0,0,0,0,0,0,0,0,0,0,0,0,0,0,12717,12718,0,0,0,0,0,0,0,0,12771,12772,0,0,0,12771,12771,12771,12771,12772,0,0,0,0,0,0,0,12771,12771,12772,0,0,0,0,0,0,0,0,0,0,0,0,0,0,0,0,0,0,0,0,0,0,0,0,0,0,0,0,0,0,0,0,0,0,0,0,0,0,0,12717,12718,0,0,0,12771,12772,12772,0,0,0,0,0,0,0,255,256,257,0,0,0,0,0,0,0,0,0,0,0,0,0,0,0,0,0,0,0,12717,12718,0,0,0,0,0,0,0,0,12735,
0,0,0,0,0,0,0,0,0,0,0,0,0,0,0,0,0,0,0,0,0,0,0,0,0,0,0,0,0,0,0,0,0,12735,12736,0,0,0,0,0,0,0,0,12771,12772,0,0,0,0,0,0,0,12771,12772,0,0,0,0,0,0,12717,12718,12718,0,0,0,0,0,0,0,0,0,0,0,0,0,0,0,0,0,0,0,0,0,0,0,0,0,0,0,0,0,0,0,0,0,0,0,0,0,0,0,12717,12717,12718,0,0,0,0,12771,12772,0,0,0,0,0,0,275,276,277,0,0,0,0,0,0,0,0,0,0,0,0,0,0,0,0,0,0,0,12735,12736,0,0,0,0,0,0,0,0,0,
0,0,0,0,0,0,0,0,0,0,0,0,0,0,0,0,0,0,0,0,0,0,0,0,0,0,0,0,0,0,0,0,0,0,0,0,0,0,0,0,0,0,0,12771,12772,12772,0,0,0,0,0,0,0,0,0,0,0,0,0,0,12735,12736,12736,0,0,0,0,0,0,0,0,0,0,0,0,0,0,0,0,0,0,0,0,0,0,0,0,0,0,0,0,0,0,0,0,0,0,0,0,0,0,0,12735,12735,12736,0,0,0,0,0,0,0,0,0,0,0,0,295,296,297,0,0,0,0,0,0,0,0,0,0,0,0,0,0,0,0,0,0,12717,12735,12736,0,0,0,0,0,0,0,0,0,
0,0,0,0,0,0,0,0,12717,12718,0,0,0,0,0,0,0,0,0,0,0,0,0,0,0,0,0,0,0,0,0,0,0,0,0,0,0,0,0,0,0,0,0,0,12771,12772,0,0,0,0,0,0,0,0,0,0,0,0,0,0,0,12735,12736,0,0,0,0,0,0,0,0,0,0,0,0,0,0,0,0,0,0,0,0,0,0,12717,12718,12718,12718,0,0,0,0,0,0,0,0,0,0,0,0,0,0,0,0,0,0,0,0,0,0,0,0,0,0,0,0,0,0,0,0,0,0,0,0,0,0,0,0,0,0,0,0,0,0,0,0,0,12735,12736,0,0,0,0,0,0,0,0,0,0,
0,0,0,0,0,0,0,0,12735,12736,0,0,0,0,0,0,0,0,0,12771,12772,0,0,0,0,0,0,0,12717,12718,0,0,0,0,0,0,0,12771,12772,0,0,0,0,0,12771,12772,0,0,0,0,0,0,0,0,0,0,0,0,0,0,0,0,0,0,0,0,0,0,0,0,0,0,12717,12718,0,0,0,0,0,0,0,0,0,0,0,12735,12736,12736,12736,0,0,0,0,0,0,0,0,0,0,0,0,0,0,0,0,0,0,0,0,0,0,0,0,0,0,0,0,0,0,0,0,0,0,0,0,0,0,0,0,0,0,0,0,0,0,0,0,0,12735,12736,0,0,0,0,0,0,0,12717,12718,0,
0,0,0,0,0,0,0,0,12735,12736,0,0,0,0,0,0,0,0,0,12771,12771,12771,12772,0,0,0,0,0,12717,12718,0,0,0,0,0,0,12771,12772,0,0,0,0,0,0,0,0,0,0,0,0,0,0,0,0,0,0,0,0,0,0,0,0,0,0,0,0,0,0,0,0,0,0,12717,12718,0,0,0,0,0,0,0,0,0,0,0,0,0,0,0,0,0,12771,12772,0,12717,12718,0,0,0,0,0,0,0,0,0,0,0,0,0,0,0,0,0,0,0,0,0,0,0,0,0,0,0,0,0,0,0,0,0,0,0,0,12717,12718,0,0,0,0,0,0,0,0,0,0,0,0,0,12717,12718,0,
0,0,0,0,0,0,0,0,12735,12736,0,0,0,0,0,0,0,0,0,0,0,12771,12771,12771,12772,0,0,12717,12718,12718,0,0,0,0,0,0,12771,12772,0,0,0,0,0,0,0,0,0,0,0,0,0,0,0,0,0,0,12717,12717,12718,0,0,0,0,0,0,0,0,0,0,0,0,0,12735,12736,0,0,0,0,0,0,0,0,0,0,0,0,0,0,0,0,0,12771,12772,0,12735,12736,0,0,0,0,0,0,0,0,0,0,0,0,0,0,0,0,0,0,0,0,0,0,0,0,0,0,0,0,0,0,0,0,0,0,12717,12717,12735,12736,0,0,0,0,0,0,0,0,0,0,0,0,0,12717,12718,0,
0,0,0,0,0,0,0,0,12735,12736,0,0,0,0,0,0,0,0,0,0,0,0,0,12771,12771,12771,12772,12735,12736,12736,0,0,0,0,0,12771,12772,0,0,0,0,0,0,0,0,0,0,0,0,0,0,0,0,0,0,12771,12772,12735,12736,0,0,0,0,0,0,0,0,0,0,0,0,0,0,0,0,0,0,0,0,0,0,0,0,0,0,0,0,0,0,0,0,12771,12772,12717,12735,12736,0,0,0,0,0,0,0,0,0,0,0,0,0,0,0,0,0,0,0,0,0,0,0,0,0,0,0,0,0,0,0,0,12717,12717,12735,12735,12736,0,0,0,0,0,0,0,0,0,0,0,0,12717,12718,12718,12736,0,
0,0,0,0,0,0,0,0,0,0,0,0,0,0,0,12717,12718,12718,12718,12718,12718,12718,0,0,0,0,12771,12772,0,0,0,0,0,0,0,12771,12772,0,0,0,0,0,0,0,0,0,0,0,0,0,0,0,0,0,0,12771,12772,12736,0,0,0,0,0,0,0,0,0,0,0,0,0,0,0,0,0,0,0,0,0,0,0,0,0,0,0,0,0,0,0,0,0,0,0,12735,12736,0,0,0,0,0,0,0,0,0,0,0,0,0,0,0,0,0,0,0,0,0,0,0,0,0,0,0,0,0,0,0,0,12717,12735,12735,12736,0,0,0,0,0,0,0,0,0,0,0,0,12717,12718,12718,12736,12736,0,0,
0,0,0,0,0,0,0,0,0,0,0,0,0,0,0,12735,12736,12736,12736,12736,12736,12736,0,0,0,0,0,0,0,0,0,0,0,0,12771,12772,0,0,0,0,0,0,0,0,0,0,0,0,0,0,0,0,0,0,12771,12772,0,0,0,0,0,0,0,0,0,0,0,0,0,0,0,0,0,0,0,0,0,0,0,0,0,0,0,0,0,0,0,0,0,0,0,0,0,12735,12736,0,0,0,0,0,0,0,0,0,12717,12718,12718,0,0,0,0,0,0,0,0,0,0,0,0,0,0,0,0,0,0,12717,12717,12735,12736,0,0,0,0,0,0,0,0,0,0,0,0,0,0,12735,12736,12736,0,0,0,0,
0,0,0,0,0,0,0,0,0,0,0,0,0,0,0,0,0,0,0,0,0,0,0,0,0,0,0,0,0,0,0,0,0,0,12771,12772,0,0,0,0,0,0,235,236,237,0,0,0,0,0,0,0,0,12771,12772,12772,0,0,0,0,0,0,0,0,0,0,0,0,0,12717,12718,0,0,0,0,0,0,0,0,0,0,0,0,0,0,0,0,0,0,0,0,0,12717,12735,12736,0,0,0,0,0,0,0,0,0,12717,12718,12736,0,0,0,0,0,0,0,0,0,0,0,0,0,0,0,0,12717,12717,12735,12735,12736,0,0,0,0,0,0,0,0,0,0,0,0,0,0,0,0,0,0,0,0,0,0,
0,0,0,0,0,0,0,0,0,0,0,0,0,0,0,0,0,0,0,0,0,0,0,0,0,0,0,0,0,0,0,0,0,0,12771,12772,0,0,0,0,0,0,255,256,257,0,0,0,0,0,0,0,0,0,0,0,0,0,0,0,0,0,0,0,0,0,0,0,0,12717,12717,12717,12717,12718,0,0,0,0,0,0,0,0,0,0,0,0,0,0,0,0,0,0,12735,12735,12736,0,0,0,0,0,0,0,0,0,12717,12718,0,0,0,0,0,0,0,12771,12772,0,0,0,0,0,0,0,0,12735,12735,12736,0,0,0,0,0,0,0,0,0,0,0,0,0,12717,12718,0,0,0,0,0,0,0,0,0,
0,0,0,0,0,0,0,0,0,0,0,0,0,0,0,0,0,0,0,0,0,0,0,0,0,0,0,0,0,0,0,0,0,0,0,0,0,0,0,0,0,0,275,276,277,0,0,0,0,0,0,0,0,0,0,0,0,0,0,0,0,0,0,235,236,237,0,0,0,12735,12735,12735,12735,12736,0,0,0,0,0,0,0,0,0,0,0,0,0,0,0,0,0,0,0,0,0,0,0,0,0,0,0,0,0,0,12735,12736,0,0,0,0,0,0,0,0,0,0,0,0,0,0,0,0,0,12735,12736,0,0,0,0,0,0,0,0,0,0,0,0,0,12717,12718,12718,0,0,0,0,0,0,0,0,0,
0,0,0,0,0,12717,12717,12718,0,0,0,0,0,0,0,0,0,0,0,0,0,0,0,0,0,0,0,0,0,0,0,0,0,0,0,0,0,0,0,0,0,0,295,296,297,0,0,0,0,0,0,0,0,0,0,0,0,0,0,0,0,0,0,255,256,257,0,0,0,0,0,0,0,0,0,0,0,0,0,0,0,0,0,0,0,0,0,0,0,0,0,0,0,0,0,0,0,0,0,0,0,0,0,0,0,0,0,0,0,0,0,0,0,0,0,0,0,0,0,0,0,0,0,0,0,0,0,0,0,0,0,0,0,0,0,0,0,0,12717,12718,12736,0,0,0,0,0,0,0,0,0,
0,0,0,0,0,12735,12735,12736,0,0,0,0,0,0,0,0,0,0,0,0,0,0,0,0,0,0,0,0,0,0,0,12771,12772,0,0,0,0,0,0,0,0,0,0,0,0,0,0,0,0,0,0,0,0,0,0,0,0,0,0,0,0,0,0,275,276,277,0,0,0,0,0,0,0,0,0,0,0,0,0,0,0,0,12717,12718,0,0,0,0,0,0,0,0,0,0,0,0,0,0,0,0,0,0,0,0,0,0,0,0,0,0,0,0,0,0,0,0,0,0,0,0,0,0,0,0,0,0,0,0,0,0,0,0,0,0,0,0,0,0,12717,12718,0,0,0,0,0,0,0,0,0,0,
0,0,0,0,0,0,0,0,0,0,0,0,0,0,0,0,0,0,0,0,0,0,0,0,0,0,0,0,0,0,0,12771,12772,0,0,0,0,0,0,0,0,0,0,0,0,0,0,0,0,0,0,0,0,0,0,0,0,0,0,0,0,0,0,295,296,297,0,0,0,0,0,0,0,0,0,0,0,0,0,0,0,0,12717,12717,12718,0,0,0,0,0,0,0,0,0,0,0,0,0,0,0,0,0,0,0,0,0,0,0,0,0,0,0,0,0,0,0,0,0,0,0,0,0,0,12717,12718,12718,0,0,0,0,0,0,0,0,0,0,0,0,12735,12736,0,0,0,0,0,0,0,0,0,0,
0,0,0,0,0,0,0,0,0,0,0,0,0,0,0,0,0,0,0,0,0,0,0,0,0,0,0,0,0,0,0,0,0,0,0,0,0,0,0,0,0,0,0,0,0,0,0,0,0,0,0,0,0,0,0,0,0,0,0,0,0,0,0,0,0,0,0,0,0,0,0,0,0,0,0,0,0,0,0,0,0,0,12735,12717,12718,0,0,0,0,0,0,0,0,0,0,0,0,0,0,0,0,0,0,0,0,0,0,0,0,0,0,0,0,0,0,0,0,0,0,0,0,0,0,12735,12736,12736,12718,12718,0,0,0,0,0,0,0,0,0,0,12717,12718,0,0,0,0,0,0,0,0,0,0,
0,0,0,0,0,0,0,0,0,0,0,0,0,0,0,0,0,0,0,0,0,0,0,0,0,0,0,0,0,0,0,0,0,0,0,0,0,0,0,0,0,0,0,0,0,0,0,0,0,0,0,0,0,0,0,0,0,0,12717,12718,0,0,0,0,0,0,0,0,0,0,0,0,0,0,0,0,0,0,0,0,0,0,0,12717,12718,0,0,0,0,0,0,0,0,0,0,0,0,0,0,0,0,0,0,0,0,0,0,0,0,0,0,0,0,0,0,0,0,0,0,0,0,0,0,0,12735,12736,12736,12736,12718,0,0,0,0,0,0,0,0,0,12735,12736,0,0,0,0,0,0,0,0,0,0,
0,0,0,0,0,0,0,0,0,0,0,0,0,0,0,0,0,0,0,0,0,0,0,0,0,0,0,0,0,0,0,0,0,0,0,0,0,0,0,0,0,0,0,0,0,0,0,0,0,0,0,0,0,0,0,0,0,0,12735,12736,0,0,0,0,0,0,0,0,0,0,0,0,0,0,0,0,0,0,0,0,0,0,0,12735,12736,0,0,0,0,0,0,0,0,0,0,0,0,0,0,0,0,0,0,0,0,0,0,0,0,0,0,0,0,0,0,0,0,0,0,0,0,0,0,0,0,0,0,12735,12736,12718,0,0,0,0,0,0,0,0,0,0,0,0,0,0,0,0,0,0,0,0,
0,0,0,0,0,0,0,0,0,0,0,0,0,0,0,0,0,0,0,0,0,0,0,0,0,0,0,0,0,0,0,0,0,0,0,0,0,0,0,0,0,0,0,0,0,0,0,0,0,0,0,0,0,0,0,0,0,0,12735,12736,12718,0,0,0,0,0,0,0,0,0,0,0,0,0,0,0,0,0,0,0,0,0,0,0,0,0,0,0,0,0,0,0,0,0,0,0,0,0,0,0,0,0,0,0,0,0,0,0,0,0,0,0,0,0,0,0,0,0,0,0,0,0,0,0,0,0,0,0,12735,12736,0,0,0,0,0,0,0,0,0,0,0,0,0,0,0,0,0,0,0,0,
0,0,0,0,0,0,0,0,0,0,0,0,0,0,0,0,0,0,0,0,0,0,0,0,0,0,0,0,0,0,0,0,0,0,0,0,0,0,0,0,0,0,0,0,0,0,0,0,0,0,0,0,0,0,0,0,0,0,12735,12736,12736,0,0,0,0,0,0,0,0,0,0,0,0,0,0,0,0,0,0,0,0,0,0,0,0,0,0,0,0,0,0,0,0,0,0,0,235,236,237,0,0,0,0,0,12717,12717,12717,12717,12718,0,0,0,0,0,0,0,0,0,0,0,0,0,0,0,0,0,0,0,0,0,0,0,0,0,0,0,0,0,0,0,0,0,0,0,0,0,0,0,0,0,
0,0,0,0,0,0,0,0,0,0,0,0,0,0,0,0,235,236,237,0,0,0,0,0,0,0,0,0,0,0,0,0,0,0,0,0,0,0,0,0,0,0,0,0,0,0,0,0,0,0,0,0,0,0,0,0,0,0,0,12735,12736,0,0,0,0,0,0,0,0,0,0,0,0,0,0,0,0,0,0,0,0,0,0,0,0,0,0,0,0,0,0,0,0,0,0,0,255,256,257,0,0,0,0,0,12735,12735,12735,12735,12736,0,0,0,0,0,0,0,0,0,0,0,0,0,0,0,0,0,0,0,0,0,0,0,0,0,0,0,0,0,0,0,0,0,0,0,0,0,0,0,0,0,
0,0,0,0,0,0,0,0,0,0,0,0,0,0,0,0,255,256,257,0,0,0,0,0,0,0,0,0,0,0,0,12717,12718,0,0,0,0,0,0,0,0,0,0,0,0,0,0,0,0,0,0,0,0,0,0,0,0,0,0,0,0,0,0,0,0,0,0,0,0,0,0,0,0,0,0,0,0,0,0,0,0,0,0,0,0,0,0,0,0,0,12717,12718,0,0,0,0,275,276,277,0,0,0,0,0,0,0,0,0,0,0,0,0,0,0,0,0,12717,12718,0,0,0,0,0,0,0,0,0,0,0,0,0,0,0,0,0,0,0,0,0,0,0,0,0,0,0,0,0,0,0,0,
0,0,0,0,0,0,0,0,0,0,0,0,0,0,0,0,275,276,277,0,0,0,0,0,0,0,0,0,0,0,0,12717,12717,12718,0,0,0,0,0,0,0,0,0,0,0,0,0,0,0,0,0,0,0,0,0,0,0,0,0,0,0,0,0,0,0,0,0,0,0,0,0,0,0,0,0,0,0,0,0,0,12717,12718,12718,0,0,0,0,0,0,0,12735,12736,0,0,0,0,295,296,297,0,0,0,0,0,0,0,0,0,0,0,0,0,0,0,0,0,12717,12717,12717,12718,0,0,0,0,0,0,0,0,0,0,0,0,0,0,0,0,0,0,0,0,0,0,0,0,0,0,0,0,0,0,
0,0,0,0,0,0,0,0,0,0,0,0,0,0,0,0,295,296,297,0,0,0,0,0,0,0,0,0,0,0,0,12735,12717,12718,0,0,0,0,0,0,0,0,0,0,0,0,0,0,0,0,0,0,0,0,0,0,0,0,0,0,0,0,0,0,0,0,0,0,0,0,0,0,0,0,0,0,12717,12718,0,0,12735,12736,12736,0,0,0,0,0,0,0,12735,12736,0,0,0,0,0,0,0,0,0,0,0,0,0,0,0,0,0,0,0,0,0,0,0,0,12735,12735,12735,12736,0,0,0,0,0,0,0,0,0,0,0,0,0,0,0,0,0,0,0,0,12717,12718,0,0,0,0,0,0,0,0,
0,0,0,0,0,0,0,0,0,0,0,0,0,0,0,0,0,0,0,0,0,0,0,0,0,0,0,0,0,0,0,0,12735,12717,12717,12718,0,0,0,0,0,0,0,0,0,0,0,0,0,0,0,0,0,0,0,0,0,0,0,0,0,0,0,0,0,0,0,0,0,0,0,0,0,0,0,0,12735,12717,12717,12717,12717,12718,0,0,0,0,0,0,0,0,12735,12736,0,0,0,0,0,0,0,0,0,0,0,0,0,0,0,0,0,0,0,0,0,0,0,0,0,0,0,0,0,0,0,0,0,0,0,0,0,0,0,0,0,0,0,0,0,0,0,0,12735,12736,0,0,0,0,0,0,0,0,
0,0,0,0,0,0,0,0,0,0,0,0,0,0,0,0,0,0,0,0,0,0,0,0,0,0,0,0,0,0,0,0,0,12735,12735,12736,0,0,0,0,0,0,0,0,0,0,0,0,0,0,0,0,0,0,0,0,0,0,0,0,0,0,0,12717,12718,0,0,0,0,0,0,0,0,0,0,0,0,12735,12735,12735,12735,12736,0,0,0,0,0,0,0,0,12735,12736,0,0,0,0,0,0,0,0,0,0,0,0,0,0,0,0,0,0,0,0,0,0,0,0,0,0,0,0,0,0,0,0,0,0,0,0,0,0,0,0,0,0,0,0,0,0,0,0,0,0,0,0,0,0,0,0,0,0,
0,0,0,0,0,0,0,0,0,0,0,0,0,0,0,0,0,0,0,0,0,0,0,0,0,0,0,0,0,0,0,0,0,0,0,0,0,0,0,0,0,0,0,0,0,0,0,0,0,0,0,0,0,0,0,0,0,0,0,0,0,0,0,12735,12736,0,0,0,0,0,0,0,0,0,0,0,0,0,0,0,0,0,0,0,0,0,0,0,0,0,0,0,0,0,0,0,0,0,0,0,0,0,0,0,0,0,0,0,0,0,0,0,0,0,0,0,0,0,0,0,0,0,0,0,0,0,0,0,0,0,0,0,0,0,0,0,0,0,0,0,0,0,0,0,0,0,0,0,0,0,
0,0,0,0,0,0,0,0,0,0,0,0,0,0,0,0,0,0,0,0,0,0,0,0,0,0,0,0,0,0,0,0,0,0,0,0,0,0,0,0,0,0,0,0,0,0,0,0,0,0,0,0,0,0,0,0,0,0,0,0,0,0,0,12735,12736,0,0,0,0,0,0,0,0,0,0,0,0,0,0,0,0,0,0,0,0,0,0,0,0,0,0,0,0,0,0,0,0,0,0,0,0,0,0,0,0,0,0,0,0,0,0,0,0,0,0,0,0,0,0,0,0,0,0,0,0,0,0,0,0,0,0,0,0,0,0,0,0,0,0,0,0,0,0,0,0,0,0,0,0,0,
0,0,0,0,0,0,0,0,0,0,0,0,0,0,0,0,0,0,0,0,0,0,0,0,0,0,0,0,0,0,0,0,0,0,0,0,0,0,0,0,0,0,0,0,0,0,0,0,0,0,0,0,0,0,0,0,0,0,0,0,0,0,0,0,0,0,0,0,0,0,0,0,0,0,0,0,0,0,0,0,0,0,0,0,0,0,0,0,0,0,0,0,0,0,0,0,0,0,0,0,0,0,0,0,0,0,0,0,0,0,0,0,0,0,0,0,0,0,0,0,0,0,0,0,0,0,0,0,0,0,0,0,0,0,0,0,0,0,0,0,0,0,0,0,0,0,0,0,0,0,
0,0,0,0,0,0,0,0,0,0,0,0,0,0,0,0,0,0,0,0,0,0,0,0,0,0,0,0,0,0,0,0,0,0,0,0,0,0,0,0,0,0,0,0,12717,12717,12718,0,0,0,0,0,0,0,0,0,0,0,0,0,0,0,0,0,0,0,0,0,0,0,0,0,0,0,0,0,0,0,0,0,0,0,0,0,0,0,0,0,0,0,0,0,0,0,0,0,0,0,0,0,0,0,0,0,0,0,0,0,0,0,0,0,0,0,0,0,0,0,0,0,0,0,0,0,0,0,0,0,0,0,0,0,0,0,0,0,0,0,0,0,0,0,0,0,0,0,0,0,0,0
</data>
 </layer>
</map>
