<?xml version="1.0" encoding="UTF-8"?>
<map version="1.10" tiledversion="1.12.1" orientation="orthogonal" renderorder="right-down" width="125" height="90" tilewidth="16" tileheight="16" infinite="0" nextlayerid="2" nextobjectid="1">
 <tileset firstgid="1" name="terrain" tilewidth="32" tileheight="32" tilecount="9472" columns="64">
  <image source="terrain.png" width="2060" height="4760"/>
 </tileset>
 <tileset firstgid="9473" name="terrain" tilewidth="32" tileheight="32" tilecount="9472" columns="64">
  <image source="terrain.png" width="2060" height="4760"/>
 </tileset>
 <layer id="1" name="Tile Layer 1" width="125" height="90">
  <data encoding="csv">
0,0,0,0,0,0,0,0,0,0,0,0,0,0,0,0,0,0,0,0,0,0,0,0,0,0,0,0,0,0,0,0,0,0,0,16592,16592,16592,16592,16592,16592,16592,16592,16592,11907,11907,16592,3023,3023,3023,3023,3023,3023,3023,3023,3023,3023,3023,3023,3023,16592,16592,16592,16592,16592,16592,16592,16592,16592,16592,16592,16592,16592,16592,16592,16592,16592,16592,16592,16592,16592,16592,16592,16592,16592,16592,16592,16592,16592,16592,16592,0,0,0,0,0,0,0,0,0,0,0,0,0,0,0,0,0,0,0,0,0,0,0,0,0,0,0,0,0,0,0,0,0,0,
0,0,0,0,0,0,0,0,0,0,0,0,0,0,0,0,0,0,0,0,0,0,0,0,0,0,0,0,0,0,0,0,0,0,0,0,0,0,3023,16592,16592,16592,16592,16592,16592,16592,16592,16592,16592,16592,16592,16592,16592,16592,16592,16592,16592,16592,16592,16592,16592,16592,16592,7120,16592,16592,3023,3023,3023,3023,3023,3023,3023,3023,3023,3023,3023,3023,3023,3023,3023,3023,3023,3023,3023,3023,3023,3023,3023,3023,16592,0,0,0,0,0,0,0,0,0,0,0,0,0,0,0,0,0,0,0,0,0,0,0,0,0,0,0,0,0,0,0,0,0,0,
0,0,0,0,0,0,0,0,0,0,0,0,0,0,0,0,0,0,0,0,0,0,0,0,0,0,0,0,0,0,0,0,0,0,0,0,0,0,3023,11907,11907,11907,11907,11907,11907,11907,11907,11907,11907,11907,11907,11907,11907,16592,16592,16592,16592,11907,11907,11907,16592,16592,16592,16592,16592,11907,11907,11907,11907,11907,11907,11907,11907,11907,11907,11907,11907,11907,11907,11907,11907,11907,11907,11907,11907,11907,11907,11907,11907,3023,16592,16592,0,0,0,0,0,0,0,0,0,0,0,0,0,0,0,0,0,0,0,0,0,0,0,0,0,0,0,0,0,0,0,0,0,
0,0,0,0,0,0,0,0,0,0,0,0,0,0,0,0,0,0,0,0,0,0,0,0,0,0,0,0,0,0,0,0,0,0,0,0,0,0,3023,11907,11907,11907,11907,11907,11907,11907,11907,11907,11907,11907,11907,11907,11907,11907,11907,11907,11907,11907,11907,11907,11907,11907,11907,11907,11907,11907,11907,11907,11907,11907,11907,11907,11907,11907,11907,11907,11907,11907,11907,11907,11907,11907,11907,11907,11907,11907,11907,11907,11907,3023,0,16592,0,0,0,0,0,0,0,0,0,0,0,0,0,0,0,0,0,0,0,0,0,0,0,0,0,0,0,0,0,0,0,0,0,
0,0,0,0,0,0,0,0,0,0,0,0,0,0,0,0,0,0,0,0,0,0,0,0,0,0,0,0,0,0,0,0,0,0,0,0,0,0,3023,11907,11907,11907,11907,11907,11907,11907,11907,11907,11907,11907,11907,11907,11907,11907,11907,11907,11907,11907,11907,11907,11907,11907,11907,11907,11907,11907,11907,11907,11907,11907,11907,11907,11907,11907,11907,11907,11907,11907,11907,11907,11907,11907,11907,11907,11907,11907,11907,11907,11907,3023,0,16592,0,0,0,0,0,0,0,0,0,0,0,0,0,0,0,0,0,0,0,0,0,0,0,0,0,0,0,0,0,0,0,0,0,
0,0,0,0,0,0,0,0,0,0,0,0,0,0,0,0,0,0,0,0,0,0,0,0,0,0,0,0,0,0,0,0,0,0,0,0,0,0,3023,11907,11907,11907,11907,11907,11907,11907,11907,11907,11907,11907,11907,11907,11907,11907,11907,11907,11907,11907,11907,11907,11907,11907,11907,11907,11907,11907,11907,11907,11907,11907,11907,11907,11907,11907,11907,11907,11907,11907,11907,11907,11907,11907,11907,11907,11907,11907,11907,11907,11907,3023,0,16592,0,0,0,0,0,0,0,0,0,0,0,0,0,0,0,0,0,0,0,0,0,0,0,0,0,0,0,0,0,0,0,0,0,
0,0,0,0,0,0,0,0,0,0,0,0,0,0,0,0,0,0,0,0,0,0,0,0,0,0,0,0,0,0,0,0,0,0,0,0,0,0,3023,11907,11907,11907,11907,11907,11907,11907,11907,11907,11907,11907,11907,11907,11907,11907,11907,11907,11907,11907,11907,11907,11907,11907,11907,11907,11907,11907,11907,11907,11907,11907,11907,7120,11907,11907,11907,11907,11907,11907,11907,11907,11907,11907,11907,11907,11907,11907,11907,11907,11907,11907,3023,16592,0,0,0,0,0,0,0,0,0,0,0,0,0,0,0,0,0,0,0,0,0,0,0,0,0,0,0,0,0,0,0,0,0,
0,0,0,0,0,0,0,0,0,0,0,0,0,0,0,0,0,0,0,0,0,0,0,0,0,0,0,0,0,0,0,0,0,0,0,0,0,0,3023,11907,11907,11907,11907,11907,11907,11907,11907,11907,11907,11907,11907,11907,11907,11907,11907,11907,11907,11907,11907,11907,11907,11907,11907,11907,11907,11907,11907,11907,11907,11907,11907,11907,11907,11907,7120,11907,11907,11907,11907,11907,11907,11907,11907,11907,11907,11907,11907,11907,11907,11907,3023,16592,0,0,0,0,0,0,0,0,0,0,0,0,0,0,0,0,0,0,0,0,0,0,0,0,0,0,0,0,0,0,0,0,0,
0,0,0,0,0,0,0,0,0,0,0,0,0,0,0,0,0,0,0,0,0,0,0,0,0,0,0,0,0,0,0,0,0,0,0,0,0,0,3023,11907,11907,11907,11907,11907,11907,11907,11907,11907,11907,11907,11907,11907,11907,11907,11907,11907,11907,11907,11907,11907,11907,11907,11907,11907,11907,11907,11907,11907,11907,11907,11907,11907,11907,11907,7120,11907,11907,11907,11907,11907,11907,11907,11907,11907,11907,11907,11907,11907,11907,11907,16592,16592,0,0,0,0,0,0,0,0,0,0,0,0,0,0,0,0,0,0,0,0,0,0,0,0,0,0,0,0,0,0,0,0,0,
0,0,0,0,0,0,0,0,0,0,0,0,0,0,0,0,0,0,0,0,0,0,0,0,0,0,0,0,0,0,0,0,0,0,0,0,0,0,3023,11907,11907,11907,11907,11907,11907,11907,11907,11907,11907,11907,11907,11907,11907,11907,11907,11907,11907,11907,11907,11907,11907,11907,11907,11907,11907,11907,11907,11907,11907,11907,11907,11907,11907,11907,11907,11907,11907,11907,11907,11907,11907,11907,11907,11907,11907,11907,11907,11907,11907,11907,16592,0,0,0,0,0,0,0,0,0,0,0,0,0,0,0,0,0,0,0,0,0,0,0,0,0,0,0,0,0,0,0,0,0,0,
0,0,0,0,0,0,0,0,0,0,0,0,0,0,0,0,0,0,0,0,0,0,0,0,0,0,0,0,0,0,0,0,0,0,0,0,0,0,3023,11907,11907,11907,11907,11907,11907,11907,11907,11907,11907,11907,11907,11907,11907,11907,11907,11907,11907,11907,11907,11907,11907,11907,11907,11907,11907,11907,11907,11907,11907,11907,11907,11907,11907,11907,11907,11907,11907,11907,11907,11907,11907,11907,11907,11907,11907,11907,11907,11907,11907,11907,16592,0,0,0,0,0,0,0,0,0,0,0,0,0,0,0,0,0,0,0,0,0,0,0,0,0,0,0,0,0,0,0,0,0,0,
0,0,0,0,0,0,0,0,0,0,0,0,0,0,0,0,0,0,0,0,0,0,0,0,0,0,0,0,0,0,0,0,0,0,0,0,0,0,3023,11907,11907,11907,11907,11907,11907,11907,11907,11907,11907,11907,11907,11907,11907,11907,11907,11907,11907,11907,11907,11907,11907,11907,11907,11907,11907,11907,11907,11907,11907,11907,11907,11907,11907,11907,11907,11907,11907,11907,11907,11907,11907,11907,11907,11907,11907,11907,11907,11907,11907,11907,16592,0,0,0,0,0,0,0,0,0,0,0,0,0,0,0,0,0,0,0,0,0,0,0,0,0,0,0,0,0,0,0,0,0,0,
0,0,0,0,0,0,0,0,0,0,0,0,0,0,0,0,0,0,0,0,0,0,0,0,0,0,0,0,0,0,0,0,0,0,0,0,0,0,3023,11907,11907,11907,11907,11907,11907,11907,11907,11907,11907,11907,11907,11907,11907,11907,11907,11907,11907,11907,11907,11907,11907,11907,11907,11907,11907,11907,11907,11907,11907,11907,11907,11907,11907,11907,11907,11907,11907,11907,11907,11907,11907,11907,11907,11907,11907,11907,11907,11907,11907,11907,16592,0,0,0,0,0,0,0,0,0,0,0,0,0,0,0,0,0,0,0,0,0,0,0,0,0,0,0,0,0,0,0,0,0,0,
0,0,0,0,0,0,0,0,0,0,0,0,0,0,0,0,0,0,0,0,0,0,0,0,0,0,0,0,0,0,0,0,0,0,0,0,0,0,3023,11907,11907,11907,11907,11907,11907,11907,11907,11907,11907,11907,11907,11907,11907,11907,11907,11907,11907,11907,11907,11907,11907,11907,11907,11907,11907,11907,11907,11907,11907,11907,11907,11907,11907,11907,11907,11907,11907,11907,11907,11907,11907,11907,11907,11907,11907,11907,11907,11907,11907,11907,16592,0,0,0,0,0,0,0,0,0,0,0,0,0,0,0,0,0,0,0,0,0,0,0,0,0,0,0,0,0,0,0,0,0,0,
0,0,0,0,0,0,0,0,0,0,0,0,0,0,0,0,0,0,0,0,0,0,0,0,0,0,0,0,0,0,0,0,0,0,0,0,0,0,3023,11907,11907,11907,11907,11907,11907,11907,11907,11907,11907,11907,11907,11907,11907,11907,11907,11907,11907,11907,11907,11907,11907,11907,11907,11907,11907,11907,11907,11907,11907,11907,11907,11907,11907,11907,11907,11907,11907,11907,11907,11907,11907,11907,11907,11907,11907,11907,11907,11907,11907,11907,16592,0,0,0,0,0,0,0,0,0,0,0,0,0,0,0,0,0,0,0,0,0,0,0,0,0,0,0,0,0,0,0,0,0,0,
0,0,0,0,0,0,0,0,0,0,0,0,0,0,0,0,0,0,0,0,0,0,0,0,0,0,0,0,0,0,0,0,0,0,0,0,0,0,3023,11907,11907,11907,11907,11907,11907,11907,11907,11907,11907,11907,11907,11907,11907,11907,11907,11907,11907,11907,11907,11907,11907,11907,11907,11907,11907,11907,11907,11907,11907,11907,11907,11907,11907,11907,11907,11907,11907,11907,11907,11907,11907,11907,11907,11907,11907,11907,11907,11907,11907,11907,16592,0,0,0,0,0,0,0,0,0,0,0,0,0,0,0,0,0,0,0,0,0,0,0,0,0,0,0,0,0,0,0,0,0,0,
0,0,0,0,0,0,0,0,0,0,0,0,0,0,0,0,0,0,0,0,0,0,0,0,0,0,0,0,0,0,0,0,0,0,0,0,0,0,3023,11907,11907,11907,11907,11907,11907,11907,11907,11907,11907,11907,11907,11907,11907,11907,11907,11907,11907,11907,11907,11907,11907,11907,11907,11907,11907,11907,11907,11907,11907,11907,11907,11907,11907,11907,11907,11907,11907,11907,11907,11907,11907,11907,11907,11907,11907,11907,11907,11907,11907,11907,16592,0,0,0,0,0,0,0,0,0,0,0,0,0,0,0,0,0,0,0,0,0,0,0,0,0,0,0,0,0,0,0,0,0,0,
0,0,0,0,0,0,0,0,0,0,0,0,0,0,0,0,0,0,0,0,0,0,0,0,0,0,0,0,0,0,0,0,0,0,0,0,0,0,3023,16592,16592,16592,16592,16592,16592,16592,16592,11907,11907,11907,11907,11907,11907,11907,11907,11907,11907,11907,11907,11907,11907,11907,11907,11907,11907,11907,11907,11907,11907,11907,11907,11907,11907,11907,11907,3023,3023,3023,3023,16592,16592,16592,16592,16592,16592,16592,16592,16592,16592,16592,16592,0,0,0,0,0,0,0,0,0,0,0,0,0,0,0,0,0,0,0,0,0,0,0,0,0,0,0,0,0,0,0,0,0,0,
0,0,0,0,0,0,0,0,0,0,0,0,0,0,0,0,0,0,0,0,0,0,0,0,0,0,0,0,0,0,0,0,0,0,0,0,0,0,3023,16592,16592,16592,16592,16592,16592,16592,16592,16592,16592,16592,16592,16592,16592,16592,16592,16592,16592,16592,3023,11907,11907,11907,11907,11907,11907,11907,11907,11907,11907,11907,11907,11907,11907,11907,11907,16592,16592,16592,16592,16592,16592,16592,16592,16592,16592,16592,16592,16592,16592,16592,16592,0,0,0,0,0,0,0,0,0,0,0,0,0,0,0,0,0,0,0,0,0,0,0,0,0,0,0,0,0,0,0,0,0,0,
0,0,0,0,0,0,0,0,0,0,0,0,0,0,0,0,0,0,0,0,0,0,0,0,0,0,0,0,0,0,0,0,0,0,0,0,0,0,0,16592,16592,16592,16592,16592,16592,16592,16592,16592,16592,16592,16592,3023,3023,16592,16592,16592,16592,16592,11907,11907,11907,11907,11907,11907,11907,11907,11907,11907,11907,11907,11907,11907,11907,11907,11907,11907,11907,11907,11907,11907,11907,11907,11907,11907,11907,11907,11907,11907,16592,16592,16592,3023,3023,3023,3023,3023,3023,3023,3023,3023,3023,3023,3023,3023,3023,3023,3023,3023,3023,3023,3023,3023,3023,3023,3023,3023,3023,0,0,0,0,0,0,0,0,
0,3023,3023,3023,3023,3023,3023,3023,3023,3023,3023,3023,3023,3023,3023,3023,3023,3023,3023,3023,3023,3023,3023,3023,3023,3023,3023,3023,3023,3023,3023,3023,3023,3023,3023,3023,3023,3023,3023,3023,11907,11907,11907,11907,11907,11907,11907,11907,11907,11907,16592,16592,16592,16592,11907,11907,11907,11907,11907,11907,11907,11907,11907,11907,11907,11907,11907,11907,11907,11907,11907,11907,11907,11907,11907,11907,11907,11907,11907,11907,11907,11907,11907,11907,11907,11907,11907,11907,11907,16592,16592,11907,11907,11907,11907,11907,11907,11907,11907,11907,11907,11907,11907,11907,11907,11907,11907,11907,11907,11907,11907,11907,11907,11907,11907,11907,11907,3023,3023,3023,3023,0,0,11907,0,
3023,11907,11907,11907,11907,11907,11907,11907,11907,11907,11907,11907,11907,11907,11907,11907,11907,11907,11907,11907,11907,11907,11907,11907,11907,11907,11907,11907,11907,11907,11907,11907,11907,11907,11907,11907,16592,16592,16592,11907,11907,11907,11907,11907,11907,11907,11907,11907,11907,11907,11907,11907,11907,11907,11907,11907,11907,11907,11907,11907,11907,11907,11907,11907,11907,11907,11907,11907,11907,11907,11907,11907,11907,11907,11907,11907,11907,11907,11907,11907,11907,11907,11907,11907,11907,11907,11907,11907,11907,16592,16592,11907,11907,11907,11907,11907,11907,11907,11907,11907,11907,11907,11907,11907,11907,11907,11907,11907,11907,11907,11907,11907,11907,11907,11907,11907,11907,11907,11907,11907,3023,3023,3023,11907,0,
3023,11907,11907,11907,11907,11907,11907,11907,11907,11907,11907,11907,11907,11907,11907,11907,11907,11907,11907,11907,11907,11907,11907,11907,11907,11907,11907,11907,11907,11907,11907,11907,11907,11907,11907,11907,16592,16592,16592,11907,11907,11907,11907,11907,11907,11907,11907,11907,11907,11907,11907,11907,11907,11907,11907,11907,11907,11907,11907,11907,11907,11907,11907,11907,11907,11907,11907,11907,11907,11907,11907,11907,11907,11907,11907,11907,11907,11907,11907,11907,11907,11907,11907,11907,11907,11907,11907,11907,11907,16592,16592,11907,11907,11907,11907,11907,11907,11907,11907,11907,11907,11907,11907,11907,11907,11907,11907,11907,11907,11907,11907,11907,11907,11907,11907,11907,11907,11907,11907,11907,11907,11907,11907,11907,0,
3023,11907,11907,11907,11907,11907,11907,11907,11907,11907,11907,11907,11907,11907,11907,11907,11907,11907,11907,11907,11907,11907,11907,11907,11907,11907,11907,11907,11907,11907,11907,11907,11907,11907,11907,11907,16592,16592,16592,11907,11907,11907,11907,11907,11907,11907,11907,11907,11907,11907,11907,11907,11907,11907,11907,11907,11907,11907,11907,11907,11907,11907,11907,11907,11907,11907,11907,11907,11907,11907,11907,11907,11907,11907,11907,11907,11907,11907,11907,11907,11907,11907,11907,11907,11907,11907,11907,11907,11907,16592,16592,11907,11907,11907,11907,11907,11907,11907,11907,11907,11907,11907,11907,11907,11907,11907,11907,11907,11907,11907,11907,11907,11907,11907,11907,11907,11907,11907,11907,11907,11907,11907,11907,11907,0,
3023,11907,11907,11907,11907,11907,11907,11907,11907,11907,11907,11907,11907,11907,11907,11907,11907,11907,11907,11907,11907,11907,11907,11907,11907,11907,11907,11907,11907,11907,11907,11907,11907,11907,11907,11907,16592,16592,16592,11907,11907,11907,11907,11907,11907,11907,11907,11907,11907,11907,11907,11907,11907,11907,11907,11907,11907,11907,11907,11907,11907,11907,11907,11907,11907,11907,11907,11907,11907,11907,11907,11907,11907,11907,11907,11907,11907,11907,11907,11907,11907,11907,11907,11907,11907,11907,11907,11907,11907,16592,16592,11907,11907,11907,11907,11907,11907,11907,11907,11907,11907,11907,11907,11907,11907,11907,11907,11907,11907,11907,11907,11907,11907,11907,11907,11907,11907,11907,11907,11907,11907,11907,11907,3023,0,
11907,11907,11907,11907,11907,11907,11907,11907,11907,11907,11907,11907,11907,11907,11907,11907,11907,11907,11907,11907,11907,11907,11907,11907,11907,11907,11907,11907,11907,11907,11907,11907,11907,11907,11907,11907,16592,16592,16592,11907,11907,11907,11907,11907,11907,11907,11907,11907,11907,11907,11907,11907,11907,11907,11907,11907,11907,11907,11907,11907,11907,11907,11907,11907,11907,11907,11907,11907,11907,11907,11907,11907,11907,11907,11907,11907,11907,11907,11907,11907,11907,11907,11907,11907,11907,11907,11907,11907,11907,16592,16592,11907,11907,11907,11907,11907,11907,11907,11907,11907,11907,11907,11907,11907,11907,11907,11907,11907,11907,11907,11907,11907,11907,11907,11907,11907,11907,11907,11907,11907,11907,11907,11907,3023,0,
3023,11907,11907,11907,11907,11907,11907,11907,11907,11907,11907,11907,11907,11907,11907,11907,11907,11907,11907,11907,11907,11907,11907,11907,11907,11907,11907,11907,11907,11907,11907,11907,11907,11907,11907,11907,16592,3023,16592,11907,11907,11907,11907,11907,11907,11907,11907,11907,11907,11907,11907,11907,11907,11907,11907,11907,11907,11907,11907,11907,11907,11907,11907,11907,11907,11907,11907,11907,11907,11907,11907,11907,11907,11907,11907,11907,11907,11907,11907,11907,11907,11907,11907,11907,11907,11907,11907,11907,11907,16592,16592,11907,11907,11907,11907,11907,11907,11907,11907,11907,11907,11907,11907,11907,11907,11907,11907,11907,11907,11907,11907,11907,11907,11907,11907,11907,11907,11907,11907,11907,11907,11907,11907,3023,0,
3023,11907,11907,11907,11907,11907,11907,11907,11907,11907,11907,11907,11907,11907,11907,11907,11907,11907,11907,11907,11907,11907,11907,11907,11907,11907,11907,11907,11907,11907,11907,11907,11907,11907,11907,11907,16592,16592,16592,11907,11907,11907,11907,11907,11907,11907,11907,11907,11907,11907,11907,11907,11907,11907,11907,11907,11907,11907,11907,11907,11907,11907,11907,11907,11907,11907,11907,11907,11907,11907,11907,11907,11907,11907,11907,11907,11907,11907,11907,11907,11907,11907,11907,11907,11907,11907,11907,11907,11907,16592,16592,11907,11907,11907,11907,11907,11907,11907,11907,11907,11907,11907,11907,11907,11907,11907,11907,11907,11907,11907,11907,11907,11907,11907,11907,11907,11907,11907,11907,11907,11907,11907,11907,3023,0,
3023,11907,11907,11907,11907,11907,11907,11907,11907,11907,11907,11907,11907,11907,11907,11907,11907,11907,11907,11907,11907,11907,11907,11907,11907,11907,11907,11907,11907,11907,11907,11907,11907,11907,11907,11907,16592,16592,16592,11907,11907,11907,11907,11907,11907,11907,11907,11907,11907,11907,11907,11907,11907,11907,11907,11907,11907,11907,11907,11907,11907,11907,11907,11907,11907,11907,11907,11907,11907,11907,11907,11907,11907,11907,11907,11907,11907,11907,11907,11907,11907,11907,11907,11907,11907,11907,11907,11907,11907,16592,16592,11907,11907,11907,11907,11907,11907,11907,11907,11907,11907,11907,11907,11907,11907,11907,11907,11907,11907,11907,11907,11907,11907,11907,11907,11907,11907,11907,11907,11907,11907,11907,11907,3023,0,
3023,3023,11907,11907,11907,11907,11907,11907,11907,11907,11907,11907,11907,11907,11907,11907,11907,11907,11907,11907,11907,11907,11907,11907,11907,11907,11907,11907,11907,11907,11907,11907,11907,11907,11907,11907,16592,16592,16592,11907,11907,11907,11907,11907,11907,11907,11907,11907,11907,11907,11907,11907,11907,11907,11907,11907,11907,11907,11907,11907,11907,11907,11907,11907,11907,11907,11907,11907,11907,11907,11907,11907,11907,11907,11907,11907,11907,11907,11907,11907,11907,11907,11907,11907,11907,11907,11907,11907,11907,11907,3023,11907,11907,11907,11907,11907,11907,11907,11907,11907,11907,11907,11907,11907,11907,11907,11907,11907,11907,11907,11907,11907,11907,11907,11907,11907,11907,11907,11907,11907,11907,11907,11907,3023,0,
0,3023,11907,11907,11907,11907,11907,11907,11907,11907,11907,11907,11907,11907,11907,11907,11907,11907,11907,11907,11907,11907,11907,11907,11907,11907,11907,11907,11907,11907,11907,11907,11907,11907,11907,11907,16592,16592,11907,11907,11907,11907,11907,11907,11907,11907,11907,11907,11907,11907,11907,11907,11907,11907,11907,11907,11907,11907,11907,11907,11907,11907,11907,11907,11907,11907,11907,11907,11907,11907,11907,11907,11907,11907,11907,11907,11907,11907,11907,11907,11907,11907,11907,11907,11907,11907,11907,11907,11907,11907,11907,11907,11907,11907,11907,11907,11907,11907,11907,11907,11907,11907,11907,11907,11907,11907,11907,11907,11907,11907,11907,11907,11907,11907,11907,11907,11907,11907,11907,11907,11907,11907,11907,3023,0,
0,3023,11907,11907,11907,11907,11907,11907,11907,11907,11907,11907,11907,11907,11907,11907,11907,11907,11907,11907,11907,11907,11907,11907,11907,11907,11907,11907,11907,11907,11907,11907,11907,11907,11907,11907,11907,3023,11907,11907,11907,11907,11907,11907,11907,11907,11907,11907,11907,11907,11907,11907,11907,11907,11907,11907,11907,11907,11907,11907,11907,11907,11907,11907,11907,11907,11907,11907,11907,11907,11907,11907,11907,11907,11907,11907,11907,11907,11907,11907,11907,11907,11907,11907,11907,11907,11907,11907,11907,11907,11907,11907,11907,11907,11907,11907,11907,11907,11907,11907,11907,11907,11907,11907,11907,11907,11907,11907,11907,11907,11907,11907,11907,11907,11907,11907,11907,11907,11907,11907,11907,11907,11907,3023,0,
0,3023,11907,11907,11907,11907,11907,11907,11907,11907,11907,11907,11907,11907,11907,11907,11907,11907,11907,11907,11907,11907,11907,11907,11907,11907,11907,11907,11907,11907,11907,11907,11907,11907,11907,11907,11907,11907,11907,11907,11907,11907,11907,11907,11907,11907,11907,11907,11907,11907,11907,11907,11907,11907,11907,11907,11907,11907,11907,11907,11907,11907,11907,11907,11907,11907,11907,11907,11907,11907,11907,11907,11907,11907,11907,11907,11907,11907,11907,11907,11907,11907,11907,11907,11907,11907,11907,11907,11907,11907,11907,11907,11907,11907,11907,11907,11907,11907,11907,11907,11907,11907,11907,11907,11907,11907,11907,11907,11907,11907,11907,11907,11907,11907,11907,11907,11907,11907,11907,11907,11907,11907,11907,3023,0,
0,3023,11907,11907,11907,11907,11907,11907,11907,11907,11907,11907,11907,11907,11907,11907,11907,11907,11907,11907,11907,11907,11907,11907,11907,11907,11907,11907,11907,11907,11907,11907,11907,11907,11907,11907,11907,11907,11907,11907,11907,11907,11907,11907,11907,11907,11907,11907,11907,11907,11907,11907,11907,11907,11907,11907,11907,11907,11907,11907,11907,11907,11907,11907,11907,11907,11907,11907,11907,11907,11907,11907,11907,11907,11907,11907,11907,11907,11907,11907,11907,11907,11907,11907,11907,11907,11907,11907,11907,11907,11907,11907,11907,11907,11907,11907,11907,11907,11907,11907,11907,11907,11907,11907,11907,11907,11907,11907,11907,11907,11907,11907,11907,11907,11907,11907,11907,11907,11907,11907,11907,11907,11907,3023,0,
0,3023,11907,11907,11907,11907,11907,11907,11907,11907,11907,11907,11907,11907,11907,11907,11907,11907,11907,11907,11907,11907,11907,11907,11907,11907,11907,11907,11907,11907,11907,11907,11907,11907,11907,11907,11907,11907,11907,11907,11907,11907,11907,11907,11907,11907,11907,11907,11907,11907,11907,11907,11907,11907,11907,11907,11907,11907,11907,11907,11907,11907,11907,11907,11907,11907,11907,11907,11907,11907,11907,11907,11907,11907,11907,11907,11907,11907,11907,11907,11907,11907,11907,11907,11907,11907,11907,11907,11907,11907,11907,11907,11907,11907,11907,11907,11907,11907,11907,11907,11907,11907,11907,11907,11907,11907,11907,11907,11907,11907,11907,11907,11907,11907,11907,11907,11907,11907,11907,11907,11907,11907,11907,3023,0,
0,3023,11907,11907,11907,11907,11907,11907,11907,11907,11907,11907,11907,11907,11907,11907,11907,11907,11907,11907,11907,11907,11907,11907,11907,11907,11907,11907,11907,11907,11907,11907,11907,11907,11907,11907,11907,11907,11907,11907,11907,11907,11907,11907,11907,11907,11907,11907,11907,11907,11907,11907,11907,11907,11907,11907,11907,11907,11907,11907,11907,11907,11907,11907,11907,11907,11907,11907,11907,11907,11907,11907,11907,11907,11907,11907,11907,11907,11907,11907,11907,11907,11907,11907,11907,11907,11907,11907,11907,11907,11907,11907,11907,11907,11907,11907,11907,11907,11907,11907,11907,11907,11907,11907,11907,11907,11907,11907,11907,11907,11907,11907,11907,11907,11907,11907,11907,11907,11907,11907,11907,11907,11907,3023,0,
3023,3023,11907,11907,11907,11907,11907,11907,11907,11907,11907,11907,11907,11907,11907,11907,11907,11907,11907,11907,11907,11907,11907,11907,11907,11907,11907,11907,11907,11907,11907,11907,11907,11907,11907,11907,11907,11907,11907,11907,11907,11907,11907,11907,11907,11907,11907,11907,11907,11907,11907,11907,11907,11907,11907,11907,11907,11907,11907,11907,11907,11907,11907,11907,11907,11907,11907,11907,11907,11907,11907,11907,11907,11907,11907,11907,11907,11907,11907,11907,11907,11907,11907,11907,11907,11907,11907,11907,11907,11907,11907,11907,11907,11907,11907,11907,11907,11907,11907,11907,11907,11907,11907,11907,11907,11907,11907,11907,11907,11907,11907,11907,11907,11907,11907,11907,11907,11907,11907,11907,11907,11907,11907,3023,0,
11907,11907,11907,11907,11907,11907,11907,11907,11907,11907,11907,11907,11907,11907,11907,11907,11907,11907,11907,11907,11907,11907,11907,11907,11907,11907,11907,11907,11907,11907,11907,11907,11907,11907,11907,11907,11907,11907,11907,11907,11907,11907,11907,11907,11907,11907,11907,11907,11907,11907,11907,11907,11907,11907,11907,11907,11907,11907,11907,11907,11907,11907,11907,11907,11907,11907,11907,11907,11907,11907,11907,11907,11907,11907,11907,11907,11907,11907,11907,11907,11907,11907,11907,11907,11907,11907,11907,11907,11907,11907,11907,11907,11907,11907,11907,11907,11907,11907,11907,11907,11907,11907,11907,11907,11907,11907,11907,11907,11907,11907,11907,11907,11907,11907,11907,11907,11907,11907,11907,11907,11907,11907,11907,3023,0,
3023,11907,11907,11907,11907,11907,11907,11907,11907,11907,11907,11907,11907,11907,11907,11907,11907,11907,11907,11907,11907,11907,11907,11907,11907,11907,11907,11907,11907,11907,11907,11907,11907,11907,11907,11907,11907,11907,11907,11907,11907,11907,11907,11907,11907,11907,11907,11907,11907,11907,11907,11907,11907,11907,11907,11907,11907,11907,11907,11907,11907,11907,11907,11907,11907,11907,11907,11907,11907,11907,11907,11907,11907,11907,11907,11907,11907,11907,11907,11907,11907,11907,11907,11907,11907,11907,11907,11907,11907,11907,11907,11907,11907,11907,11907,11907,11907,11907,11907,11907,11907,11907,11907,11907,11907,11907,11907,11907,11907,11907,11907,11907,11907,11907,11907,11907,11907,11907,11907,11907,11907,11907,11907,3023,0,
3023,11907,11907,11907,11907,11907,11907,11907,11907,11907,11907,11907,11907,11907,11907,11907,11907,11907,11907,11907,11907,11907,11907,11907,11907,11907,11907,11907,11907,11907,11907,11907,11907,11907,11907,11907,11907,11907,11907,11907,11907,11907,11907,11907,11907,11907,11907,11907,11907,11907,11907,11907,11907,11907,11907,11907,11907,11907,11907,11907,11907,11907,11907,11907,11907,11907,11907,11907,11907,11907,11907,11907,11907,11907,11907,11907,11907,11907,11907,11907,11907,11907,11907,11907,11907,11907,11907,11907,11907,11907,11907,11907,11907,11907,11907,11907,11907,11907,11907,11907,11907,11907,11907,11907,11907,11907,11907,11907,11907,11907,11907,11907,11907,11907,11907,11907,11907,11907,11907,11907,11907,11907,11907,3023,0,
3023,11907,11907,11907,11907,11907,11907,11907,11907,11907,11907,11907,11907,11907,11907,11907,11907,11907,11907,11907,11907,11907,11907,11907,11907,11907,11907,11907,11907,11907,11907,11907,11907,11907,11907,11907,11907,11907,11907,11907,11907,11907,11907,11907,11907,11907,11907,11907,11907,11907,11907,11907,11907,11907,11907,11907,11907,11907,11907,11907,11907,11907,11907,11907,11907,11907,11907,11907,11907,11907,11907,11907,11907,11907,11907,11907,11907,11907,11907,11907,11907,11907,11907,11907,11907,11907,11907,11907,11907,11907,11907,11907,11907,11907,11907,11907,11907,11907,11907,11907,11907,11907,11907,11907,11907,11907,11907,11907,11907,11907,11907,11907,11907,11907,11907,11907,11907,11907,11907,11907,11907,11907,11907,3023,0,
3023,11907,11907,11907,11907,11907,11907,11907,11907,11907,11907,11907,11907,11907,11907,11907,11907,11907,11907,11907,11907,11907,11907,11907,11907,11907,11907,11907,11907,11907,11907,11907,11907,11907,11907,11907,11907,11907,11907,11907,11907,11907,11907,11907,11907,11907,11907,11907,11907,11907,11907,11907,11907,11907,11907,11907,11907,11907,11907,11907,11907,11907,11907,11907,11907,11907,11907,11907,11907,11907,11907,11907,11907,11907,11907,11907,11907,11907,11907,11907,11907,11907,11907,11907,11907,11907,11907,11907,11907,11907,11907,11907,11907,11907,11907,11907,11907,11907,11907,11907,11907,11907,11907,11907,11907,11907,11907,11907,11907,11907,11907,11907,11907,11907,11907,11907,11907,11907,11907,11907,11907,11907,11907,3023,0,
3023,11907,11907,11907,11907,11907,11907,11907,11907,11907,11907,11907,11907,11907,11907,11907,11907,11907,11907,11907,11907,11907,11907,11907,11907,11907,11907,11907,11907,11907,11907,11907,11907,11907,11907,11907,11907,3023,11907,11907,11907,11907,11907,11907,11907,11907,11907,11907,11907,11907,11907,11907,11907,11907,11907,11907,11907,11907,11907,11907,11907,11907,11907,11907,11907,11907,11907,11907,11907,11907,11907,11907,11907,11907,11907,11907,11907,11907,11907,11907,11907,11907,11907,11907,11907,11907,11907,11907,11907,11907,11907,11907,11907,11907,11907,11907,11907,11907,11907,11907,11907,11907,11907,11907,11907,11907,11907,11907,11907,11907,11907,11907,11907,11907,11907,11907,11907,11907,11907,11907,11907,11907,11907,3023,0,
3023,11907,11907,11907,11907,11907,11907,11907,11907,11907,11907,11907,11907,11907,11907,11907,11907,11907,11907,11907,11907,11907,11907,11907,11907,11907,11907,11907,11907,11907,11907,11907,11907,11907,11907,11907,11907,3023,11907,11907,11907,11907,11907,11907,11907,11907,11907,11907,11907,11907,11907,11907,11907,11907,11907,11907,11907,11907,11907,11907,11907,11907,11907,11907,11907,11907,11907,11907,11907,11907,11907,11907,11907,11907,11907,11907,11907,11907,11907,11907,11907,11907,11907,11907,11907,11907,11907,11907,11907,11907,11907,11907,11907,11907,11907,11907,11907,11907,11907,11907,11907,11907,11907,11907,11907,11907,11907,11907,11907,11907,11907,11907,11907,11907,11907,11907,11907,11907,11907,11907,11907,11907,11907,3023,0,
3023,11907,11907,11907,11907,11907,11907,11907,11907,11907,11907,11907,11907,11907,11907,11907,11907,11907,11907,11907,11907,11907,11907,11907,11907,11907,11907,11907,11907,11907,11907,11907,11907,11907,11907,11907,11907,3023,11907,11907,11907,11907,11907,11907,11907,11907,11907,11907,11907,11907,11907,11907,11907,11907,11907,11907,11907,11907,11907,11907,11907,11907,11907,11907,11907,11907,11907,11907,11907,11907,11907,11907,11907,11907,11907,11907,11907,11907,11907,11907,11907,11907,11907,11907,11907,11907,11907,11907,11907,11907,11907,11907,11907,11907,11907,11907,11907,11907,11907,11907,11907,11907,11907,11907,11907,11907,11907,11907,11907,11907,11907,11907,11907,11907,11907,11907,11907,11907,11907,11907,11907,11907,11907,3023,0,
3023,11907,11907,11907,11907,11907,11907,11907,11907,11907,11907,11907,11907,11907,11907,11907,11907,11907,11907,11907,11907,11907,11907,11907,11907,11907,11907,11907,11907,11907,11907,11907,11907,11907,11907,11907,11907,3023,11907,11907,11907,11907,11907,11907,11907,11907,11907,11907,11907,11907,11907,11907,11907,11907,11907,11907,11907,11907,11907,11907,11907,11907,11907,11907,11907,11907,11907,11907,11907,11907,11907,11907,11907,11907,11907,11907,11907,11907,11907,11907,11907,11907,11907,11907,11907,11907,11907,11907,11907,11907,11907,3023,11907,11907,11907,11907,11907,11907,11907,11907,11907,11907,11907,11907,11907,11907,11907,11907,11907,11907,11907,11907,11907,11907,11907,11907,11907,11907,11907,11907,11907,11907,11907,3023,0,
3023,11907,11907,11907,11907,11907,11907,11907,11907,11907,11907,11907,11907,11907,11907,11907,11907,11907,11907,11907,11907,11907,11907,11907,11907,11907,11907,11907,11907,11907,11907,11907,11907,11907,11907,11907,11907,3023,11907,11907,11907,11907,11907,11907,11907,11907,11907,11907,11907,11907,11907,11907,11907,11907,11907,11907,11907,11907,11907,11907,11907,11907,11907,11907,11907,11907,11907,11907,11907,11907,11907,11907,11907,11907,11907,11907,11907,11907,11907,11907,11907,11907,11907,11907,11907,11907,11907,11907,11907,11907,11907,3023,11907,11907,11907,11907,11907,11907,11907,11907,11907,11907,11907,11907,11907,11907,11907,11907,11907,11907,11907,11907,11907,11907,11907,11907,11907,11907,11907,11907,11907,11907,11907,3023,0,
3023,11907,11907,11907,11907,11907,11907,11907,11907,11907,11907,11907,11907,11907,11907,11907,11907,11907,11907,11907,11907,11907,11907,11907,11907,11907,11907,11907,11907,11907,11907,11907,11907,11907,11907,11907,11907,3023,11907,11907,11907,11907,11907,11907,11907,11907,11907,11907,11907,11907,11907,11907,11907,11907,11907,11907,11907,11907,11907,11907,11907,11907,11907,11907,11907,11907,11907,11907,11907,11907,11907,11907,11907,11907,11907,11907,11907,11907,11907,11907,11907,11907,11907,11907,11907,11907,11907,11907,11907,11907,11907,3023,11907,11907,11907,11907,11907,11907,11907,11907,11907,11907,11907,11907,11907,11907,11907,11907,11907,11907,11907,11907,11907,11907,11907,11907,11907,11907,11907,11907,11907,11907,11907,3023,0,
3023,11907,11907,11907,11907,11907,11907,11907,11907,11907,11907,11907,11907,11907,11907,11907,11907,11907,11907,11907,11907,11907,11907,11907,11907,11907,11907,11907,11907,11907,11907,11907,11907,11907,11907,11907,11907,3023,3023,11907,11907,11907,11907,11907,11907,11907,11907,11907,11907,11907,11907,11907,11907,11907,11907,11907,11907,11907,11907,11907,11907,11907,11907,11907,11907,11907,11907,11907,11907,11907,11907,11907,11907,11907,11907,11907,11907,11907,11907,11907,11907,11907,11907,11907,11907,11907,11907,11907,11907,11907,11907,3023,11907,11907,11907,11907,11907,11907,11907,11907,11907,11907,11907,11907,11907,11907,11907,11907,11907,11907,11907,11907,11907,11907,11907,11907,11907,11907,11907,11907,11907,11907,11907,3023,0,
3023,11907,11907,11907,11907,11907,11907,11907,11907,11907,11907,11907,11907,11907,11907,11907,11907,11907,11907,11907,11907,11907,11907,11907,11907,11907,11907,11907,11907,11907,11907,11907,11907,11907,11907,11907,11907,11907,3023,11907,11907,11907,11907,11907,11907,11907,11907,11907,11907,11907,11907,11907,11907,11907,11907,11907,11907,11907,11907,11907,11907,11907,11907,11907,11907,11907,11907,11907,11907,11907,11907,11907,11907,11907,11907,11907,11907,11907,11907,11907,11907,11907,11907,11907,11907,11907,11907,11907,11907,11907,3023,3023,11907,11907,11907,11907,11907,11907,11907,11907,11907,11907,11907,11907,11907,11907,11907,11907,11907,11907,11907,11907,11907,11907,11907,11907,11907,11907,11907,11907,11907,11907,11907,3023,0,
3023,3023,3023,3023,3023,3023,3023,3023,3023,3023,3023,3023,3023,3023,3023,3023,3023,3023,3023,3023,3023,3023,3023,3023,3023,3023,3023,3023,3023,3023,3023,11907,11907,11907,11907,11907,11907,11907,3023,11907,3023,3023,3023,3023,3023,3023,3023,3023,3023,3023,3023,3023,3023,3023,3023,3023,3023,3023,3023,3023,3023,3023,3023,3023,3023,3023,3023,3023,3023,3023,11907,11907,11907,11907,11907,11907,11907,11907,11907,11907,11907,11907,11907,11907,11907,11907,11907,11907,11907,11907,3023,3023,3023,3023,3023,11907,11907,11907,11907,11907,11907,11907,11907,11907,11907,11907,11907,11907,3023,3023,3023,3023,3023,3023,3023,3023,3023,3023,3023,3023,11907,11907,11907,3023,0,
3023,0,0,0,0,0,0,0,0,0,0,0,0,0,0,0,0,0,0,0,0,0,0,0,0,0,0,0,0,0,0,3023,3023,3023,3023,3023,3023,3023,3023,3023,3023,11907,11907,11907,11907,11907,11907,11907,11907,11907,11907,11907,11907,11907,11907,11907,11907,11907,11907,11907,11907,11907,11907,11907,11907,11907,11907,11907,11907,11907,11907,11907,11907,11907,11907,11907,11907,11907,11907,11907,11907,11907,11907,11907,11907,11907,11907,11907,11907,11907,3023,0,0,0,0,3023,3023,3023,3023,3023,3023,3023,3023,3023,3023,3023,3023,3023,0,0,0,0,0,0,0,0,0,0,0,0,0,0,0,3023,0,
0,0,0,0,0,0,0,0,0,0,0,0,0,0,0,0,0,0,0,0,0,0,0,0,0,0,0,0,0,0,0,0,0,0,0,0,0,0,0,0,3023,11907,11907,11907,11907,11907,11907,11907,11907,11907,11907,11907,11907,11907,11907,11907,11907,11907,11907,11907,11907,11907,11907,11907,11907,11907,11907,11907,11907,11907,11907,11907,11907,11907,11907,11907,11907,11907,11907,11907,11907,11907,11907,11907,11907,11907,11907,11907,11907,11907,3023,0,0,0,0,0,0,0,0,0,0,0,0,0,0,0,0,0,0,0,0,0,0,0,0,0,0,0,0,0,0,0,0,0,0,
0,0,0,0,0,0,0,0,0,0,0,0,0,0,0,0,0,0,0,0,0,0,0,0,0,0,0,0,0,0,0,0,0,0,0,0,0,0,0,0,3023,11907,11907,11907,11907,11907,11907,11907,11907,11907,11907,11907,11907,11907,11907,11907,11907,11907,11907,11907,11907,11907,11907,11907,11907,11907,11907,11907,11907,11907,11907,11907,11907,11907,11907,11907,11907,11907,11907,11907,11907,11907,11907,11907,11907,11907,11907,11907,11907,11907,3023,0,0,0,0,0,0,0,0,0,0,0,0,0,0,0,0,0,0,0,0,0,0,0,0,0,0,0,0,0,0,0,0,0,0,
0,0,0,0,0,0,0,0,0,0,0,0,0,0,0,0,0,0,0,0,0,0,0,0,0,0,0,0,0,0,0,0,0,0,0,0,0,0,0,0,3023,11907,11907,11907,11907,11907,11907,11907,11907,11907,11907,11907,11907,11907,11907,11907,11907,11907,11907,11907,11907,11907,11907,11907,11907,11907,11907,11907,11907,11907,11907,11907,11907,11907,11907,11907,11907,11907,11907,11907,11907,11907,11907,11907,11907,11907,11907,11907,11907,11907,3023,0,0,0,0,0,0,0,0,0,0,0,0,0,0,0,0,0,0,0,0,0,0,0,0,0,0,0,0,0,0,0,0,0,0,
0,0,0,0,0,0,0,0,0,0,0,0,0,0,0,0,0,0,0,0,0,0,0,0,0,0,0,0,0,0,0,0,0,0,0,0,0,0,0,0,3023,11907,11907,11907,11907,11907,11907,11907,11907,11907,11907,11907,11907,11907,11907,11907,11907,11907,11907,11907,11907,11907,11907,11907,11907,11907,11907,11907,11907,11907,11907,11907,11907,11907,11907,11907,11907,11907,11907,11907,11907,11907,11907,11907,11907,11907,11907,11907,11907,11907,3023,0,0,0,0,0,0,0,0,0,0,0,0,0,0,0,0,0,0,0,0,0,0,0,0,0,0,0,0,0,0,0,0,0,0,
0,0,0,0,0,0,0,0,0,0,0,0,0,0,0,0,0,0,0,0,0,0,0,0,0,0,0,0,0,0,0,0,0,0,0,0,0,0,0,0,3023,11907,11907,11907,11907,11907,11907,11907,11907,11907,11907,11907,11907,11907,11907,11907,11907,11907,11907,11907,11907,11907,11907,11907,11907,11907,11907,11907,11907,11907,11907,11907,11907,11907,11907,11907,11907,11907,11907,11907,11907,11907,11907,11907,11907,11907,11907,11907,11907,3023,0,0,0,0,0,0,0,0,0,0,0,0,0,0,0,0,0,0,0,0,0,0,0,0,0,0,0,0,0,0,0,0,0,0,0,
0,0,0,0,0,0,0,0,0,0,0,0,0,0,0,0,0,0,0,0,0,0,0,0,0,0,0,0,0,0,0,0,0,0,0,0,0,0,0,0,3023,11907,11907,11907,11907,11907,11907,11907,11907,11907,11907,11907,11907,11907,11907,11907,11907,11907,11907,11907,11907,11907,11907,11907,11907,11907,11907,11907,11907,11907,11907,11907,11907,11907,11907,11907,11907,11907,11907,11907,11907,11907,11907,11907,11907,11907,11907,11907,11907,3023,0,0,0,0,0,0,0,0,0,0,0,0,0,0,0,0,0,0,0,0,0,0,0,0,0,0,0,0,0,0,0,0,0,0,0,
0,0,0,0,0,0,0,0,0,0,0,0,0,0,0,0,0,0,0,0,0,0,0,0,0,0,0,0,0,0,0,0,0,0,0,0,0,0,0,0,3023,11907,11907,11907,11907,11907,11907,11907,11907,11907,11907,11907,11907,11907,11907,11907,11907,11907,11907,11907,11907,11907,11907,11907,11907,11907,11907,11907,11907,11907,11907,11907,11907,11907,11907,11907,11907,11907,11907,11907,11907,11907,11907,11907,11907,11907,11907,11907,11907,3023,0,0,0,0,0,0,0,0,0,0,0,0,0,0,0,0,0,0,0,0,0,0,0,0,0,0,0,0,0,0,0,0,0,0,0,
0,0,0,0,0,0,0,0,0,0,0,0,0,0,0,0,0,0,0,0,0,0,0,0,0,0,0,0,0,0,0,0,0,0,0,0,0,0,0,0,3023,11907,11907,11907,11907,11907,11907,11907,11907,11907,11907,11907,11907,11907,11907,11907,11907,11907,11907,11907,11907,11907,11907,11907,11907,11907,11907,11907,11907,11907,11907,11907,11907,11907,11907,11907,11907,11907,11907,11907,11907,11907,11907,11907,11907,11907,11907,11907,11907,3023,0,0,0,0,0,0,0,0,0,0,0,0,0,0,0,0,0,0,0,0,0,0,0,0,0,0,0,0,0,0,0,0,0,0,0,
0,0,0,0,0,0,0,0,0,0,0,0,0,0,0,0,0,0,0,0,0,0,0,0,0,0,0,0,0,0,0,0,0,0,0,0,0,0,0,0,3023,11907,11907,11907,11907,11907,11907,11907,11907,11907,11907,11907,11907,11907,11907,11907,11907,11907,11907,11907,11907,11907,11907,11907,11907,11907,11907,11907,11907,11907,11907,11907,11907,11907,11907,11907,11907,11907,11907,11907,11907,11907,11907,11907,11907,11907,11907,11907,11907,3023,0,0,0,0,0,0,0,0,0,0,0,0,0,0,0,0,0,0,0,0,0,0,0,0,0,0,0,0,0,0,0,0,0,0,0,
0,0,0,0,0,0,0,0,0,0,0,0,0,0,0,0,0,0,0,0,0,0,0,0,0,0,0,0,0,0,0,0,0,0,0,0,0,0,0,3023,3023,11907,11907,11907,11907,11907,11907,11907,11907,11907,11907,11907,11907,11907,11907,11907,11907,11907,11907,11907,11907,11907,11907,11907,11907,11907,11907,11907,11907,11907,11907,11907,11907,11907,11907,11907,11907,11907,11907,11907,11907,11907,11907,11907,11907,11907,11907,11907,11907,3023,0,0,0,0,0,0,0,0,0,0,0,0,0,0,0,0,0,0,0,0,0,0,0,0,0,0,0,0,0,0,0,0,0,0,0,
0,0,0,0,0,0,0,0,0,0,0,0,0,0,0,0,0,0,0,0,0,0,0,0,0,0,0,0,0,0,0,0,0,0,0,0,0,0,0,3023,11907,11907,11907,11907,11907,11907,11907,11907,11907,11907,11907,11907,11907,11907,11907,11907,11907,11907,11907,11907,11907,11907,11907,11907,11907,11907,11907,11907,11907,11907,11907,11907,11907,11907,11907,11907,11907,11907,11907,11907,11907,11907,11907,11907,11907,11907,11907,11907,11907,3023,0,0,0,0,0,0,0,0,0,0,0,0,0,0,0,0,0,0,0,0,0,0,0,0,0,0,0,0,0,0,0,0,0,0,0,
0,0,0,0,0,0,0,0,0,0,0,0,0,0,0,0,0,0,0,0,0,0,0,0,0,0,0,0,0,0,0,0,0,0,0,0,0,0,0,3023,11907,11907,11907,11907,11907,11907,11907,11907,11907,11907,11907,11907,11907,11907,11907,11907,11907,11907,11907,11907,11907,11907,11907,11907,11907,11907,11907,11907,11907,11907,11907,11907,11907,11907,11907,11907,11907,11907,11907,11907,11907,11907,11907,11907,11907,11907,11907,11907,11907,11907,3023,0,0,0,0,0,0,0,0,0,0,0,0,0,0,0,0,0,0,0,0,0,0,0,0,0,0,0,0,0,0,0,0,0,0,
0,0,0,0,0,0,0,0,0,0,0,0,0,0,0,0,0,0,0,0,0,0,0,0,0,0,0,0,0,0,0,0,0,0,0,0,0,0,0,3023,11907,11907,11907,11907,11907,11907,11907,11907,11907,11907,11907,11907,11907,11907,11907,11907,11907,11907,11907,11907,11907,11907,11907,11907,11907,11907,11907,11907,11907,11907,11907,11907,11907,11907,11907,11907,11907,11907,11907,11907,11907,11907,11907,11907,11907,11907,11907,11907,11907,11907,3023,0,0,0,0,0,0,0,0,0,0,0,0,0,0,0,0,0,0,0,0,0,0,0,0,0,0,0,0,0,0,0,0,0,0,
0,0,0,0,0,0,0,0,0,0,0,0,0,0,0,0,0,0,0,0,0,0,0,0,0,0,0,0,0,0,0,0,0,0,0,0,0,0,0,3023,11907,11907,11907,11907,11907,11907,11907,11907,11907,11907,11907,11907,11907,11907,11907,11907,11907,11907,11907,11907,11907,11907,11907,11907,11907,11907,11907,11907,11907,11907,11907,11907,11907,11907,11907,11907,11907,11907,11907,11907,11907,11907,11907,11907,11907,11907,11907,11907,11907,11907,3023,0,0,0,0,0,0,0,0,0,0,0,0,0,0,0,0,0,0,0,0,0,0,0,0,0,0,0,0,0,0,0,0,0,0,
0,0,0,0,0,0,0,0,0,0,0,0,0,0,0,0,0,0,0,0,0,0,0,0,0,0,0,0,0,0,0,0,0,0,0,0,0,0,0,3023,11907,11907,11907,11907,11907,11907,11907,11907,11907,11907,11907,11907,11907,11907,11907,11907,11907,11907,11907,11907,11907,11907,11907,11907,11907,11907,11907,11907,11907,11907,11907,11907,11907,11907,11907,11907,11907,11907,11907,11907,11907,11907,11907,11907,11907,11907,11907,11907,11907,11907,3023,0,0,0,0,0,0,0,0,0,0,0,0,0,0,0,0,0,0,0,0,0,0,0,0,0,0,0,0,0,0,0,0,0,0,
0,0,0,0,0,0,0,0,0,0,0,0,0,0,0,0,0,0,0,0,0,0,0,0,0,0,0,0,0,0,0,0,0,0,0,0,0,0,0,3023,11907,11907,11907,11907,11907,11907,11907,11907,11907,11907,11907,11907,11907,11907,11907,11907,11907,11907,11907,11907,11907,11907,11907,11907,11907,11907,11907,11907,11907,11907,11907,11907,11907,11907,11907,11907,11907,11907,11907,11907,11907,11907,11907,11907,11907,11907,11907,11907,11907,11907,3023,0,0,0,0,0,0,0,0,0,0,0,0,0,0,0,0,0,0,0,0,0,0,0,0,0,0,0,0,0,0,0,0,0,0,
0,0,0,0,0,0,0,0,0,0,0,0,0,0,0,0,0,0,0,0,0,0,0,0,0,0,0,0,0,0,0,0,0,0,0,0,0,0,0,3023,11907,11907,11907,11907,11907,11907,11907,11907,11907,11907,11907,11907,11907,11907,11907,11907,11907,11907,11907,11907,11907,11907,11907,11907,11907,11907,11907,11907,11907,11907,11907,11907,11907,11907,11907,11907,11907,11907,11907,11907,11907,11907,11907,11907,3023,3023,3023,3023,3023,3023,3023,0,0,0,0,0,0,0,0,0,0,0,0,0,0,0,0,0,0,0,0,0,0,0,0,0,0,0,0,0,0,0,0,0,0,
0,0,0,0,0,0,0,0,0,0,0,0,0,0,0,0,0,0,0,0,0,0,0,0,0,0,0,0,0,0,0,0,0,0,0,0,0,0,0,3023,11907,11907,11907,11907,11907,11907,11907,11907,11907,11907,11907,11907,11907,11907,11907,11907,11907,11907,11907,11907,11907,11907,11907,11907,11907,11907,11907,11907,11907,11907,11907,11907,11907,11907,11907,11907,11907,11907,3023,3023,3023,3023,3023,3023,11907,11907,11907,11907,11907,11907,3023,0,0,0,0,0,0,0,0,0,0,0,0,0,0,0,0,0,0,0,0,0,0,0,0,0,0,0,0,0,0,0,0,0,0,
0,0,0,0,0,0,0,0,0,0,0,0,0,0,0,0,0,0,0,0,0,0,0,0,0,0,0,0,0,0,0,0,0,0,0,0,0,0,0,3023,3023,3023,3023,3023,3023,3023,3023,3023,3023,3023,3023,3023,3023,3023,3023,3023,3023,3023,3023,3023,3023,3023,3023,3023,3023,3023,11907,11907,11907,11907,11907,11907,11907,11907,11907,11907,3023,3023,11907,11907,11907,11907,11907,11907,11907,11907,11907,11907,11907,11907,3023,0,0,0,0,0,0,0,0,0,0,0,0,0,0,0,0,0,0,0,0,0,0,0,0,0,0,0,0,0,0,0,0,0,0,
0,0,0,0,0,0,0,0,0,0,0,0,0,0,0,0,0,0,0,0,0,0,0,0,0,0,0,0,0,0,0,0,0,0,0,0,0,0,0,3023,11907,11907,11907,11907,11907,11907,11907,11907,11907,11907,11907,11907,11907,11907,11907,11907,11907,11907,11907,11907,11907,11907,11907,11907,11907,11907,11907,11907,11907,11907,11907,11907,11907,11907,11907,11907,11907,11907,11907,11907,11907,11907,11907,11907,11907,11907,11907,11907,11907,11907,3023,0,0,0,0,0,0,0,0,0,0,0,0,0,0,0,0,0,0,0,0,0,0,0,0,0,0,0,0,0,0,0,0,0,0,
0,0,0,0,0,0,0,0,0,0,0,0,0,0,0,0,0,0,0,0,0,0,0,0,0,0,0,0,0,0,0,0,0,0,0,0,0,0,0,3023,11907,11907,11907,11907,11907,11907,11907,11907,11907,11907,11907,11907,11907,11907,11907,11907,11907,11907,11907,11907,11907,11907,11907,11907,11907,11907,11907,11907,11907,11907,11907,11907,11907,11907,11907,11907,11907,11907,11907,11907,11907,11907,11907,11907,11907,11907,11907,11907,11907,11907,3023,0,0,0,0,0,0,0,0,0,0,0,0,0,0,0,0,0,0,0,0,0,0,0,0,0,0,0,0,0,0,0,0,0,0,
0,0,0,0,0,0,0,0,0,0,0,0,0,0,0,0,0,0,0,0,0,0,0,0,0,0,0,0,0,0,0,0,0,0,0,0,0,0,0,3023,11907,11907,11907,11907,11907,11907,11907,11907,11907,11907,11907,11907,11907,11907,11907,11907,11907,11907,11907,11907,11907,11907,11907,11907,11907,11907,11907,11907,11907,11907,11907,11907,11907,11907,11907,11907,11907,11907,11907,11907,11907,11907,11907,11907,11907,11907,11907,11907,11907,11907,3023,0,0,0,0,0,0,0,0,0,0,0,0,0,0,0,0,0,0,0,0,0,0,0,0,0,0,0,0,0,0,0,0,0,0,
0,0,0,0,0,0,0,0,0,0,0,0,0,0,0,0,0,0,0,0,0,0,0,0,0,0,0,0,0,0,0,0,0,0,0,0,0,0,0,3023,11907,11907,11907,11907,11907,11907,11907,11907,11907,11907,11907,11907,11907,11907,11907,11907,11907,11907,11907,11907,11907,11907,11907,11907,11907,11907,11907,11907,11907,11907,11907,11907,11907,11907,11907,11907,11907,11907,11907,11907,11907,11907,11907,11907,11907,11907,11907,11907,11907,11907,3023,0,0,0,0,0,0,0,0,0,0,0,0,0,0,0,0,0,0,0,0,0,0,0,0,0,0,0,0,0,0,0,0,0,0,
0,0,0,0,0,0,0,0,0,0,0,0,0,0,0,0,0,0,0,0,0,0,0,0,0,0,0,0,0,0,0,0,0,0,0,0,0,0,0,3023,11907,11907,11907,11907,11907,11907,11907,11907,11907,11907,11907,11907,11907,11907,11907,11907,11907,11907,11907,11907,11907,11907,11907,11907,11907,11907,11907,11907,11907,11907,11907,11907,11907,11907,11907,11907,11907,11907,11907,11907,11907,11907,11907,11907,11907,11907,11907,11907,11907,11907,3023,0,0,0,0,0,0,0,0,0,0,0,0,0,0,0,0,0,0,0,0,0,0,0,0,0,0,0,0,0,0,0,0,0,0,
0,0,0,0,0,0,0,0,0,0,0,0,0,0,0,0,0,0,0,0,0,0,0,0,0,0,0,0,0,0,0,0,0,0,0,0,0,0,0,3023,11907,11907,11907,11907,11907,11907,11907,11907,11907,11907,11907,11907,11907,11907,11907,11907,11907,11907,11907,11907,11907,11907,11907,11907,11907,11907,11907,11907,11907,11907,11907,11907,11907,11907,11907,11907,11907,11907,11907,11907,11907,11907,11907,11907,11907,11907,11907,11907,11907,11907,3023,0,0,0,0,0,0,0,0,0,0,0,0,0,0,0,0,0,0,0,0,0,0,0,0,0,0,0,0,0,0,0,0,0,0,
0,0,0,0,0,0,0,0,0,0,0,0,0,0,0,0,0,0,0,0,0,0,0,0,0,0,0,0,0,0,0,0,0,0,0,0,0,0,0,3023,11907,11907,11907,11907,11907,11907,11907,11907,11907,11907,11907,11907,11907,11907,11907,11907,11907,11907,11907,11907,11907,11907,11907,11907,11907,11907,11907,11907,11907,11907,11907,11907,11907,11907,11907,11907,11907,11907,11907,11907,11907,11907,11907,11907,11907,11907,11907,11907,11907,11907,3023,0,0,0,0,0,0,0,0,0,0,0,0,0,0,0,0,0,0,0,0,0,0,0,0,0,0,0,0,0,0,0,0,0,0,
0,0,0,0,0,0,0,0,0,0,0,0,0,0,0,0,0,0,0,0,0,0,0,0,0,0,0,0,0,0,0,0,0,0,0,0,0,0,0,3023,11907,11907,11907,11907,11907,11907,11907,11907,11907,11907,11907,11907,11907,11907,11907,11907,11907,11907,11907,11907,11907,11907,11907,11907,11907,11907,11907,11907,11907,11907,11907,11907,11907,11907,11907,11907,11907,11907,11907,11907,11907,11907,11907,11907,11907,11907,11907,11907,11907,11907,3023,0,0,0,0,0,0,0,0,0,0,0,0,0,0,0,0,0,0,0,0,0,0,0,0,0,0,0,0,0,0,0,0,0,0,
0,0,0,0,0,0,0,0,0,0,0,0,0,0,0,0,0,0,0,0,0,0,0,0,0,0,0,0,0,0,0,0,0,0,0,0,0,0,0,3023,11907,11907,11907,11907,11907,11907,11907,11907,11907,11907,11907,11907,11907,11907,11907,11907,11907,11907,11907,11907,11907,11907,11907,11907,3023,11907,11907,11907,11907,11907,11907,11907,11907,11907,11907,11907,11907,11907,11907,11907,11907,11907,11907,11907,11907,11907,11907,11907,11907,11907,3023,0,0,0,0,0,0,0,0,0,0,0,0,0,0,0,0,0,0,0,0,0,0,0,0,0,0,0,0,0,0,0,0,0,0,
0,0,0,0,0,0,0,0,0,0,0,0,0,0,0,0,0,0,0,0,0,0,0,0,0,0,0,0,0,0,0,0,0,0,0,0,0,0,0,0,3023,11907,11907,11907,11907,11907,11907,11907,11907,11907,11907,11907,11907,11907,11907,11907,11907,11907,11907,11907,11907,11907,11907,11907,11907,11907,11907,11907,11907,11907,11907,11907,11907,11907,11907,11907,11907,11907,11907,11907,11907,11907,11907,11907,11907,11907,11907,11907,11907,11907,3023,0,0,0,0,0,0,0,0,0,0,0,0,0,0,0,0,0,0,0,0,0,0,0,0,0,0,0,0,0,0,0,0,0,0,
0,0,0,0,0,0,0,0,0,0,0,0,0,0,0,0,0,0,0,0,0,0,0,0,0,0,0,0,0,0,0,0,0,0,0,0,0,0,0,0,3023,11907,11907,11907,11907,11907,11907,11907,11907,11907,11907,11907,11907,11907,11907,11907,11907,11907,11907,11907,11907,11907,11907,11907,11907,11907,11907,11907,11907,11907,11907,11907,11907,11907,11907,11907,11907,11907,11907,11907,11907,11907,11907,11907,11907,11907,11907,11907,11907,11907,3023,0,0,0,0,0,0,0,0,0,0,0,0,0,0,0,0,0,0,0,0,0,0,0,0,0,0,0,0,0,0,0,0,0,0,
0,0,0,0,0,0,0,0,0,0,0,0,0,0,0,0,0,0,0,0,0,0,0,0,0,0,0,0,0,0,0,0,0,0,0,0,0,0,0,0,3023,11907,11907,11907,11907,11907,11907,11907,11907,11907,11907,11907,11907,11907,11907,11907,11907,11907,11907,11907,11907,11907,11907,11907,11907,11907,11907,11907,11907,11907,11907,11907,11907,11907,11907,11907,11907,11907,11907,11907,11907,11907,11907,11907,11907,11907,11907,11907,11907,11907,3023,0,0,0,0,0,0,0,0,0,0,0,0,0,0,0,0,0,0,0,0,0,0,0,0,0,0,0,0,0,0,0,0,0,0,
0,0,0,0,0,0,0,0,0,0,0,0,0,0,0,0,0,0,0,0,0,0,0,0,0,0,0,0,0,0,0,0,0,0,0,0,0,0,0,0,3023,11907,11907,11907,11907,11907,11907,11907,11907,11907,11907,11907,11907,11907,11907,11907,11907,11907,11907,11907,11907,11907,11907,11907,11907,11907,11907,11907,11907,11907,11907,11907,11907,11907,11907,11907,11907,11907,11907,11907,11907,11907,11907,11907,11907,11907,11907,11907,11907,11907,3023,0,0,0,0,0,0,0,0,0,0,0,0,0,0,0,0,0,0,0,0,0,0,0,0,0,0,0,0,0,0,0,0,0,0,
0,0,0,0,0,0,0,0,0,0,0,0,0,0,0,0,0,0,0,0,0,0,0,0,0,0,0,0,0,0,0,0,0,0,0,0,0,0,0,0,3023,11907,11907,11907,11907,11907,11907,11907,11907,11907,11907,11907,11907,11907,11907,11907,11907,11907,11907,11907,11907,11907,11907,11907,11907,11907,11907,11907,11907,11907,11907,11907,11907,11907,11907,11907,11907,11907,11907,11907,11907,11907,11907,11907,11907,11907,11907,11907,11907,11907,3023,0,0,0,0,0,0,0,0,0,0,0,0,0,0,0,0,0,0,0,0,0,0,0,0,0,0,0,0,0,0,0,0,0,0,
0,0,0,0,0,0,0,0,0,0,0,0,0,0,0,0,0,0,0,0,0,0,0,0,0,0,0,0,0,0,0,0,0,0,0,0,0,0,0,0,3023,11907,11907,11907,11907,11907,11907,11907,11907,11907,11907,11907,11907,11907,11907,11907,11907,11907,11907,11907,11907,11907,11907,11907,11907,11907,11907,11907,11907,11907,11907,11907,11907,11907,11907,11907,11907,11907,11907,11907,11907,11907,11907,11907,11907,11907,11907,11907,11907,11907,3023,0,0,0,0,0,0,0,0,0,0,0,0,0,0,0,0,0,0,0,0,0,0,0,0,0,0,0,0,0,0,0,0,0,0,
0,0,0,0,0,0,0,0,0,0,0,0,0,0,0,0,0,0,0,0,0,0,0,0,0,0,0,0,0,0,0,0,0,0,0,0,0,0,0,0,3023,11907,11907,11907,11907,11907,11907,11907,11907,11907,11907,11907,11907,11907,11907,11907,11907,11907,11907,11907,11907,11907,11907,11907,11907,11907,11907,11907,11907,11907,11907,11907,11907,11907,11907,11907,11907,11907,11907,11907,11907,11907,11907,11907,11907,11907,11907,11907,11907,11907,3023,0,0,0,0,0,0,0,0,0,0,0,0,0,0,0,0,0,0,0,0,0,0,0,0,0,0,0,0,0,0,0,0,0,0,
0,0,0,0,0,0,0,0,0,0,0,0,0,0,0,0,0,0,0,0,0,0,0,0,0,0,0,0,0,0,0,0,0,0,0,0,0,0,0,0,3023,11907,11907,11907,11907,11907,11907,11907,11907,11907,11907,11907,11907,11907,11907,11907,11907,11907,11907,11907,11907,11907,11907,11907,11907,11907,11907,11907,11907,11907,11907,11907,11907,11907,11907,11907,11907,11907,11907,11907,11907,11907,11907,11907,11907,11907,11907,11907,11907,11907,3023,0,0,0,0,0,0,0,0,0,0,0,0,0,0,0,0,0,0,0,0,0,0,0,0,0,0,0,0,0,0,0,0,0,0,
0,0,0,0,0,0,0,0,0,0,0,0,0,0,0,0,0,0,0,0,0,0,0,0,0,0,0,0,0,0,0,0,0,0,0,0,0,0,0,0,3023,11907,11907,11907,11907,11907,11907,11907,11907,11907,11907,11907,11907,11907,11907,11907,11907,11907,11907,11907,3023,3023,3023,3023,3023,3023,3023,3023,3023,3023,3023,3023,3023,3023,3023,3023,3023,3023,3023,3023,3023,3023,11907,11907,11907,11907,11907,11907,11907,11907,3023,0,0,0,0,0,0,0,0,0,0,0,0,0,0,0,0,0,0,0,0,0,0,0,0,0,0,0,0,0,0,0,0,0,0,
0,0,0,0,0,0,0,0,0,0,0,0,0,0,0,0,0,0,0,0,0,0,0,0,0,0,0,0,0,0,0,0,0,0,0,0,0,0,0,0,3023,3023,3023,3023,3023,3023,3023,3023,3023,3023,3023,3023,3023,3023,3023,3023,3023,3023,3023,3023,0,0,0,0,0,0,0,0,0,0,0,0,0,0,0,0,0,0,0,0,0,3023,3023,3023,3023,3023,3023,3023,3023,3023,3023,0,0,0,0,0,0,0,0,0,0,0,0,0,0,0,0,0,0,0,0,0,0,0,0,0,0,0,0,0,0,0,0,0,0
</data>
 </layer>
</map>
