<?xml version="1.0" encoding="UTF-8"?>
<map version="1.10" tiledversion="1.12.1" orientation="orthogonal" renderorder="right-down" width="72" height="55" tilewidth="32" tileheight="32" infinite="0" nextlayerid="2" nextobjectid="1">
 <tileset firstgid="1" name="terrain" tilewidth="32" tileheight="32" tilecount="9472" columns="64">
  <image source="terrain.png" width="2060" height="4760"/>
 </tileset>
 <layer id="1" name="Tile Layer 1" width="72" height="55">
  <data encoding="csv">
3024,3024,3024,3024,3024,3024,3024,3024,3024,3022,3024,3024,3024,3024,3024,3024,3024,3024,3024,3024,3022,3024,3024,3024,3024,3024,3024,3024,3024,3024,3024,3024,3024,3024,3024,3024,3024,3024,3024,3024,3024,3024,3024,3024,3024,3024,3024,3024,3024,3024,3024,3024,3024,3024,3024,3024,3024,3024,3024,3024,3024,3024,3024,3024,3024,3024,3024,3024,3024,3024,3024,3024,
3086,3024,3024,3024,3022,3024,3024,3086,1218,3024,3024,3024,3024,3024,3086,3024,3024,3024,3024,3024,3024,3024,3024,3024,3024,3024,1218,1218,3022,3024,3024,3024,3024,3024,3024,3024,3024,3024,3024,3022,3022,3022,3024,3024,3024,3024,3024,3024,3024,3024,3024,3024,3024,3024,3024,3024,3024,3024,3024,3024,3024,3024,3024,3024,3024,3024,3024,3024,3024,3024,3024,3024,
3024,3024,3022,3024,3024,3024,3024,3024,3024,3024,3024,3022,3024,3024,3024,3024,3024,3022,3024,3024,3024,3024,3024,3022,3024,3022,3024,3024,3024,3024,3024,3024,3024,3024,3024,3024,3024,3024,3024,3024,3024,3024,3024,3024,3024,3024,3024,3024,3024,3024,3024,3024,3024,3024,3024,3024,3024,3024,3024,3024,3024,3024,3024,3024,3024,3024,3024,3024,3024,3024,3024,3024,
3024,3024,3024,3024,3024,3024,3024,3024,3022,3024,3024,3023,3024,3022,3024,3024,3024,3024,3024,3024,3024,3086,3024,3024,3024,3024,3024,3024,3024,3024,3024,3024,1218,3024,3024,3024,3024,1218,3024,3024,3024,3024,3024,3024,3086,3024,3024,3024,3024,3024,3024,3022,3022,3024,3024,3024,3024,3022,3024,3024,3024,3024,3024,3024,3022,3024,3024,3024,3024,3024,3024,3024,
3024,3024,3024,3024,3024,3024,3024,3024,3024,3024,3024,3024,3024,3024,3024,3024,3024,3024,3024,3024,3022,3024,3024,3024,3024,3024,3024,3024,3024,3024,3024,3024,3024,3024,3024,3024,3024,3024,3024,3024,3024,3024,1218,3024,3086,3024,3024,3086,3022,3022,3022,3022,3024,3022,3024,3022,3024,3022,3024,3024,3024,3024,3024,3024,3022,3024,3086,3024,3024,3024,3024,3024,
3024,3024,3024,3024,3086,3024,3022,3024,3024,3024,3024,3024,3024,3024,3024,3024,3022,3024,3024,3024,3024,3024,3024,3022,3024,3024,3024,3022,3024,3024,3024,3024,3024,3024,3024,3022,3024,3024,1218,3024,3024,3024,1218,3024,3024,3086,3024,3024,3024,1218,3024,3024,3024,3022,3024,3024,3024,3024,1218,3024,3024,3024,3024,3024,3024,3024,3024,3024,3024,3024,3086,3024,
3024,3024,3022,3024,3024,3024,3024,3024,3024,3024,3024,3024,3024,3024,3024,3024,3024,3024,3024,3024,3024,3024,3024,3024,3024,3024,3024,3024,3024,3024,3024,3024,3024,1218,3024,3022,3024,3024,3024,3024,3024,3022,3022,3024,3024,3086,3024,3086,3024,3024,3024,3024,3024,3022,3024,3024,3024,3024,1218,3024,3086,3024,3024,3024,3024,3024,3022,3024,3024,3024,3024,3024,
3024,3024,3024,3024,3024,3086,3086,3086,3024,3024,3022,3024,3024,3022,3024,1218,3024,3024,3022,3024,3024,3024,1218,3086,3024,3024,3022,3024,3024,3024,3024,3024,3086,1218,3024,3024,3024,3086,3024,3024,3024,3024,3024,3024,3024,3086,3086,3086,3024,3024,3024,3024,3024,3024,3024,3024,3024,3024,3024,3024,3086,3024,3024,3024,3024,3024,3086,3022,3024,3024,3024,3024,
3024,3024,3024,3086,3024,3024,3024,3024,3086,3086,3024,3024,3024,3024,3024,3024,3024,3024,3024,3024,3024,3024,3024,3024,3024,3024,3024,3024,3086,3086,3024,3086,3024,3022,3024,3024,3024,3086,3024,3024,3024,3024,3024,3024,3024,3024,3086,3024,3024,3024,3024,3024,1218,1218,3024,3024,3024,3024,3024,3024,3024,3024,3024,3024,3024,3024,3024,3022,3024,3024,3024,3024,
3022,3024,3086,3024,3024,3022,3024,3024,3024,3024,3024,3024,3024,3024,3022,3024,3024,3024,3024,3024,3024,3022,3024,3023,3024,3024,3024,1218,3024,3024,3086,3086,3022,3022,3024,3024,3024,3024,3024,3024,3024,3022,3024,3024,3024,3024,3024,3024,3024,3024,3024,3024,3022,3022,3024,3024,3024,3024,3024,3024,3024,3022,3024,3024,3024,3086,3024,3024,3024,3024,3024,3024,
3024,3024,3086,3024,3024,3024,3024,3024,3022,3024,3024,3024,3024,3024,3024,3024,3024,3024,3024,3024,3024,3024,3024,3024,3024,3024,3022,3024,3024,3024,3024,3024,3022,3024,3024,3024,3024,3024,3024,3024,3022,3022,3024,3024,3024,3024,3024,3024,3024,3024,3024,3024,3024,3022,3022,3022,3024,3024,3024,3024,3024,3022,3022,3024,3024,1218,3024,3022,3024,3024,3024,3024,
3024,3024,3086,3024,3024,3024,3024,3024,3024,3024,3024,3024,3024,3024,3024,3024,3024,3022,3024,3024,3024,3024,3024,3024,3024,3024,3024,3024,3024,3024,3024,3024,3024,3024,3024,3024,3024,3024,3024,3022,3086,3022,3024,3024,3024,3024,3024,3024,3022,3024,3024,3024,3024,3024,3024,3024,1218,3022,3022,3024,3024,3024,3024,3024,3024,3086,3022,3024,3024,3024,3024,3024,
3024,3024,3086,3024,3024,3024,3024,3024,3024,3024,3024,3024,3022,1218,3024,3086,3024,3024,3024,3086,3024,3024,3024,3022,3024,3024,3024,3024,3024,3024,3022,3024,3024,3024,3024,3024,3024,3086,3024,3086,3086,3022,3024,3024,3024,3024,3024,3024,3022,1218,3024,3024,3024,3024,3024,3024,3024,3024,3024,3024,3022,3024,3024,3024,3024,3086,3022,3024,3024,3024,3024,3024,
3024,3086,3022,3024,3024,3024,3022,3024,1218,3024,3024,3024,3024,3024,3024,3024,3024,3024,3024,3024,3024,3024,3024,3024,3024,3024,3086,3024,3024,3024,3022,3024,3024,3024,3024,3024,3024,3086,3024,3086,3022,3024,3024,3022,1218,3022,3024,3024,3024,3024,3024,3024,3024,3024,3024,3024,3024,3024,3024,3024,3022,3022,3024,3024,3024,3086,3022,3024,3024,3024,3024,3024,
3024,3086,3024,3024,3024,3024,3024,3024,1218,3024,3024,3024,3023,3024,3024,3024,3024,3024,3024,3024,3024,3024,3024,3024,3024,3024,3024,3024,3086,3024,3022,3024,3024,3024,3024,3024,3024,3086,3024,3024,3024,3024,3024,3024,3022,3024,3024,3024,3024,3024,3024,3024,3024,3024,3024,3024,3024,3022,3024,3024,3024,3022,3024,3024,3024,3086,3024,3024,3024,3024,3024,3024,
3024,3086,3024,3022,3024,3024,3024,3024,3024,3022,3024,3024,3024,3024,3022,3024,3024,3024,3024,3024,3022,3024,3024,3022,3024,3024,3024,3024,3024,3024,3022,3022,3022,3024,3024,3024,3086,3022,3086,3024,3024,3024,3024,3024,3022,3024,3024,3024,3024,3024,3024,3024,3024,3024,3024,3024,3024,3022,3024,3024,3024,3024,3024,3024,3024,3086,3024,3024,3024,3024,3024,3024,
3024,3024,3024,3024,3024,3024,3024,3024,3024,3024,3024,3024,3024,3024,3024,3024,3086,3086,3086,3024,3024,3024,3024,3024,3024,3024,3022,3024,3024,3022,3022,3024,3022,3022,3022,1218,3022,3024,3086,3024,3024,3024,3024,3024,3024,3024,3024,3024,3024,3024,3024,3024,3024,3024,3024,3024,3024,3024,3024,3024,3024,3024,3024,3022,3022,3024,3024,3024,3024,3024,3024,3024,
3024,3024,3024,3024,3024,3086,3024,3086,3024,3024,3024,3024,3086,3086,3086,3024,3086,3024,3086,3024,3024,3024,3024,3024,3024,3024,3024,3024,3024,3086,3024,3024,3024,3024,3024,1218,3024,3024,3086,3024,3024,3024,3024,3024,3024,3024,3024,3024,3024,3024,3024,3024,3024,3024,3024,3024,3024,3024,3024,3024,3024,3024,3024,1218,3024,3024,3024,3024,3024,3024,3024,1218,
3024,3022,3024,3024,3024,3022,3024,3024,3024,3024,3086,3022,3024,3024,3086,3086,3086,3024,3086,3024,3024,3024,3022,3024,3024,3024,3024,3022,3022,3086,3086,3024,3024,3024,3024,3024,3024,3024,3022,3086,3024,3024,3024,3024,3024,3024,3022,3024,3024,1218,3024,3024,3022,3024,3024,3022,3024,3022,3022,3022,3022,3022,3024,3024,3024,3024,3024,3086,3024,3024,3024,3024,
3086,3024,3024,3024,3024,3024,3024,3024,3086,3086,3024,3024,3024,3024,3024,3024,3086,3086,3086,3024,3024,3024,3024,3024,3086,3024,3022,3086,3022,3024,3024,3024,3024,3024,3024,3086,3086,3024,3022,3086,3024,3024,3022,3024,3024,3024,3024,3022,3024,3024,3086,3024,3022,3086,3086,3022,3022,3024,3024,3024,3022,3022,3024,3022,3024,3024,3024,3024,3024,3024,3024,3024,
3086,3024,3024,3022,3022,3022,3022,3024,3024,3086,3086,3086,3086,3086,1218,3086,3024,3024,3024,3024,3024,3024,3024,3024,3086,3086,3086,3024,3024,3024,3024,3024,3024,3024,3024,3024,3024,3024,3022,3086,3024,3024,3022,3024,3024,3024,3024,3022,3024,3024,3086,3024,3024,3086,3086,3086,3086,3024,3024,3024,3024,3024,3024,3022,3024,3024,3024,3024,3024,3024,3024,3024,
3086,3024,3024,3024,3024,3024,3024,3024,3024,3024,3024,1218,1218,3022,3024,3024,3024,3024,3024,3024,1218,1218,3024,3024,3022,3022,3024,3024,3024,3024,3024,3024,3024,3024,3024,3024,3024,3024,3024,3086,3024,3022,3024,3024,3024,3024,3024,3024,3024,1218,3086,3024,3024,3024,3024,3022,3024,3086,3086,3022,3024,3024,3022,3022,3024,3024,3024,1218,3024,3024,3024,3024,
3024,1218,3024,3024,3024,3024,3024,3024,3024,3024,3024,3024,3024,3022,3024,3024,3024,3024,3024,3024,1218,3024,3024,3022,3024,3024,3024,3024,3024,3024,3024,3024,3024,3024,3024,3024,3024,1218,3024,1218,3022,3024,3024,3024,3024,3024,3024,3022,3024,3024,3086,3022,3024,3024,3022,3024,3024,3024,3024,3022,3022,3022,3024,3022,3024,3024,3086,1218,3024,3024,3024,3024,
3024,1218,3024,3024,3024,3024,3024,3024,3024,3024,3024,3024,3024,3024,3024,3024,3024,3024,3024,3024,3024,3024,3024,3024,3024,3024,3024,3024,3024,3024,3024,3024,3022,3024,3024,3024,3022,3024,3024,3024,3086,3024,3024,3024,3022,3022,3022,3022,3024,3024,3024,3022,3024,3022,3024,3024,3024,3024,3024,3022,3022,1218,1218,3022,3024,3086,3024,3024,3024,3024,3024,3024,
3024,3024,3024,3024,3024,3024,3024,3086,3086,3024,3024,3024,3024,3024,3024,3022,3022,3024,3024,3024,3024,3024,3024,3086,3086,3024,3024,3024,3024,3086,3086,3024,3086,3024,3024,3024,3022,3024,3024,3024,3086,3024,3024,3024,3024,3024,3024,3024,3024,3024,3024,3022,3022,3022,3024,3024,3024,3024,3024,3024,3022,3024,3024,3022,3086,3024,3024,3024,3024,3024,3024,3024,
3024,3024,3024,3024,3024,3024,3024,3022,3024,3024,3024,3024,3024,3024,3022,3024,3024,3024,3024,3024,3024,3024,3024,3024,3086,3024,3086,3024,3024,3024,3024,3024,3024,3024,3024,3022,3022,3024,3024,3024,3086,3024,3024,3024,3024,1218,3024,3086,3024,3024,3024,3024,3022,3022,3024,3024,3024,3024,1218,3024,3022,3024,3086,3086,3024,3024,3024,3024,3024,3024,3024,3022,
3024,3024,3086,3024,3024,3024,3024,1218,3022,3024,3024,3024,3024,3022,3022,3024,3024,3024,3024,3024,3024,3024,3022,3024,3086,3086,3024,3024,3024,1218,1218,3022,3024,3024,3024,3022,3024,3024,3024,3024,3086,3024,3024,3024,3024,3024,3022,3024,3024,3024,3086,3024,3024,3022,3022,3024,3024,3024,3024,3024,3086,3086,3022,3024,3024,3024,3024,3024,3024,3024,1218,3022,
3086,3086,3024,3024,3022,3024,3024,1218,3024,3024,3024,3024,3022,3022,3024,3024,3024,3024,3024,3024,3024,3024,3022,3022,3024,3024,3024,3024,3024,1218,3022,3024,3024,3024,3024,3024,3024,3024,3024,3024,3086,3024,3024,3024,3024,3024,3024,3024,3024,3024,3024,3024,3024,3024,3024,3022,3024,3024,3024,3086,3086,3024,3024,3024,3024,3024,3024,3024,3024,3024,3022,3024,
3024,3024,3024,3024,3022,3024,3024,3024,3024,3024,3024,3024,3024,3024,3024,3024,3024,3024,3024,3024,3024,3024,3022,3024,3024,3024,3086,3024,3022,3022,3024,3024,3024,3024,3024,3024,3024,3024,3024,3024,3086,3024,3022,1218,3024,3024,3024,3086,3024,3024,3024,3024,3024,3024,3024,3024,3022,3024,3024,3024,3024,3024,3024,3024,3024,3024,3024,3024,3024,3024,3022,3024,
3024,3024,3024,3024,3022,3024,3024,3024,3024,1218,3024,3024,3024,3024,3024,3024,3024,1218,3024,3022,3024,3086,3022,3024,3024,3024,3086,3024,3024,3024,3024,3024,3024,3024,3024,3024,3086,3086,3086,3024,3086,3024,3024,3024,3024,3024,3024,3024,3024,3024,3086,3024,3022,3024,3024,3024,3022,3024,3024,3024,3024,3024,3024,3024,3024,3024,3024,3024,3024,3024,3022,3024,
3024,3024,3024,3024,3022,3024,3024,3024,3024,3024,3024,3024,3024,3024,3024,3024,3024,3024,3024,3024,3024,3086,3022,3024,3024,3024,3024,3024,3024,3024,3024,3024,3024,3024,3024,3024,3022,1218,3024,3024,3086,3024,3024,3024,3024,3024,3024,3024,3024,3024,3086,3022,3022,3024,3024,3024,3024,3022,3024,3024,3024,1218,3022,3022,3024,3024,3024,3024,3024,3024,3022,3024,
3024,3024,3024,3024,3022,3024,3024,3024,3024,3024,3024,3024,3024,3022,3024,3024,3024,3024,3024,3024,3024,3024,3024,3024,3024,3024,3024,3024,3024,3024,3024,3024,3024,3024,3024,3024,3024,3022,3024,3024,3024,3086,3024,3024,3024,3086,3022,3024,3024,3086,3024,3024,3024,3024,3024,3024,3024,3022,3024,3024,3024,3024,3022,3024,3024,3024,1218,3024,3024,3024,3022,3024,
3024,3024,3024,3024,3024,3024,3024,3024,3022,3022,3024,3024,3086,3086,1218,3024,3024,3024,3024,3024,3024,3024,3024,3024,3024,3024,3024,3024,3086,3024,3024,3086,3024,3024,3024,3024,3024,3024,3024,3024,3024,3086,3024,3024,3024,3024,3022,3024,3024,1218,3024,3086,3024,3024,3086,3024,3024,1218,3024,3086,3024,3024,3024,3024,3024,3024,1218,1218,3024,3022,3024,3024,
3024,3024,3024,3024,3024,3024,3024,3022,3022,3024,3086,3086,3024,3022,3024,3024,3024,3024,3024,3024,3024,3024,3024,3022,3024,3024,3024,3022,3024,3024,3024,3024,3024,3024,3024,3022,3024,3022,3024,3024,3024,3086,3024,3024,3024,3024,3024,3024,3086,3024,3024,3086,3024,3024,3086,3024,3024,3022,3024,3086,3024,3024,3024,3024,3024,3024,3024,3024,3022,3024,3024,3024,
3024,3024,3024,3024,3024,3024,3024,3086,3086,3086,3024,3024,3024,3024,3024,3024,3024,3024,3024,3024,3024,3024,3024,3024,3086,3024,3024,3086,3024,3024,3024,3024,3024,3024,3024,3024,3024,3024,3024,3024,3024,3086,3024,3024,3024,3024,3024,3024,3086,3024,3024,3024,3024,3024,3024,3024,3024,3022,3086,3024,3024,3024,3024,3024,3024,3022,3024,3022,3024,3024,3024,3024,
3024,3024,3024,3024,3022,3024,3024,3024,3024,3024,3024,3024,3024,3022,3024,3024,3024,3024,1218,3024,3024,3024,3024,3024,3086,3086,3086,3024,3024,3024,3024,3024,3086,3086,3086,3024,3024,3024,3022,3022,3086,1218,3024,3024,3022,3024,3024,3024,3024,3024,3024,3024,3024,3024,3024,3024,3022,3024,3022,3024,3024,3024,3024,3024,3024,3024,3022,3024,3024,3024,1218,3024,
3024,3024,3024,3024,3024,3022,3024,3024,3024,3024,3024,3024,3024,3022,3024,3024,3022,3022,3024,3024,3024,3024,3024,3024,3024,3024,3024,3024,3024,3024,3024,3024,3086,3024,3024,3024,3024,3024,3086,3086,3024,1218,1218,3024,3022,3024,3024,3024,3024,3024,3024,3022,3086,3024,3024,3024,3024,3024,3024,3024,3024,3024,3024,3024,3022,3022,3022,3024,3024,3024,3024,3024,
3024,3024,3024,3024,3024,3024,3024,3024,3024,3024,3024,3024,3024,3024,3024,3024,3024,3022,3022,3022,3024,3024,3024,3024,3024,3024,3024,3024,3024,3024,3086,3086,3024,3024,3024,3024,3086,3086,3024,3022,3024,3024,3022,3022,3022,3024,3024,3024,3024,3024,3024,3024,3086,3024,3024,3024,3024,3024,3024,3022,3024,3024,3022,3022,3024,3024,3024,3022,3024,3024,3024,3024,
3024,3024,3024,3024,3024,3024,3024,3024,3022,3022,3024,3024,3024,3024,3024,3024,3024,3022,3024,3024,3024,3024,3024,3024,3024,3024,3024,3024,3024,3086,3024,3024,3024,3024,3024,3086,3024,3024,3024,3024,3024,3024,3024,3024,3022,3022,3024,3024,3024,3024,3024,3024,3024,3024,3024,3086,3024,3024,3024,3022,3022,3022,3024,3024,3024,3024,3024,3022,3024,3024,3024,3024,
3024,3024,3024,3024,3024,3022,3024,3024,3024,3022,3024,1218,3024,3024,3024,3024,3024,3024,3086,3024,3024,3086,3024,3024,3024,3024,3086,3086,3086,3086,3024,3024,3024,3024,3086,3024,3024,3024,3022,3022,3024,3024,3024,3024,3024,3024,3024,3086,3024,3024,3086,3024,1218,3024,3024,3024,3022,3022,3022,3022,3022,3024,3024,3024,3024,3024,3024,3022,3024,3024,3024,3024,
3024,3024,3024,3024,3086,3024,3024,3024,3024,3024,3022,3024,3024,3024,3024,3024,3024,3024,3086,3024,3086,3022,3024,3024,3024,3024,3086,3024,3024,3024,3024,3022,3022,3086,3024,3024,3024,3024,3024,3024,3024,3086,3024,3024,3024,3024,3086,3086,3024,3024,3024,3024,3024,1218,3086,3024,3024,3024,3024,3022,3022,3024,3024,3024,3024,3024,1218,3024,3022,3024,3024,3024,
3024,3024,3024,3024,3086,1218,3024,3024,3024,3024,3024,3022,3022,3022,3024,3024,3024,3024,3024,3086,3024,3024,3024,3024,3024,3024,3086,3024,3024,3024,3024,3024,3086,3024,3024,3024,3024,3024,3024,3024,3086,3086,3024,3024,3086,3086,3024,3024,3024,3024,3024,3024,3024,3024,3024,3024,1218,3024,3024,3022,3022,3024,3024,3024,3086,3024,3024,3024,3022,3024,3024,3024,
3024,3024,3024,3022,3086,3024,3024,3022,3024,3024,3024,3024,3022,3024,3024,3024,3024,3024,3086,3086,3024,3024,3024,3024,3024,3024,3086,3024,3024,3024,3024,3024,3024,3024,3024,3022,3024,3024,3022,3024,3086,1218,1218,3024,3086,3024,3022,3024,3024,3024,3024,3024,3024,3024,3024,3024,1218,3024,3022,3024,3022,3024,3024,3024,3024,3086,3024,3024,3022,3024,3024,3024,
3024,3024,3024,3024,3086,3024,3024,3022,3022,3024,3024,3024,3024,3024,3024,3024,3086,3086,3024,3024,3024,3024,3024,3024,3024,3024,3086,3024,3024,3024,3024,3022,3022,3022,3022,3022,3022,3024,3024,3024,3024,3024,3024,3024,3024,3024,3022,3022,3024,3024,3024,3024,3024,3024,3024,3024,3024,3024,3022,3024,3022,3024,3024,3024,3024,3024,3024,3024,3024,3024,3024,3024,
3024,3024,3024,3024,3022,3024,3024,3024,3022,3024,3024,3024,3024,3024,3024,3024,3086,3024,3024,3024,3024,3024,3024,3024,3024,3024,3086,3024,3024,3024,3024,3024,3024,3024,3024,3024,3022,3022,3022,3022,3024,3024,3086,3086,3086,3086,3024,3022,3024,3024,3024,1218,3024,3024,3086,3024,3024,3024,3024,3024,3022,1218,3024,3024,3024,3024,3024,1218,3024,3024,3024,3024,
3024,3024,3024,3024,3022,3024,3024,3024,3024,3024,3024,3024,3024,3024,3024,3024,1218,3024,3024,3024,3024,3024,3024,3022,3022,3022,3086,3024,1218,3024,3024,3024,3024,3024,3024,3024,3024,3024,3024,3024,3024,3024,3086,3086,3024,3024,3024,3024,3024,3024,3024,3086,3024,3024,3086,3024,3024,3024,3086,3086,3022,3024,3024,3024,3024,3024,3024,3024,3024,3024,3024,3024,
3024,3024,3024,3024,3022,3024,3024,3024,3024,3024,3024,3024,3024,3024,3024,3024,3024,3024,3024,3024,3024,3024,3024,3022,3024,3022,3086,3022,3086,3024,3024,3024,3024,3024,3024,3024,3024,3024,3024,3024,3024,3024,3024,3024,3024,3024,3024,3022,3024,3024,3022,3086,3024,3086,3024,3024,3024,3086,3022,3024,3024,3024,3024,3024,3024,3024,3024,3024,3024,1218,3024,3024,
3024,3024,3024,3024,3024,3022,3022,3024,3024,3022,3024,3024,3024,3024,3024,3024,3086,3024,3024,3024,3024,3024,3024,3022,3086,3024,3086,3024,3086,3024,3024,3022,3022,3022,3024,3024,3024,3024,3024,3024,3024,3024,3024,3024,3024,3024,3024,3024,3086,3024,3024,3086,3024,3086,3024,3024,3024,3024,3086,3086,3024,3024,3024,3024,3022,3022,3024,3024,3024,3024,3024,3024,
3024,3024,3024,3024,3024,3024,3024,3024,3024,3024,3024,3086,3086,3024,3024,3024,3024,3086,3024,3024,3024,3024,3024,3024,3024,3024,3086,3024,3086,3024,3024,3024,3024,3024,3024,3024,3024,3024,3086,3024,3024,3086,3022,3024,3024,3024,3024,3024,3086,3024,3086,3086,3024,3086,3024,1218,3024,3024,3024,3086,3024,3024,3024,3086,3086,3022,3024,3024,3024,3024,3022,3024,
3024,3024,3086,3024,3024,3024,3024,3024,3024,1218,3024,3022,3022,3086,3024,3024,3024,3086,3024,3024,1218,3024,3024,3024,3024,3024,3024,3024,3024,3024,3024,3024,3024,3024,3024,3024,3024,3024,3024,3086,3086,3086,3022,3024,3024,3024,3024,3086,3086,3024,3086,3024,3024,3086,3024,3024,3024,3024,3024,3024,3024,3024,3024,3024,3024,1218,1218,3024,3024,3024,3022,3024,
3024,3024,3086,3024,3024,3024,3024,3024,3024,3024,3022,3022,3024,3024,3024,3024,3024,3024,3024,3024,3024,3086,3086,3024,3024,3024,3024,3024,3024,3024,3024,3024,3024,3022,3022,3024,3024,3024,3024,3022,3022,3022,3022,3024,3024,3024,3086,3024,3024,3024,3024,3024,3086,3024,3024,3024,3024,3024,3024,3024,3024,3024,3024,3024,3024,3024,3022,3024,3024,3022,3022,3024,
3024,3024,3024,3086,3024,3024,3024,3024,3024,3024,3024,3024,3024,3024,3024,3024,3024,3024,3024,3024,3024,3024,3024,3024,3024,3024,3024,3024,3024,3024,3024,3024,3022,3022,3024,1218,3024,3024,3024,3024,3024,3024,3022,3024,3024,3086,1218,3086,3086,3024,3024,3024,3086,3024,3024,3024,3024,3024,3024,1218,3024,3022,3024,3024,3024,3024,3024,3024,3024,1218,3024,3024,
3024,3024,3024,3086,3024,3024,3024,3024,3024,3024,3024,3024,3024,3024,3024,3024,3024,3024,3024,3024,3024,3024,3024,3024,3024,3024,3024,3086,3024,3024,3024,3024,3024,3024,3024,3024,3024,3024,3024,3024,3024,3024,3024,3024,3024,3024,3024,3024,3022,3022,3024,3024,3086,3024,3024,3024,3024,3024,3022,3022,3022,3024,3024,3024,3024,3024,3024,3024,3024,3024,3024,3024,
3024,3024,3024,3086,3024,3024,3024,3024,3024,3024,3024,3024,3024,3024,3024,3024,3024,3024,3024,3024,3086,3086,3024,3024,3024,3024,3024,3024,3086,3024,3024,3024,3024,3024,3024,3024,3024,3024,3024,3024,3024,3024,3024,3024,3024,3024,3024,3024,3024,3024,3024,3086,3086,3024,3024,3024,3024,3024,3024,3024,3022,3022,3024,3024,3024,3024,3022,3024,3024,3024,3024,3024,
3024,3024,3024,3086,3024,3024,3024,3024,3024,3024,3024,3024,3024,3024,3024,3024,3024,3024,3024,3024,3086,3024,3024,3024,3024,3024,3024,3024,3086,3024,3024,3024,3024,3024,3024,3024,3024,3024,3024,3024,3024,3024,3024,3024,3024,3024,3024,3024,3024,3024,3024,3086,3024,3024,3024,3024,3024,3024,3024,3024,3024,3022,3022,3022,3022,3024,3024,3024,3024,3024,3024,3024
</data>
 </layer>
</map>
