<?xml version="1.0" encoding="UTF-8"?>
<map version="1.10" tiledversion="1.12.1" orientation="orthogonal" renderorder="right-down" width="60" height="40" tilewidth="32" tileheight="32" infinite="0" nextlayerid="4" nextobjectid="1">
 <tileset firstgid="1" name="floor_tiles" tilewidth="32" tileheight="32" tilecount="16" columns="4">
  <image source="floor_tiles.png" width="128" height="128"/>
 </tileset>
 <tileset firstgid="17" name="terrain" tilewidth="32" tileheight="32" tilecount="9472" columns="64">
  <image source="terrain.png" width="2060" height="4760"/>
 </tileset>
 <tileset firstgid="9489" name="Details" tilewidth="32" tileheight="32" tilecount="90" columns="18">
  <image source="Details.png" width="576" height="176"/>
 </tileset>
 <tileset firstgid="9579" name="Objects" tilewidth="32" tileheight="32" tilecount="528" columns="24">
  <image source="Objects.png" width="768" height="704"/>
 </tileset>
 <layer id="1" name="Tile Layer 1" width="60" height="40">
  <data encoding="csv">
1,2,2,2,2,2,2,2,2,2,2,2,2,2,2,2,3,3,3,3,3,3,3,3,3,3,3,3,3,2,2,2,2,2,2,2,2,2,2,2,2,2,2,2,2,2,2,2,2,2,2,2,2,2,2,2,2,4,0,0,
5,6,6,6,6,6,6,6,6,6,6,6,6,6,6,6,6,6,6,6,6,6,6,6,6,6,6,6,6,6,6,6,6,6,6,6,6,6,6,6,6,6,6,6,6,6,6,6,6,6,6,6,6,6,6,6,6,8,0,0,
5,6,6,15,6,6,6,6,6,6,6,6,6,6,6,6,6,6,6,6,6,6,6,14,6,16,6,6,6,6,6,6,6,6,6,6,6,6,6,6,6,6,6,6,6,6,6,6,16,6,6,6,6,6,6,6,6,8,0,0,
5,6,6,14,6,6,16,6,6,6,6,15,16,6,6,6,6,16,14,15,14,14,15,14,14,6,6,6,6,6,6,6,16,6,6,6,6,6,6,16,6,6,6,16,6,6,6,6,6,6,6,6,6,6,6,6,6,8,0,0,
5,6,15,6,14,14,14,6,6,6,6,6,6,6,6,6,14,14,6,6,6,6,6,6,14,6,6,14,6,6,6,6,6,6,6,6,6,6,6,14,14,14,14,6,6,6,6,6,6,6,6,6,6,6,6,6,6,8,0,0,
5,6,14,6,15,14,6,14,14,15,6,6,6,6,16,14,14,6,6,6,6,6,6,15,6,14,6,6,6,6,16,6,6,6,6,6,16,6,14,14,6,6,14,14,6,7,7,7,7,6,6,6,6,6,6,6,6,8,0,0,
5,6,6,6,6,14,14,15,6,6,6,6,6,6,6,6,6,6,6,6,6,14,6,6,6,14,6,6,6,6,6,6,6,6,6,6,14,14,6,6,6,6,7,7,14,14,6,6,6,7,7,7,6,16,6,6,6,8,0,0,
5,6,15,6,6,15,14,14,6,6,6,14,6,15,6,6,6,6,6,6,16,6,6,6,6,15,16,6,6,6,6,6,6,6,6,6,6,6,6,6,16,7,6,6,16,15,6,6,6,16,16,7,6,15,6,6,6,8,0,0,
5,15,6,6,6,15,6,6,6,6,6,6,15,6,7,6,15,6,16,6,6,6,6,6,6,6,14,6,6,6,6,6,6,16,6,6,6,7,7,7,6,6,6,6,6,14,6,6,6,6,6,7,6,6,6,6,6,8,0,0,
5,6,6,15,14,6,6,14,14,6,16,6,6,6,7,6,6,6,6,14,14,6,6,15,6,16,14,6,16,6,6,6,6,6,6,6,6,7,6,6,6,6,6,6,6,14,7,6,16,6,7,6,7,16,6,6,6,8,0,0,
5,6,6,6,14,6,15,16,14,6,6,6,6,6,7,6,6,14,6,6,14,6,6,6,6,6,14,6,6,6,6,6,6,6,6,6,7,16,6,6,6,6,6,16,14,6,7,6,6,6,7,6,6,7,6,6,6,8,0,0,
5,6,15,14,6,6,6,6,14,15,6,6,6,7,6,7,7,6,6,6,16,6,6,6,6,6,6,6,6,6,7,16,6,6,6,7,6,6,15,6,6,6,6,6,14,16,7,7,6,6,7,6,6,7,6,6,6,8,0,0,
5,6,6,14,6,6,15,6,14,14,6,6,6,16,7,7,6,15,6,6,14,6,6,16,6,6,6,6,6,6,6,7,6,6,7,16,6,6,6,6,6,6,6,14,6,16,6,7,6,7,16,6,6,6,7,6,6,8,0,0,
5,6,6,16,6,6,6,6,6,14,6,6,6,7,6,6,14,6,6,6,14,6,6,6,6,6,6,16,6,6,6,6,7,7,7,6,6,6,6,6,6,14,14,6,6,6,6,6,7,6,6,6,6,6,6,7,6,8,0,0,
5,6,6,6,15,15,6,15,14,14,6,6,15,14,6,6,6,6,6,16,6,15,14,14,14,6,6,6,6,6,6,16,6,7,7,6,6,6,16,14,14,6,6,6,6,6,6,16,16,6,6,6,6,6,16,7,6,8,0,0,
5,6,6,6,14,6,6,6,6,6,6,16,6,14,14,6,16,6,6,14,14,14,14,16,14,6,6,15,6,6,6,7,6,7,6,7,6,6,6,14,14,14,14,16,6,6,6,7,15,6,6,6,6,6,6,7,6,8,0,0,
5,6,6,6,6,6,14,15,15,15,7,6,6,6,14,6,6,6,6,6,6,6,6,6,14,14,6,6,6,6,6,7,7,6,7,7,6,14,14,14,6,6,6,15,15,6,7,7,6,6,6,6,6,6,6,7,6,8,0,0,
5,6,14,6,16,6,15,15,6,15,6,6,6,15,14,14,14,6,6,15,6,6,15,6,6,6,15,6,6,6,6,16,16,6,7,7,14,14,14,14,6,6,6,6,14,7,6,7,6,6,6,15,6,15,6,7,6,8,0,0,
5,6,6,6,6,6,6,6,6,6,6,6,6,6,6,6,6,6,6,6,6,6,6,6,6,16,6,6,6,6,7,7,6,6,7,14,14,6,6,14,14,6,6,6,16,6,7,6,6,16,6,6,6,6,7,6,6,8,0,0,
5,6,6,6,6,6,6,6,6,6,6,6,6,6,6,6,6,15,15,6,15,6,6,6,6,16,14,6,7,6,6,7,6,6,14,16,7,15,7,16,15,14,14,14,14,7,6,6,6,6,6,6,6,6,16,6,6,8,0,0,
5,6,6,6,6,6,6,6,6,6,6,6,6,6,6,6,6,6,6,6,6,6,6,6,6,6,14,6,7,6,6,7,6,7,14,7,6,6,6,6,15,7,7,14,14,6,6,6,6,6,6,6,6,7,6,6,6,8,0,0,
5,6,6,6,6,6,6,7,7,16,6,14,14,14,14,14,16,6,6,6,6,6,6,6,6,6,14,7,6,15,6,6,7,14,7,7,6,6,6,6,6,7,6,6,7,14,6,15,14,16,14,14,14,6,6,6,6,8,0,0,
5,6,6,6,14,14,14,15,16,14,14,14,6,6,6,6,6,14,14,14,6,6,6,15,6,14,14,6,6,6,7,7,6,14,7,6,6,6,6,6,6,7,14,14,14,14,14,16,14,6,6,7,14,16,6,6,6,8,0,0,
5,6,6,6,14,6,7,15,6,6,7,6,16,6,14,14,14,14,16,14,6,6,16,6,14,14,6,7,16,7,6,7,7,16,6,6,6,6,6,7,7,16,14,6,6,14,6,14,14,6,7,6,14,6,6,6,6,8,0,0,
5,6,6,14,16,6,7,15,6,6,6,7,7,14,14,6,6,6,6,6,6,6,6,14,7,7,7,7,7,7,6,6,14,7,6,6,16,6,7,7,7,6,6,6,6,6,14,7,14,14,6,14,15,6,6,6,6,8,0,0,
5,6,6,14,6,6,7,6,6,6,6,6,14,7,6,6,6,6,6,6,6,6,16,7,7,7,6,16,7,6,6,6,14,6,7,6,6,6,7,6,6,6,6,6,6,6,14,14,6,14,14,14,6,6,6,6,6,8,0,0,
5,6,6,14,6,6,7,6,6,16,6,14,14,7,16,7,6,6,6,6,14,14,7,15,6,6,15,15,6,6,6,15,14,6,6,15,6,6,7,15,15,6,6,16,16,7,6,14,14,14,14,14,6,6,6,6,6,8,0,0,
5,6,6,14,6,6,6,7,6,6,6,14,6,6,16,6,6,6,6,14,7,6,6,6,6,6,6,15,15,6,16,15,14,6,6,15,15,15,6,6,6,6,6,7,7,6,6,6,6,6,6,14,16,6,6,6,15,8,0,0,
5,6,6,16,6,6,6,15,16,6,6,6,7,6,6,6,16,6,14,14,7,6,6,6,6,6,6,6,6,6,6,6,14,6,6,16,6,7,7,7,7,7,7,6,6,6,6,16,6,6,6,14,16,6,6,6,6,8,0,0,
5,6,6,14,14,6,6,6,7,6,6,6,6,6,6,6,14,14,14,7,15,6,6,6,6,6,6,6,6,6,6,6,7,14,6,6,6,7,6,6,6,6,6,6,15,6,6,6,6,6,6,6,14,14,6,6,6,8,0,0,
5,6,6,6,14,14,6,6,6,6,6,6,6,6,6,14,6,6,6,7,6,6,6,6,6,6,6,6,6,6,7,6,7,6,14,14,14,14,14,16,14,14,14,6,6,7,6,6,6,6,6,6,14,14,6,6,6,8,0,0,
5,6,6,6,6,14,14,6,6,6,6,6,6,16,14,15,6,6,15,16,6,15,6,6,6,16,6,6,6,7,6,6,6,7,16,6,6,6,6,6,6,6,7,6,16,6,6,6,6,6,6,14,14,6,6,6,6,8,0,0,
5,6,6,6,6,6,16,16,14,14,14,14,14,14,6,6,6,6,6,7,6,6,6,6,6,6,6,6,7,6,6,6,6,6,7,6,6,6,6,6,6,7,6,6,6,6,6,6,14,15,14,6,6,6,6,15,6,8,0,0,
5,6,6,6,6,6,6,6,6,6,6,6,6,6,6,6,6,6,6,6,7,6,6,6,6,6,15,7,6,6,6,16,6,6,7,15,6,6,6,6,16,6,15,15,6,14,14,14,6,6,6,6,6,6,16,6,6,8,0,0,
5,6,6,6,6,16,6,6,6,6,6,6,16,6,6,6,15,6,6,6,6,6,7,6,6,6,6,7,16,6,6,6,6,6,6,6,16,6,6,7,6,6,6,6,6,6,6,6,6,6,6,6,6,6,6,6,6,8,0,0,
5,6,6,6,6,6,6,6,6,6,6,6,6,6,6,6,6,6,6,6,6,6,6,16,6,7,6,6,6,6,6,6,6,6,6,6,6,6,6,6,6,6,6,6,6,16,6,6,16,6,6,6,6,6,6,6,6,8,0,0,
5,6,6,6,6,6,6,6,6,6,6,6,6,6,6,6,16,6,6,6,6,6,6,6,6,6,6,6,6,6,6,6,6,6,6,6,6,6,6,6,6,6,6,6,6,6,6,6,6,6,6,6,6,6,6,6,6,8,0,0,
9,11,11,11,11,11,11,11,11,11,11,11,11,11,11,11,11,11,11,11,11,11,11,11,11,11,11,11,11,11,11,11,11,11,11,11,11,11,11,11,11,11,11,11,11,11,11,11,11,11,11,11,11,11,11,11,11,12,0,0,
0,0,0,0,0,0,0,0,0,0,0,0,0,0,0,0,0,0,0,0,0,0,0,0,0,0,0,0,0,0,0,0,0,0,0,0,0,0,0,0,0,0,0,0,0,0,0,0,0,0,0,0,0,0,0,0,0,0,0,0,
0,0,0,0,0,0,0,0,0,0,0,0,0,0,0,0,0,0,0,0,0,0,0,0,0,0,0,0,0,0,0,0,0,0,0,0,0,0,0,0,0,0,0,0,0,0,0,0,0,0,0,0,0,0,0,0,0,0,0,0
</data>
 </layer>
 <layer id="2" name="objects" width="60" height="40">
  <data encoding="csv">
0,0,0,0,0,0,0,0,0,0,0,0,0,0,0,0,0,0,0,0,0,0,0,0,0,0,0,0,0,0,0,0,0,0,0,0,0,0,0,0,0,0,0,0,0,0,0,0,0,0,0,0,0,0,0,0,0,3,3,4,
0,0,0,0,0,0,0,0,0,0,0,0,0,0,0,0,0,0,0,9574,0,0,0,0,0,0,0,0,0,0,0,0,0,0,0,0,0,0,0,0,0,0,0,0,0,0,0,0,0,0,0,0,0,0,9574,0,0,6,7,8,
0,0,0,0,0,0,0,0,0,0,0,0,9574,0,0,0,0,0,0,0,0,0,0,0,0,0,0,0,0,0,0,0,0,0,0,0,0,0,0,0,9574,9574,0,0,0,0,0,0,0,0,0,0,0,0,9574,0,0,6,7,8,
0,0,0,0,0,0,0,0,0,0,0,0,0,0,0,0,0,0,0,0,0,0,0,0,0,0,0,0,0,0,0,0,0,0,0,0,0,0,0,0,0,0,0,0,0,0,0,0,0,0,0,0,0,0,0,0,0,6,7,8,
0,0,0,9574,0,0,0,0,0,0,0,0,0,0,0,9574,0,0,0,0,0,0,0,0,0,0,0,0,0,0,0,0,0,9574,0,0,0,0,0,0,0,0,0,0,0,0,0,0,0,0,0,0,0,0,0,0,0,6,7,8,
0,0,0,0,0,0,0,0,0,0,0,0,0,0,0,0,0,0,0,0,0,0,0,0,0,0,0,0,0,0,0,0,0,0,0,0,0,0,0,0,0,0,0,0,0,0,0,0,0,0,0,9574,0,0,0,0,0,6,7,8,
0,0,0,0,0,0,0,0,0,0,0,0,0,0,0,0,0,0,0,0,0,0,0,0,0,0,0,0,0,0,0,0,0,0,0,0,0,0,0,0,0,0,0,0,0,0,0,0,0,0,0,0,0,0,0,0,0,6,7,8,
0,0,0,0,0,0,0,0,0,0,0,0,0,0,0,0,0,0,0,0,0,0,9501,0,0,0,0,0,0,0,0,0,0,0,0,0,0,0,9501,0,0,9501,9501,9501,9501,9501,9501,9501,0,0,0,0,0,0,0,0,0,6,7,8,
0,0,0,0,0,9574,0,0,0,0,0,0,0,0,0,0,9574,0,0,0,0,0,0,0,0,0,9574,0,0,0,0,0,0,0,0,9501,9501,9501,9501,0,0,0,0,0,0,0,0,0,0,0,0,0,0,0,0,0,0,6,7,8,
0,0,0,0,0,9574,0,0,0,0,0,0,0,0,0,0,9574,0,0,0,0,0,0,0,0,0,0,0,0,0,0,9501,9501,9501,9501,9501,9501,0,0,9501,0,0,0,0,0,9507,0,0,9507,0,0,0,0,0,0,0,0,6,7,8,
0,0,0,0,0,0,0,0,0,0,0,0,9501,0,0,0,0,0,0,0,0,0,0,0,0,0,0,0,0,0,0,0,0,0,9501,0,0,0,0,0,9501,0,0,0,0,0,0,0,0,0,9507,0,0,0,0,0,0,6,7,8,
0,0,0,0,0,0,0,0,0,0,0,0,9501,0,0,0,0,0,0,0,0,0,0,0,0,0,9501,0,9501,0,0,0,0,0,9501,0,0,0,0,0,9501,9501,0,0,0,0,0,9507,0,0,0,0,9507,9507,0,9507,6,6,7,8,
0,0,0,0,0,0,0,0,0,0,0,0,0,0,0,0,0,0,0,0,0,0,0,9501,9501,9501,0,9501,0,0,0,0,0,0,0,0,0,0,0,0,0,9501,0,0,0,9501,0,0,0,0,0,0,0,0,0,0,6,6,7,8,
0,0,0,0,0,0,0,0,0,0,0,0,0,0,0,0,0,0,0,9501,9501,9507,9501,0,0,0,0,9507,0,0,0,0,0,0,0,0,0,0,0,0,0,9501,0,0,0,0,0,0,0,0,9501,9501,0,0,0,0,6,6,7,8,
0,0,0,0,0,0,0,0,0,0,0,0,0,0,0,9501,9501,9507,9501,0,0,0,0,0,0,0,9501,0,0,0,0,0,0,9507,0,0,0,0,0,0,0,0,0,9507,0,0,0,0,0,0,0,9501,0,0,0,0,6,6,7,8,
0,0,0,0,0,0,0,0,0,0,9501,0,0,0,0,0,0,0,0,9507,0,0,0,0,0,0,9501,0,0,0,0,0,0,0,0,0,0,0,0,9507,9507,0,0,0,0,0,9501,9574,0,0,0,0,0,0,9507,0,6,6,7,8,
0,0,0,0,0,0,0,0,0,0,9501,0,0,0,0,9574,0,0,0,0,0,0,0,0,0,9501,0,0,0,0,9574,0,0,0,0,0,0,0,0,0,0,0,9507,0,0,0,9501,0,0,0,9507,9501,0,0,0,0,0,6,7,8,
0,0,0,0,0,0,0,0,0,0,9501,0,0,0,0,0,0,0,0,0,0,0,0,0,0,9507,0,0,0,0,9574,0,0,0,0,0,0,9507,0,0,0,0,0,0,0,0,9501,0,0,0,0,0,0,0,0,0,0,6,7,8,
0,0,0,0,0,0,0,0,0,0,0,0,0,0,0,0,0,0,0,0,0,0,0,0,9501,0,0,0,0,0,0,0,0,0,0,0,0,0,0,0,0,0,0,0,0,9501,0,0,0,0,0,0,0,0,0,0,0,6,7,8,
0,0,0,9507,0,0,0,0,0,0,0,0,0,0,0,0,0,0,0,0,0,9501,0,0,9501,0,0,0,0,0,0,0,0,0,0,0,0,0,0,0,0,0,0,0,9501,9501,0,0,0,0,0,9507,0,0,0,0,0,6,7,8,
0,0,0,0,0,0,0,9507,0,0,0,0,0,0,0,0,0,0,0,0,0,0,0,9501,0,0,0,0,0,0,0,0,0,0,0,0,0,0,0,9507,0,0,0,9501,9501,0,9507,9501,0,0,0,0,0,0,0,0,0,6,7,8,
0,0,0,0,0,0,0,0,0,0,0,0,0,9501,0,0,0,0,0,0,0,0,0,9501,0,0,0,0,0,9507,0,0,0,0,0,0,0,0,0,0,0,9501,9501,0,9501,0,9507,9501,0,0,0,0,0,0,0,0,0,6,7,8,
0,0,0,9507,0,0,0,0,0,0,0,0,0,9501,0,0,0,9507,0,0,9507,0,0,9501,0,0,0,0,0,0,0,9501,0,0,0,0,0,9501,0,0,0,0,0,0,0,0,0,9501,0,0,0,0,0,0,0,0,0,6,7,8,
0,0,0,0,0,0,0,0,0,0,9574,0,0,0,0,0,0,0,0,0,0,0,0,9501,0,0,0,0,0,0,0,0,0,0,0,0,0,0,9501,0,0,0,0,0,0,0,0,9501,9574,0,9507,0,0,0,0,0,0,6,7,8,
0,0,0,0,0,0,0,0,0,0,9574,0,0,0,0,0,9501,9501,9501,9501,9501,9574,9501,9501,0,9507,0,0,0,0,0,0,0,0,0,0,0,0,0,0,0,0,0,0,0,0,0,9501,0,0,0,0,0,0,0,0,0,6,7,8,
0,0,0,0,0,0,0,0,0,0,0,0,0,9501,9501,9501,0,0,0,0,0,9574,0,9501,0,0,0,0,0,0,0,0,0,0,0,0,0,0,0,0,0,9501,9501,9501,0,0,0,9501,9501,0,0,0,0,0,0,0,0,6,7,8,
0,0,0,0,0,0,0,0,0,0,0,0,0,0,0,0,0,0,0,0,0,0,0,9501,0,0,0,9501,9501,9501,9501,0,0,0,0,0,0,0,0,0,0,9501,0,0,0,0,0,0,9501,9501,0,0,0,0,0,0,0,6,7,8,
0,0,0,0,0,0,0,0,0,0,0,0,0,0,0,0,0,0,0,9507,0,0,0,0,9501,9501,0,0,0,0,0,0,0,0,0,0,0,0,0,9574,0,0,0,0,0,0,0,0,9501,0,0,0,0,0,0,0,0,6,7,8,
0,0,0,0,0,0,9501,9501,0,0,0,0,0,0,0,0,0,9507,0,0,0,0,0,0,0,0,0,9574,0,0,0,0,0,0,0,0,0,0,0,0,0,0,0,0,0,0,0,0,0,9501,0,0,0,0,0,0,0,6,7,8,
0,0,0,0,0,0,9501,0,0,0,0,0,0,0,0,0,0,0,0,0,0,0,0,9507,0,0,0,0,0,0,0,0,0,0,0,0,0,0,0,0,0,0,9507,0,9501,0,0,0,0,9501,0,0,0,0,0,0,0,6,7,8,
0,0,0,0,0,0,9501,9574,9574,0,0,0,0,0,0,0,0,0,0,0,0,0,0,0,0,0,0,9501,9501,9501,0,0,0,0,0,0,0,0,0,0,0,0,9507,0,9501,0,9507,0,0,9501,9501,0,0,0,0,0,0,6,7,8,
0,0,0,0,0,0,9501,9574,0,0,0,0,0,0,0,0,0,0,0,0,0,9507,0,0,0,0,0,0,0,0,0,0,0,0,0,0,0,0,0,0,0,0,0,0,9501,0,0,0,0,0,9501,9501,0,0,0,0,0,6,7,8,
0,0,0,0,0,0,0,0,0,0,0,9501,9501,9501,9501,9501,0,0,0,0,0,0,0,0,9507,0,0,0,0,0,0,0,0,0,0,0,0,0,0,0,0,0,0,0,9501,0,0,0,0,0,0,9574,9574,0,0,0,0,6,7,8,
0,9501,0,0,0,0,0,0,0,0,0,0,0,0,0,0,0,0,0,0,0,0,0,0,0,0,0,0,0,0,0,0,0,0,0,0,0,0,0,0,0,0,0,0,9501,9501,0,0,0,0,9501,0,0,0,0,0,0,6,7,8,
0,0,0,0,0,0,0,0,0,0,0,0,0,0,0,0,0,9574,0,0,0,0,0,0,0,0,0,0,0,0,0,0,0,0,0,0,0,0,0,0,0,0,0,0,9501,9501,9507,0,0,0,0,9501,0,0,0,0,0,6,7,8,
0,0,0,0,0,0,0,0,0,0,0,9501,0,0,0,0,0,9574,0,9501,0,0,0,0,0,0,0,9501,0,0,0,0,0,0,0,0,0,0,0,9501,0,9574,9501,9501,9501,0,0,0,0,0,0,0,9507,0,0,0,0,6,7,8,
0,0,0,9507,0,0,0,0,0,0,0,9501,9501,0,0,0,0,0,0,0,9501,9501,0,0,0,0,0,0,9501,9574,0,0,0,0,0,0,0,0,0,9501,0,9501,9501,0,9501,0,0,0,0,0,0,0,0,9507,9501,9501,9501,6,7,8,
5,6,6,6,6,6,6,6,9507,6,6,6,6,6,6,6,6,6,6,6,6,6,6,6,6,6,6,6,6,6,6,6,6,6,6,6,6,6,6,6,6,6,6,6,6,6,6,6,6,6,6,6,6,6,6,6,6,6,7,8,
5,7,7,7,7,7,7,7,7,7,7,7,7,7,7,7,7,7,7,7,7,7,7,7,7,7,7,7,7,7,7,7,7,7,7,7,7,7,7,7,7,7,7,6,6,6,6,6,6,7,7,7,7,7,7,7,7,7,7,8,
9,11,11,11,11,11,11,11,11,11,11,11,11,11,11,11,11,11,11,11,11,11,11,11,11,11,11,11,11,11,11,11,11,11,11,11,11,11,11,11,11,11,11,11,11,11,11,11,11,11,11,11,11,11,11,11,11,11,11,12
</data>
 </layer>
 <layer id="3" name="Tile Layer 3" width="60" height="40">
  <data encoding="csv">
0,0,0,0,0,0,0,0,0,0,0,0,0,0,0,0,0,0,0,0,0,0,0,0,0,0,0,0,0,0,0,0,0,0,0,0,0,0,0,0,0,0,0,0,0,0,0,0,0,0,0,0,0,0,0,0,0,0,0,0,
0,0,0,0,0,0,0,0,0,0,0,0,0,0,0,0,0,0,0,0,0,0,0,0,0,0,0,0,0,0,0,0,0,0,0,0,0,0,0,0,0,0,0,0,0,0,0,0,0,0,0,0,0,0,0,0,0,0,0,0,
0,0,0,0,0,0,0,0,0,0,0,0,0,0,0,0,0,0,0,0,0,0,0,0,0,0,0,0,0,0,0,0,0,0,0,0,0,0,0,0,0,0,0,0,0,0,0,0,0,0,0,0,0,0,0,0,0,0,0,0,
0,0,0,0,0,0,0,0,0,0,0,0,0,0,0,0,0,0,0,0,0,0,0,0,0,0,0,0,0,0,0,0,0,0,0,0,0,0,0,0,0,0,0,0,0,0,0,0,0,0,0,0,0,0,0,0,0,0,0,0,
0,0,0,0,0,0,0,0,0,0,0,0,0,0,0,0,0,0,0,0,0,0,0,0,0,0,0,0,0,0,0,0,0,0,0,0,0,0,0,0,0,0,0,9747,9748,0,0,0,0,0,0,0,0,0,0,0,0,0,0,0,
0,0,0,0,0,0,0,0,0,0,0,0,0,0,0,0,0,0,0,0,0,0,0,0,0,0,0,0,0,0,0,0,0,0,0,0,0,0,0,0,0,0,0,9771,9772,0,0,0,0,0,0,0,0,0,0,0,0,0,0,0,
0,0,0,0,0,0,0,0,0,0,0,0,0,0,0,0,0,0,0,0,0,0,0,0,0,0,0,0,0,0,0,0,0,0,0,0,0,0,0,0,0,0,0,0,0,0,0,0,0,0,0,0,0,0,0,0,0,0,0,0,
0,0,0,0,0,0,0,0,0,0,0,0,0,0,0,0,0,0,0,0,0,0,0,0,0,0,0,0,9666,9667,0,0,0,0,0,0,0,0,0,0,0,0,0,0,0,0,0,0,0,0,0,0,0,0,0,0,0,0,0,0,
0,0,0,0,0,0,0,0,0,0,0,0,0,0,0,0,0,0,0,0,0,0,0,0,0,0,0,0,9690,9691,0,0,0,0,0,0,0,0,0,0,0,0,0,0,0,0,0,0,0,0,0,0,0,0,0,0,0,0,0,0,
0,0,0,0,0,0,0,0,0,0,0,0,0,0,0,0,0,0,0,0,0,0,0,0,0,0,0,0,9714,9715,0,0,0,0,0,0,0,0,0,0,0,0,0,0,0,0,0,0,0,0,0,0,0,0,0,0,0,0,0,0,
0,0,0,0,0,0,0,0,0,0,0,0,0,0,0,9579,9580,9581,9582,9583,0,0,0,0,0,0,0,0,0,0,0,0,0,0,0,0,0,0,0,0,0,0,0,0,0,0,0,0,0,0,0,0,0,0,0,0,0,0,0,0,
0,0,0,0,0,0,0,0,0,0,0,0,0,0,0,9603,9604,9605,9606,9607,0,0,0,0,0,0,0,0,0,0,0,0,0,0,0,0,0,0,0,0,0,0,0,0,0,0,0,0,0,0,0,9747,9748,0,0,0,0,0,0,0,
0,0,0,0,0,0,0,0,0,0,0,0,0,0,0,9627,9628,9629,9630,9631,0,0,0,0,0,0,0,0,0,0,0,0,0,0,0,0,0,0,0,0,0,0,0,0,0,0,0,0,0,0,0,9771,9772,0,0,0,0,0,0,0,
0,0,0,0,0,0,0,0,0,0,0,0,0,0,0,9651,9652,9653,9654,9655,0,0,0,0,0,0,0,0,0,0,0,0,0,0,0,0,0,0,0,0,0,0,0,0,0,0,0,0,0,0,0,0,0,0,0,0,0,0,0,0,
0,0,0,0,9747,9748,0,0,0,0,0,0,0,0,0,0,0,0,0,0,0,0,0,0,0,0,0,0,0,0,0,0,0,0,0,0,0,0,0,0,0,0,0,0,0,0,0,0,0,0,0,0,0,0,0,0,0,0,0,0,
0,0,0,0,9771,9772,0,0,0,0,0,0,0,0,0,0,0,0,0,0,0,0,0,0,0,0,0,0,0,0,0,0,0,0,0,0,0,0,0,0,0,0,0,0,0,0,0,0,0,0,0,0,0,0,0,0,0,0,0,0,
0,0,0,0,0,0,0,0,0,0,0,0,0,0,0,0,0,0,0,0,0,0,0,0,0,0,0,0,0,0,0,0,0,0,0,0,0,0,0,0,0,0,0,0,0,0,0,0,0,0,0,0,0,0,0,0,0,0,0,0,
0,0,0,0,0,0,0,0,0,0,0,0,0,0,0,0,0,0,0,0,0,0,0,0,0,0,0,0,0,0,0,0,0,0,0,0,0,9666,9667,0,0,0,0,0,0,0,0,0,0,0,0,0,0,0,0,0,0,0,0,0,
0,0,0,0,0,0,0,0,0,0,0,0,0,0,0,0,0,0,0,0,0,0,0,0,0,0,0,0,0,0,0,0,0,0,0,0,0,9690,9691,0,0,0,0,0,0,0,0,0,0,0,0,0,0,0,0,0,0,0,0,0,
0,0,0,0,0,0,0,0,0,0,0,0,0,0,0,0,0,0,0,0,0,0,0,0,0,0,0,0,0,0,0,0,0,0,0,0,0,9714,9715,0,0,0,0,0,0,0,0,0,0,0,0,0,0,0,0,0,0,0,0,0,
0,0,0,0,0,0,0,0,0,0,0,0,0,0,0,0,0,0,0,0,0,0,0,0,0,0,0,0,0,0,0,0,0,0,0,0,0,0,0,0,0,0,0,0,0,0,0,0,0,0,0,0,0,0,0,0,0,0,0,0,
0,0,0,0,0,0,0,0,0,0,0,0,0,0,0,0,0,0,0,0,0,0,0,0,0,0,0,0,0,0,0,0,0,0,0,0,0,0,0,0,0,0,0,0,0,0,0,0,0,0,0,0,0,0,0,0,0,0,0,0,
0,0,0,0,0,0,0,0,0,0,0,0,0,0,0,0,0,0,0,0,0,0,0,0,0,0,0,0,0,0,0,0,0,0,0,0,0,0,0,0,0,0,0,0,0,0,0,0,0,0,0,0,0,0,0,0,0,0,0,0,
0,0,0,0,0,0,0,0,0,0,0,0,0,0,0,0,0,0,0,0,0,0,0,0,0,0,0,0,0,0,0,0,0,0,0,0,0,0,0,0,0,0,0,0,0,0,0,0,0,0,0,0,0,0,0,0,0,0,0,0,
0,0,0,0,0,0,0,0,0,0,0,0,0,0,0,0,0,0,0,0,0,0,0,0,0,0,0,0,0,0,0,0,0,0,0,0,0,0,0,0,0,0,0,0,0,0,0,0,0,0,0,0,0,0,0,0,0,0,0,0,
0,0,0,0,0,0,0,0,0,0,0,0,0,0,0,0,0,0,0,0,0,0,0,0,0,0,0,0,0,0,0,0,0,0,0,0,0,0,0,0,0,0,0,0,0,0,0,0,0,0,0,0,0,0,0,0,0,0,0,0,
0,0,0,0,0,0,0,0,0,0,0,0,0,0,0,0,0,0,0,0,0,0,0,0,0,0,0,0,0,0,0,0,0,0,0,0,0,0,0,0,0,0,0,0,0,0,0,0,0,0,0,0,0,0,0,0,0,0,0,0,
0,0,0,0,0,0,0,0,0,0,0,0,0,0,0,0,0,0,0,0,0,0,0,0,0,0,0,0,0,9666,9667,0,0,0,0,0,0,0,0,0,0,0,0,0,0,0,0,0,0,0,0,0,0,0,0,0,0,0,0,0,
0,0,0,0,0,0,0,0,0,0,0,0,0,0,0,0,0,0,0,0,0,0,0,0,0,0,0,0,0,9690,9691,0,0,0,0,0,0,0,0,0,0,0,0,0,0,0,0,0,0,0,0,0,0,0,0,0,0,0,0,0,
0,0,0,0,0,0,0,0,0,0,0,0,0,0,0,0,0,0,0,0,0,0,0,0,0,0,0,0,0,9714,9715,0,0,0,0,0,0,0,0,0,0,0,0,0,0,0,0,0,0,0,0,0,0,0,0,0,0,0,0,0,
0,0,0,0,0,0,0,0,0,0,0,0,0,0,0,0,0,0,0,0,0,0,0,0,0,0,0,0,0,0,0,0,0,0,0,0,0,0,0,0,0,0,0,0,0,0,0,0,0,0,0,0,0,0,0,0,0,0,0,0,
0,0,0,0,0,0,0,0,0,0,9666,9667,0,0,0,0,0,0,0,0,0,0,0,0,0,0,0,0,0,0,0,0,0,0,0,0,0,0,0,0,0,0,0,0,0,0,0,0,9747,9748,0,0,0,0,0,0,0,0,0,0,
0,0,0,0,0,0,0,0,0,0,9690,9691,0,0,0,0,0,0,0,0,0,0,0,0,0,0,0,0,0,0,0,0,0,0,0,0,0,0,0,0,0,0,0,0,0,0,0,0,9771,9772,0,0,0,0,0,0,0,0,0,0,
0,0,0,0,0,0,0,0,0,0,9714,9715,0,0,0,0,0,0,0,0,0,0,0,0,0,0,0,0,0,0,0,0,0,0,0,0,0,0,0,0,0,0,0,0,0,0,0,0,0,0,0,0,0,0,0,0,0,0,0,0,
0,0,0,0,0,0,0,0,0,0,0,0,0,0,0,0,0,0,0,0,0,0,0,0,0,0,0,0,0,0,0,0,0,0,0,0,0,0,0,0,0,0,0,0,0,0,0,0,0,0,0,0,0,0,0,0,0,0,0,0,
0,0,0,0,0,0,0,0,0,0,0,0,0,0,0,0,0,0,0,0,0,0,0,0,0,0,0,0,0,0,0,0,0,0,0,0,0,0,0,0,0,0,0,0,0,0,0,0,0,0,0,0,0,0,0,0,0,0,0,0,
0,0,0,0,0,0,0,0,0,0,0,0,0,0,0,0,0,0,0,0,0,0,0,0,0,0,0,0,0,0,0,0,0,0,0,0,0,0,0,0,0,0,0,0,0,0,0,0,0,0,0,0,0,0,0,0,0,0,0,0,
0,0,0,0,0,0,0,0,0,0,0,0,0,0,0,0,0,0,0,0,0,0,0,0,0,0,0,0,0,0,0,0,0,0,0,0,0,0,0,0,0,0,0,0,0,0,0,0,0,0,0,0,0,0,0,0,0,0,0,0,
0,0,0,0,0,0,0,0,0,0,0,0,0,0,0,0,0,0,0,0,0,0,0,0,0,0,0,0,0,0,0,0,0,0,0,0,0,0,0,0,0,0,0,0,0,0,0,0,0,0,0,0,0,0,0,0,0,0,0,0,
0,0,0,0,0,0,0,0,0,0,0,0,0,0,0,0,0,0,0,0,0,0,0,0,0,0,0,0,0,0,0,0,0,0,0,0,0,0,0,0,0,0,0,0,0,0,0,0,0,0,0,0,0,0,0,0,0,0,0,0
</data>
 </layer>
</map>
